/* XPM */
static char *east[] = {
/* columns rows colors chars-per-pixel */
"128 128 51 1 ",
"  c #0D0D0D",
". c #131313",
"X c #1C1C1C",
"o c #232323",
"O c #2B2B2B",
"+ c #333333",
"@ c #3C3C3C",
"# c #444444",
"$ c #484748",
"% c #4C4C4C",
"& c #535353",
"* c #5C5C5C",
"= c #646464",
"- c #6C6C6C",
"; c #747474",
": c #787778",
"> c #7C7C7C",
", c #848484",
"< c #8C8C8C",
"1 c #939393",
"2 c #949494",
"3 c #9A9A9A",
"4 c #9C9C9C",
"5 c #A0A0A0",
"6 c #A4A4A4",
"7 c #A5A5A5",
"8 c #A8A7A8",
"9 c #ABABAB",
"0 c #ACACAC",
"q c #AFAFAF",
"w c #B0AFB0",
"e c #B3B3B3",
"r c #B7B7B7",
"t c #B9B9B9",
"y c #BFBFBF",
"u c #C0C0C0",
"i c #C4C4C4",
"p c #CACACA",
"a c #CBCBCB",
"s c #CCCCCC",
"d c #D2D2D2",
"f c #D6D6D6",
"g c #DADADA",
"h c #DEDEDE",
"j c #E3E3E3",
"k c #E6E6E6",
"l c #EBEBEB",
"z c #ECECEC",
"x c #F0F0F0",
"c c #F4F4F4",
"v c #F8F8F8",
/* pixels */
"zzzzzzzxxxzzzxxxxxxxxxxxxxxxxczfyrq74<,,,,,,>:-=*$#@OoXX....        .. .o+XXXoooooOO+@#&slllzzxxxxccxcccccxxxcccxxxxxxxxxxzzzzzz",
"zzzzzzzxxxzzzzxxxxxxxxxxxxxxxczfyee742,>,,<<>>;=&$@OOoXX....        .. .o@oXXoooOOOO@##&slllzzxxxcccxxccccxxxxxxxxxxxxxxxxzzzzzz",
"zzzzzzzzxxxzxxxxxxxxxxxxxxxxcczfyreq52>,2<1<,,--&%#+OXX.....        ....o@oXoooOOOOO+@#&plllzzzxxxccxxcxxxxxxxxxxxxxxxxxxzzzzzzz",
"zzzzzzzxxxxxxxxxxxxxxxxxxxxxcczduttq41,,<<<<<,;-*&@+OXX......   ..   ..XooXXoooOO+OO+@@%izllzzzxxxxxxcxxxxxxxxxxxxxxxxxxxzzzzzzz",
"zzzzzzxxxxxxxzzzxxxxxxxxxxxxxczfuyyq41,,<<<,<>:-=&@++oX.XX.......... ..XXXXXooooO+OO+@#%yzllzzzxxxxxxxxxxxxxxxxxxxxxxxxxzxzzzzzz",
"zzzzzxxxxxxxzzzzxxxxxxxxxxxxxxzfuiye4<,<1<<<1,-;=&$@+OXXX...........  .....XXoooOOOO+@%%rzllzzzxxxxxxxxxxxxxxxxxxxxxxxzxxxzzzzzz",
"zzzzzxxxzzxxxzzzxxxxxxxxxxxxxxzdiuye42<<<<221,>:-=%#+OoXXoX.......... ......XoooOOOOO@%%9zllzzzxxxxxxxxxzzzxxxxxxxxxxzxxzzzzzzzz",
"zzzzzxxxzzxxxzzzxxxxxxxxxxxxxxxdpyr743<,,1321,>>;-%$#OoXooo.........   .....XXooOOO++@$%4lllzzzxxxxxxxxxzzzzxxxxxxxzxzxxzzzlllll",
"zzzzzzxxzzxxxxxxzxxxxxxxxxxxxxxgpit5421<<2111<,>;=*%%#+@@+OXX..X..        ..XXXXooO+++$%<llllzzxxxxxxxzzzzxxxxxxxxxzzzxzllllllll",
"zzzzzzzxzzxxxxzxzxxxxxxxxxxxxxxfiite5351<2112<<>;=*%&&%*%@OOXX.X.         ...XXXooO+++#%,klllzzxzzzxxzzzzzxxxxxxxxzzzzzzllllllll",
"zzzzzzzzzzzxzzzxxxxxxxxxxxxxxxxgpute9742131<<,,:--*=---*&%@+XXooX         ...XXXXoO+++@%;hlllzzzzzxxxxxzzzxxzzxxxxxxzzzzllllllll",
"zzzzzzzzzzxxzzzzxxxxxxxxxxxxxxxhpurq554111<<,>>;-;-:>>-**&@+OOOo. .     ......XXooOO++@%=slllzzzzzxxxxzzzzxxzzzxxxxxzzzzllllllll",
"zzzzzzxzzzzzzzzxxxxxxxxxxxxxxxxgpur954321<,<,::--:-:>;-*&&@@@+@O....    ......XXoooo+@@#&uzllzzzzzzxxxzzzzzzzzxxzzzzzzllllllllll",
"lzzzzxxxzzzzzzxxxxxxxxxxxxxxxxxgdpyq543231<<,>>-:;->;-=&*&#@+@%OX..      ......XXooo+++@%9zllzzzzzxxxxzzzzzzzzzzzzzzzllllkkklkll",
"lzzzzxxxzzxzxxxxxxxxxxxxxxxxxxxhfdueq9954242<<,-:>;::=**$$@++@%+XX.      ......XXXooO++@$2zzzzzzxxxxxxzzzzzzxxxxzzzzzllllkllkkkk",
"lzzzzxxxzzxxxxxxxxxxxxxxxxxcxxxjfdpteqq95573<2,>,:--***&$###@@@+oX.       ......XXXoO++@$,lzzzzzxxxxxzzzzzzzxxxxzzzzlllllkkkkkkk",
"lzzzzzxxzzzzxxxxxxxxxxxxxxxcccxkhfsueqeq7575331<,>-=&*%%$%%$##@OoX..      .......XXoO+@@$-jxzzzzxxzzzzzzlllzzzzzzzzzzlllkkklllkk",
"zzzzzzxxxxzzxxxxxxxxxxccxxccccxkhfsytreeq798432<,>-==*$$@#%%@@@+OoX..     .......XXXO++@#*fxzzxxzzzzzzzzlllzzzzzzzzzllllkkkkllkl",
"zzzzzzxxxxxxxxxxxxxxxxccxxxxccclhfdiutrtq775453<,,:--*%%&*&&$$#@+OX..     .......XXoOO+@#*sxzzxxzzzzzzzlllllzzzzzzzlllllkkllllll",
"zzzzzzxxxxxxxxxxxxxxxxccxxxxccczhfdsitrtqrr95532,,:;=&&&*==*%%$@@OoX.............XXoOO+@#&uxzzxxzzzzzzllllllzzzzzzzlllllkkklllll",
"lzzzzzzzzzxxxxxxxxxxxxxxccccxxczhfdputtttyytt7521<:>-**===-*&%%%&@++X......X....XXXoO+++@%rxzzxxxzzzzzllllllzzzzzzllllllllllllll",
"lzzzzzzzzzxxxxxxxxxcccxxccccxxczjfdputyuyutyte511,,,>--;-;=&&%%&&%&%+oX..XooXXoOoooO$@++@$5xxzxxxzzzzzllllllzzzzzlllllllllllklll",
"lzzzzzzxzzxxxxxxxxxcccxxcccxxxcxjfspiuyyuiyttt71,<<,>>,<<,::=&**$==%&+OooO@+ooO+@@@$&%@+@#<zxzzzxxzzzzllllllzzzzlzllllllllkkkklk",
"lzzzzxxxzzxxxxxxxxxccccccccxxxcxkgdspuyyyuyyurq2<342,1317111;*&%#*&%%O+++O++OO++@#%&&*&+@#:lxzzzxxzzzzzllllllzzzzzlllllllkkkkklk",
"lzzzzzxxxxxxxxxxxxxxxxxxxccccccxlhddpyiiipiyye42359q4951995<,=%$#$%%+O#@+o+++++@#$%***=%@#-jxzxzxxxxzzzzlllllzzzzzlllllllkkkkkkk",
"llzzzzzxxxxxxxxxxxxxxxxxcccccccclhdddiiuiiitte4579teey99qeye42,>>:,,-=&*=%OOOOO@$%%*=**=&$=hxxxxxxzxzzzzzzzllzzzzzlllllllkkkkkkk",
"llzzzzzzxxxxxxxxxxxxxxccccccccccljgfdpsiiiyyr937rtpsffpueee7,-**&*===%##%$+OOO@#$%&**%&*=&*dxxxxzzzzxzzzzzzzlzzzzzllllllllkkkkll",
"lllzzzzzxxxxxxxxxxxxxxxccccccccczkhgfddpuiireersgjjdq1:>>>-=&#@#%$%$%%&%%&*&%$%&*=:,,**%&-:dxxxxxxzzxxzzzzzzlzzzzzlllllllkkkklll",
"lllzzzzzxxxxxxxxxxxxxxccxccccccczkjjgffiyiipfjjgddi97qr742<,<:=&&*-**=-=*--*===*=-;:>>-=->7gxxxxxxxzzzzzzzzzzzzzzzllllllllkkkkll",
"lllzzzzzxxxxxxxxxxxxxxccxccccccczkjjhgdsfklkhgssdjugku2>,>---;:**=-===-***-:-&%$%=-;-;;<2<qpxxxxxxxxzzxxzzzzzzzzzzllllllllkkkkll",
"lllzlzzzxxxxxxxxxxxxxxcccccccxxxzlllkkkzzzkjkkklkgyjpqqe5>,,;=;---&&*=&%&->:-=&*==-;;:-=,39izxxxxxxxzzzxzzzzzzzzzllllllllllkklll",
"llllllzzzzzxxxxxxxxxzkgpe741<,<,,,<14qridfjlzzxzhujkhsq,-&-:4-&*=-;==**-:>,-*=;:,,<;;;>=>2qtkxxxxxxxxxxxzzzzzzzzllllllllllllkkll",
"llllllllzzzxzzxxlft4,=&#+OOOooooooXXooO+#$*>3tsgsjzgr9iuiutr2--**&==-*---;:--**;-=:->>,><5qqjxxzzlkgsiureerqqq95543325ujlkkklllk",
"kkllllllzzzzxks9>%+OooooooXXXXXXXX.........XXO@*:2yuupgjdyq4>=:**===-=-=*==&%&&***-:---;<4ridpr94,>-====-:>:;-**&%$$@#&,ukkkkkkk",
"kkkklllllzlgq:%+ooXXXXXXXXXX....................XXO#-<9yiir1=%@+OOOOOOO++++++O+@@$&**-:<31<,=**&&%%%$$#@@$%$#@@@@+++O+@@*ikkkkkk",
"kkkkkkklju<&+oooXXXXXXX..............................XoO@&=:,121<>:;--;-----:;-===----=&%#@@@@@OOOoooOOO++@+OoooooOoOOO+#4kjjkkk",
"kkjjkkf7-#OooooXXXXX...............   .X. ...      ........XXoO@#%%%$$@+@@++O++OOOOooooooooXXXXXoXXoooO+@#@OoooooooooO++@7kjjjjj",
"hhhjs2*+ooooXXXXXX.................    ..                   ..................................XXXXXooooO@#+ooooooooooO+@-djjjjjj",
"ggg9*+OooooXXX................. ..                                .........      . .    ........XXXXXXoO+OoooooooOooO++&ykjjjjjj",
"ghr$OOoooXXXX.................                                       . ...              ...........XXXXoOooooooooooOO+#7jjjjjjjj",
"hh>OOoooXXXXX.......... ......                                         ..              ............XXXXOooooOoooooO++#3jjjjjjjjj",
"hg;OoooXXXXXX..........    ...                                       .....         .............XXXXXXoOoooooXXXooO+$3hjjjjjjjjj",
"hh<OOoooXXXXX..........                               ..            ......     .......XXXXX...X.....XXXXX....XXXoOO%7jjjjjjjjjjj",
"ght#OoooXXXXX.........                                 ..    ................ ..oXoO$&*-:-&o..    ..........XXXXo+=tkkkkjjjjjjjj",
"ghg<+ooXXXXXX.......                                    .    ...........XoOoX..O$@%-,322592$...   .........XXXoO$<fkkkkkkkkkjjjj",
"gghf,+ooXXXXXX......                                   .      .Xoo.XXoOoO#*+oXX@**;27q75775:o.............XXXO@:ukkkkkkkkkkkjjjj",
"fgghf<+oooXXXX......                                 . ......  .oO.Xo+@+@&=$+OO%->3tuur9774,+..........XXXoo@:rjlkkllllkkkkkjjjj",
"ddfggg5%oooXXXX......                                ......XXX..o#oo+%=&=>>=&%%-<4rsdppr753,@X.......XXoo+&,yjllllllllllkkkjjjjj",
"dddffghu;+ooXXXX...... ...                    .......XoooOoooO+@&-%$*,517eeq<>17isgjhgduq95>@X..XXXXooO#;9fllllllllkkkllkkkkjjjj",
"ssssfghjh7&+oXXXX..........                 ..XXXXXoOO+OooXoO+%=;--*-4t9tupd79yughkkhgdireq>@oXooooO@*1ikzzlllllllllkkkkkkjjjjjj",
"ppsdfghjkkf4*OXXXX.........                ..XooooO++@++OoXXoO$&&,:*:3r9typd4ysphjkjgddirer-+OOOO+%>rhzzzzzlllllllllkkkkkjjjjjjh",
"iipdfghjjkkkf7=+oXXX.......               ..XoOOO++@#$+oooXXXo+%$=:>,5uqrqyp2ipphjhdirypuyy=@@@*,edlzzzzzlllllllllllkkkkjjjjjjjh",
"uipdfghhjjjjkkgt<*+oXXXXXX...             .XoOO+@@#@++OO@++Oooo@+**;,4tr997t2iipgjfpi53ripy**3yhzzzzzzzzzllllllllllkkkjjjjjjjjhh",
"uupsdfgghhjjjjkllji2=@OoXXX.....         ..XO+++#%$@$%$&=-=&+oXXo@+%*>4225>94ttpdfdu4><7usu,izxxzzzzzzzzzllllllllllkkkkjjjjjjjhh",
"uuipsdfffghhhjjkllzzks7>&+oX....... .. ....O+@@#%&*****->;=%+X..XoXO@%--*->y9e5rtyy5-*<21uu<gzzxzzzzzxzzzllllllllkkkkkkjjjjjjhhh",
"iiippsddfgggghjjkllzzzxzji,oXX............XO@#%&*=----:>=@oXXXXX.XXXo@&&@%4tqe,>-===&&,><ts<szzxzzzzxxzzlllkkllllkkkkkjjjjjjjhhh",
"spiiiisdfggffggjjllzzzzzxc7OXX............o+%&&=;>>:;>;$X..o&%+XXoOoO@@$@%3u<,*$Ooo+&&*-1qs4szzzzzzzxxzzlkkjkkllkkkkjjjjjjjjjhhh",
"dspuuipdfggfdddgjkllzzzzzx2+OXX...........O@&==;;>,<;;@X.Xo$it>Oo+@@@&%%*;3s3&%+XXXoO@%>19y7fzzzzzzzxxzzlkjhjkllkkkkkkjjjjjjjjhh",
"fsiuuipdggffsiisgjllzzzzzx,+@XX..........X+%*=->,<,>,*O@++@%<:%@O@%%%=-*=>7dq&@oX..XO-,qpppehxzzzzxzxxzzlkhhjkkkkkkkkkkjjjhhjhhh",
"fdpuyusfggfdirrufjkllzzzzz>@$oX..X.......X+&==-><23<>*&>>=-**;,<-%=*&&>-=1tfr-@X....o-4eupfplxxzzzxxxxzzlkjhjkkkkkkkkkkkjhhhhhhh",
"gfsuyusghhgdy75rdhklllzzzz>@&@@OXXXX....Xo@&=-><<<,>,<<12,<75tsf5--;&&:-;4djp>#o.Xoo+o-yfgghxxxxxxxxzzzzllkjkklllkkkkkkkjhgggghh",
"gfsuyidghhgsr32qshjklllzzz,@*=>>*%OoX..XXO#*-:,,<<2145,245qypsdf2=:>**>=;<ygsq=O+@O@>#O>sjjkxxxzxxxxzzzzllkkklllljjkkkjjjhgffggh",
"gfsuupfhhhgpq22qpgjklllzzl<#-<2,%&@OX..Xo+%=;>,<1<243>><4qrtpddy,=**=:-*=>rfsy2=*-%@**O+7jkjxxzzzxxxzzzzzlkkkklllkkjjjjjjhfssdff",
"gdpuudggggdy513eshkkllllzk,$,31-#@+oXXXXo@*->,<11<33<4412qrpffu9<;*&;;**=>9dsu3-;,3<2<>%*pjhzxzzzxzzzzzzlllkllllkjjjjjjjjgdiyups",
"fdiyidgfddpr535tshkklllllg>$1<;&&$OoXXXXO%=:><112332971337ruiye73:*-:=&*=;2uit2,,27yisd4*ijhzzzzzzzzzzzllllllllkkjjjjjjjjgdyqryi",
"fsutusfddpyq79qudhkklllllp-$3,*&%%+XXXXX+&->,143434799te7rq799q9<;-2<=*===>euye5459tshji3gjgzzzzlllllllllllllllkjhhjjjjjjgduq9eu",
"fsutusddsirqqetpfhkllllljr*$2>&&&&@XXoXoO&:,<3577479qtrqtq54355<>,29<--:;-:5isiyqrtpghjgdjgslzlllllllllllllllllkjhhhjjjjjhfptryp",
"dpuyusdsiyeqetudgjkkkkkljq&%2-&*&%#oXoXo+=><1459757qerrtq71,<<1<2774,:,<,<,4ifdpiytugjhgkldtgllkkkklkkklllllllkjhgghjjjjjhgfpiis",
"spiupssiyq99eysfhjkkkkklk9&&2*%-=%%ooXoo+*,13799757eeettyr511,>3er92>,341215pghffspyiddgjls4ukkjjkllkjjjkklllkkjgffghjjjjjhgfddd",
"ssipsspir447eudghjkkjjkkj7%*2*#-;&&OooooO&><4797777qqqrtyue31137re5<>1774219shjhffsisddhjlp,2hjjjkllkjhhjklllkkhgffghjjjjjjhggff",
"sspsssspr317tifhjjjjjjjjh3#=2*@*:&%+OOOoO$:<5797577eq9errrq4<4q5qq51<7q94217djjhhdirypfjklp:>fhhjkllkjhhhkkllkkhgfggghjjkkjhhggg",
"sdddddspt53qusgjkkjjjjjjj9@=3=+$=%*@OOOoo@-<4775779qqereee9447949w747eeq4219gkjjhfurtifjkli2qgfhkllllkjhjkllllkjhhhhgghjjkjjhhgg",
"dfdddsspureypfhkkkkjjjjjki%&5<-*%%*%+OOoo+*,3557979qerreerqqrre7qr9qetrq531egkkjhfiyifhkllyqpfdhklllllkkkkllllkjjjjhggghjjjjhhgg",
"fffdsssspuypdgjkklkjjjjjkg=#43q4*$*=@+OooO%,134799qrrrreertuyytrqreeryre92<9dlkjfdppdjlkkk93pddhklllllllkkllllkkjjjhgffghjjjhhgg",
"fffdsssssssdfhjkllkkkkkkkk>+39yi2-;&+OoooO$>14579ertttrqqryppyteqrtrtytq4,>2ijlkdddfgklkjkq1sspgjllllllllllllkkkkjjjhfdfhjjjjhgg",
"fffdppppsdffghjklllkkkllll2+<ppdt7<&+O+OOO@=<3599ertrtee7eifpyrqqtyttyrq2>><tglkfsdfgklkjjiufipfjklllllllllllkkkkkkjhgfghhjjhggg",
"ffdspiipdfggghjkkllkkklllz7+*pdfu7>=&#@+OO+&:<399ettttrr9ridsyreetyyytq31>;>7pkkfpsfhkkkjjdhhspfjkllllzzzlllkkkkkkkkjhgghhhhgggg",
"ffdpuuupdfhhghhjjkkkkkllzzr@+9fdu5,,>*&@OO+#*,37qertyyrrtyispurerrtte92,<>-;2ehjfpsgjlkkjkfjjfdgjkklllzzzzllkkllllkkjhghhgghgggg",
"ffdpyrtisgggggghhjjjkkllzxp$o*pdpt5e2:=#OO+@&>27qqqettttyyispirerrrr4,;><,-:2qshfipgklkkkjgjjhghjklllllzzlllkklllkkkjhhhhggggggg",
"ffditerupdfddddfgghjjkllzzh*oo>pspyr7<=#OoO@&-<797qetrtyyuppiut99eeq,-;11<,1eusgfipfklkkkjjlkjjjkklllllzzlllkkkllkkkjhghgfffffgg",
"ddsutqqrupsspppsddfhjkkllzk>oXO:uitre<*@OoO@%-,279retrtuipppiyt99eq3:>4e957tsfggfppfjkkklhhlkkjkklllllllllllllllkkkjjggggdpppdfg",
"ssputq9qtuipiuppppdfgjkllll5+oXo*7req,&+OoO@%=>,49qqeetuppuiiyt7qe7,,9yytuudfhkjfspfjkkklghkkkkkkllllllllllllllkkkkjhgffdie9ridf",
"spiuye97qrtyuyuyuuipdhkklllp%oXXX&221>*+OoO@%*-,2499qeyiputuiueq9q4>5uiiuipdfjkjffdfhkkllfhkkkkkkkkllkkkkkllllkkkkkjgdppie1<3ris",
"ppiiye74579qrrrrrrryifjklllh-oXX.+>>*==@ooO+%&=><3779eyiityuyyeqqt5,9e<,39rpgjkjfggghkllkudhjjjkkkkkkjhhhjkkkkkkkkjhfpyrq2>:,4ru",
"pppiur71<2349qqeq77qydhjkllk1OXX.O:1-%*$ooO+@%=;<447qqtuiuuutr777e3,2-Oo@>7ugjkkfghhjklljeufggghhhjjhgfffhhjjjkkkjjhdie51>;-;,39",
"iiiiur5<>,,<357q9325rpgjkkkke$oXXX=31;-%ooO+@$=-,<2999ryutyit95q21<::#oO+@<tsgkkffhjkklzg7risssffffgfddssdffhhhjjjjgsy91>;---;,<",
"yuuuye4>--->,1599313qudhjkjjp-oXXX*22<:%ooO++#&*;,<479eetetyq255>-;***&-=*>qpshljdgjklllu4qtuuuipppspssiiiipdfghhhgfir4,;--==-;:",
"etyytq3>=&&*=>1575249tdgjjjhs1+X.X*22<,&ooOO+@%&=><245erterr525<>=&%%=>2227trrfkkghjkllj9349eeetttyuissiyrqeyipdddspt7<;--==**=-",
"9erte72;&%$$%=>255444eidhjjgp5$oX.&132>&oooOO+%&*;,<23qrrtt7232,:=#$#&=1eesg93qphhfhkllf4<259qeeqqrtyipye735qetuuuyt91>;-==*&&**",
"7qee94,-&$@@@&:1479525tpgjjdu4*OX.@,1<:%oooO++$&&:;:<3eqrut311,>=%@#+&>2phkg3=-3rhdhklkp<<259qq9547ettyt942357qrq9741,>:-=*&&&**",
"59q951>=%@@++%-<49r7119udhhft1:@oX+>1<>%oooO++%*$==;><57rr9<<,:=&@+@+%-,tgdr1-=>5pggklje,<257997434qrrtr72<247qq52<<,>,:-=******",
"59q94<>*%@@+O#=,29r7<,3rpghfr2>&+XO-<<;$Oooo++%*$&=--<39ee4>::-&$@+@+@*>3iq3,-*=,uffkks4<44579eq5447qeeq41<37qeq41,,>,>;-=******",
"5qe93<:*%#@++@*>29q5<,<9ifgdt3>;#OO-<,;%OooO@+@&%@&=-<5qrq,=--=*$$@++%-:>4,;>>->,ughkhy23rq9qetr955999q73139rytq42<,,,>;-===****",
"9erq4<:*%#@@+@&:3774<>>4tpfdy5<>##+-,>-%OooO++$&%@%*-17rt2-**=-=*;*@@&;:,,-=><->4tfjkdr3eiyrryuye97qqq74115eyiir52<,<<,>>>:-=***",
"qrtr7<:*%$@@##&:2752>--<qusdu921$$%>,>=%OXo++@&&$$%*;<7r9,-**-<,<4,;**-;>-==>1>1uudjjt79dfsiiipiyeqeeq53127ryipt721<134432<>---=",
"9ettq3>*%%$#%%*;<44<:=*>5tipyq77*&*,>-*%OXXOOO###@%%=>14<>-;;>3qqr95,,<<:%%=<27tsuijd54rjjhgfdspyreeee9757qruppy721259ere73<>>,:",
"7eyyt7,=&%%%&*=>,22<;*&=1qyyyeeu>&*<,>=%OXXOOoO+++%$&;<43,,><59tte54<<2eq<<3eeihguihu11rkklkjhfsutrrrrtreryuissy72139erttq53<<<,",
"8ruiuq1;*&%&==>,<11<;=*-<7errrude=*2<,=#OoXOOXXoOO%#$=<44<<,5tyt91,<1<<3yssyrydkhipfy9<uzlzlkjgdureeeyiiuuipsdsy51139ryuyrq421<<",
"9ruiie5,-*&*=;<5421,:;:><35qetpfg5=52>*@OooooXXoOO@@@*>311<37974,--,2212qyuyt5,ey79dpe2szzzzkjhdyq99eussdspsddsr2<<39ruiiye5431<",
"qtipitq2>=&*-,3eq52,>,<133349tsfhd,5<>*#OoooXXooooOO@&;><1<re5,;&$%*;>>,39,-&@o+@#=<yq<gzzzzkkhdr579risffddsssie1,,17tispur53212",
"ryippue4,=**:,5rte5<,24553127tpdhk97<>*@OoXXXXoooOoo+&-:213ry2*&%=>>>,>:;-*@oXXoO<u*44<hzzzllkhp9237eidgggfspur9<>><5tpddpr4<<12",
"uipssie4,-&*:<5rte7425qq94224eushzgq<>=#OoXXXXoOoooOO&=;2<129err77eeetq742<;@XXO+7g,312kzzllkkgu7124qydhhhgpute7<:->3tpddpe1,,<1",
"ppssdpe3,-&*;<5ereqqqrttr74227eifzzp1>-@OoXXXXoOXXXo+%%*:,><7yddpuyyttq9974,*OXO+>p9r<4klkkkkhdy51259yfhhhfpyte7,;-:2tpspu9,-;>,",
"dddddpe2>=%&-,4qeeqrtissuq41125qyjzl7,;$OoXXXXoXXXXo@@@&;:-,4tsddsiuuytpi94,=$+@@@-<y37khfghhfpy72245rdghgdutr93,:-:1ruppu9,=*->",
"ffddsuq<;*$$*>2qeeqeudgfpe4<<,15qdkxs,>%OoXXXXXXXXXO@@@&=*->3ridfggfdpupiputeeyye9ept1yfspsddspy94434eidffpe973<>>:,4tissu7>**=;",
"fffsir5,=%@#&-<5q97qifhgpe41,>,35yjxz7:*@ooXXXXXoXo+@O+#&*-,<quisddfffgpihgklzzzljdi9<yputyipppyq7544eisspy4111<>>,29tpfdu5>**=-",
"ffdsyq2:*#@#%=:<444qifgfiq2<,>,15thxxh<=$OoXXXXXXooO@OO@*=*><qyiisppfhgsfhhllzzzljdue2tutrtypspue9999euppue2<121<<25eypdsu7>=*=-",
"fddpt7<-&%%&=-;><<2qidfdiq1,>:,27rgxxxt:%OoXXX.XXXoOOOO@%%%-,3euipppdfiidhglzzzzzhptq7yutrrupspurerrttuiiy92<1312459rupssy5,:--;",
"sspur5,;=**->,,>>,<7ypsdpe2,>><39edxxxj1&+oXXX.XXXXoOoO+$%&*:27ruuiiuuyiphjlzzzzlgir7eiuyyyisssiytuuiiiiit9311234qetpsddduq1,>;:",
"iuyrq3,;==;><22,>>>1qysdsy91,><5qedxxxxt=#oooXXooXoooooo@%$%=>2qtuputtrrqdjzzzzzksrr3ysiuuupsspiuuipdsppitq73337qyuidfffdpt71,>,",
"re974<>;;:><255<>-->2rpssie51,<7erdxcxcg;&OooXXooXoooooO+@$%&-<7etttre74<tgzzzzzks3q9sspiuissspiupssfdddsirq99qrypsfgggffdpr52<<",
"741<<>;:>,<37972>-=->5tipit94129eepxccck<&@oooXXXXoooXoOO@&&*-14qrttrq41>rgzzzzzgy39efspiipsspiuidfggghgfduttyipsdfggggggfsir732",
"2<,>:--:<13qeq5<:=**-<9tuiye944778uxcccze*$oooXXXXXoOXooo+##$*<29yut7757eijlzzzld3>7pfspppsdsiuusghjkkkjhgsppddffgghhggggfdpur95",
"<>>-**-><49tyr7<;*&&=>1qypitr74544pccccls,%+oXXXXXXooXXXXOo+$&-;1qt935qtpfklzzzhi1<1ugdsssdspuyudhjklllkjhggggghhhhhhhggggdsiyre",
">:;=**->19tiiy9<-*&%&-,7ussiy95411pxccxju4-@oXXXXXXooXXXoOoO@#&*,4524447tshlllkde<24pgdsssssiuupfhklllllkjjhhhhjjjjjhhgggfdspuyt",
",>-=**-,3eupiy9<=&&%&=,9iddsu932<1fccczhut1&+oXXXXXooXXXooooO@@&->>,2235rpdjhdi32<<9dgddssdspiidgjkllllllkkjjjjkkkjjhhgffdsspuuy",
"<,:=*=;,4rupit9<=&%&*-1tsffsy93129hccczstpr,$oXXXXXXXXXoOooo+++#%&=;<<3etdfffu9,,3<7ggfdddffsppdhklllllllkkjjkkkkkjjhgdsssppiiuu",
"32,;==:<7tiiit7,*&&*-,9pffdpr95459jccckpupi,%ooXXXXXXXXoOXoOOO@@$%**-><eqiipsr72>><yggfffhhhgddgjllzzllllkkjjkkkkkjhgfsiuuyyuiiu",
"972,-=>17ruuue3>*&*=>4ufggfpe7554tzcccgyiy5<*OoXXXXXXXXooXXoOO++@*%$*;<97uttrq43,-4fggffgjkjhggjllzzzllkkkkjjjkjjjjhgditrrrtyiiu",
"rq51:-:<49tyt71;&&*;<qsgjjgpq3432uxcccgty7:;%+oXXXXXXXXooXXooO+O@%#$%=157qeq451>,-7dffgghklkkjjklzzzzllkkjjhhhjjjjhggsueqqqryiii",
"utq4,::,259e93,=&&=:2yfklljsq2114fcccxhsp5>*@+oXXXXXXXXooXXooOOoO+@#%=<45q5212<>,:4dfffgjllllkkklzzzzllkjhhgffgghgggfpyrq9qtuipp",
"pit92,,<14551,:===-,7phlzlkfr43eplccczsfsq>&@@OXXXXXXXXOXXXXOOOOoO+@$-,<2r5<,<<2<,5fffffhllzllkllzzzlllkjgffssddfffdsiytreripppp",
"ssir51<1<11,:;:>>>,3tfkzzzlhptszccccchyip7>&$%+XXXXXXXXoXXXXoOOOOO+@$-::<9,,,:;35,egfdssgkzzzllllzzzlllkjgdspppssspppiuuytupsssp",
"dspyq432<,:-=-><114ephlzzzljfhckjcccchuuq>=*%OoXXoXXX..XXXXooOOOOo++$*-*-1-><:=,24djgdpifklzzlllllllllkjhgspippsspiipiuiuisdddsp",
"sspur953<>;=-;,147qudjlzzzzlzcxreccccgpt3:-&@+oOOXXXXX.XXXXXooOOOOO+@%*%&:>:>>*><tlkhfitpjlzzlllllllllkjhfpiupppiuuuuuuipsfffdds",
"piuuteq52,>-->,29eupdjlzzzzxcvxh9lcczppp2:=&%#+@OXXXXXXXXXXXooOOOOOOO+#@@=:::;-><gzljfyqygklzlllkkkklljhfduuippiuyttrrtipsffffds",
"iuyuyyte51,:>,15tisfgjlzxxxcvccx4rcczisd9>==%%@+OoXXXXXXXXXXoXoooooOOO++@**-,;--rzzzkfr5esjllllkjjkkkkjfsityissiyreq99ripdfggfds",
"uuyuiiiye51,,<5eidghhklzxcccvcxvp,jczyidu3-=&##@OooXXXXXXXXXXXoooooooOO+@&*=;**1kxxzkde37ugkllkkjjjjjkhsyretpsdsyeq777risfggggds"
};
