/* XPM */
static char *north[] = {
/* columns rows colors chars-per-pixel */
"128 128 252 2 ",
"   c #050404",
".  c #0A0505",
"X  c #090807",
"o  c #0A0708",
"O  c #0C0A0B",
"+  c #170804",
"@  c #1D0C04",
"#  c #110D0E",
"$  c #19120D",
"%  c #0F0F10",
"&  c #130F10",
"*  c #151112",
"=  c #1A1515",
"-  c #1C1816",
";  c #1D1719",
":  c #1E191B",
">  c #230C05",
",  c #260C05",
"<  c #330F04",
"1  c #271307",
"2  c #24140B",
"3  c #2B150C",
"4  c #2C190D",
"5  c #351509",
"6  c #331A0D",
"7  c #3B1B0C",
"8  c #241A13",
"9  c #261917",
"0  c #2D1C12",
"q  c #241B1D",
"w  c #321D13",
"e  c #3C1E13",
"r  c #351E19",
"t  c #3A200E",
"y  c #2B2119",
"u  c #332115",
"i  c #3C2314",
"p  c #34241B",
"a  c #3A251B",
"s  c #362A1E",
"d  c #3D2A1D",
"f  c #271D21",
"g  c #281F22",
"h  c #262122",
"j  c #2A2224",
"k  c #2E2829",
"l  c #362924",
"z  c #3D2C22",
"x  c #322D2D",
"c  c #3C3228",
"v  c #342E31",
"b  c #393534",
"n  c #461B0C",
"m  c #481D11",
"M  c #6A1F1B",
"N  c #462616",
"B  c #4B2515",
"V  c #482916",
"C  c #432B1C",
"Z  c #4C2B1A",
"A  c #552717",
"S  c #542C1A",
"D  c #5A2C1C",
"F  c #56321D",
"G  c #642C1C",
"H  c #702F1E",
"J  c #66321D",
"K  c #432D23",
"L  c #4A2C25",
"P  c #592D21",
"I  c #443224",
"U  c #4B3324",
"Y  c #44362B",
"T  c #4A352A",
"R  c #4C3A2C",
"E  c #553423",
"W  c #5C3422",
"Q  c #533C2C",
"!  c #593829",
"~  c #4B3C32",
"^  c #543D32",
"/  c #643323",
"(  c #673926",
")  c #6B3C2B",
"_  c #6A382C",
"`  c #743C28",
"'  c #58422E",
"]  c #4B4138",
"[  c #554234",
"{  c #5B4434",
"}  c #5A483A",
"|  c #66432B",
" . c #6B432C",
".. c #75452D",
"X. c #7B432D",
"o. c #684836",
"O. c #744433",
"+. c #7B4433",
"@. c #744B33",
"#. c #7C4C34",
"$. c #794A3A",
"%. c #67523D",
"&. c #775238",
"*. c #7C523B",
"=. c #584D46",
"-. c #554F49",
";. c #685747",
":. c #6A574D",
">. c #765945",
",. c #77634C",
"<. c #6F6457",
"1. c #776957",
"2. c #77716D",
"3. c #883D33",
"4. c #874430",
"5. c #834B34",
"6. c #894B37",
"7. c #844C3A",
"8. c #84533B",
"9. c #885539",
"0. c #8B533C",
"q. c #93573D",
"w. c #8C5C43",
"e. c #895844",
"r. c #935543",
"t. c #925046",
"y. c #945B44",
"u. c #9A5B44",
"i. c #965B49",
"p. c #9C5D49",
"a. c #A15D4A",
"s. c #A75A53",
"d. c #8B6349",
"f. c #976549",
"g. c #9D634B",
"h. c #856A55",
"j. c #9B6753",
"k. c #887559",
"l. c #98775A",
"z. c #A3644C",
"x. c #A5684C",
"c. c #A46552",
"v. c #A46B52",
"b. c #AA6C54",
"n. c #AA6B58",
"m. c #B26C58",
"M. c #AC7255",
"N. c #A77659",
"B. c #AC735A",
"V. c #B3745B",
"C. c #B57558",
"Z. c #B47B5D",
"A. c #BA7C5D",
"S. c #88796A",
"D. c #8F796B",
"F. c #AB7B63",
"G. c #B77A64",
"H. c #BC7C63",
"J. c #B3746E",
"K. c #C1785E",
"L. c #C37C67",
"P. c #998467",
"I. c #958678",
"U. c #B58264",
"Y. c #BB8364",
"T. c #B6846A",
"R. c #BC846A",
"E. c #B38B6A",
"W. c #BD896C",
"Q. c #A98F71",
"!. c #BD8A72",
"~. c #C28265",
"^. c #C4846B",
"/. c #C38B6C",
"(. c #C9886C",
"). c #CA916E",
"_. c #C48D72",
"`. c #C68875",
"'. c #CC8C72",
"]. c #D38A76",
"[. c #CB9374",
"{. c #C99578",
"}. c #CC957A",
"|. c #D3957B",
" X c #D69779",
".X c #D49A7C",
"XX c #DAA07F",
"oX c #9D9387",
"OX c #96908C",
"+X c #A89A8D",
"@X c #B7A688",
"#X c #A9A299",
"$X c #B5A99A",
"%X c #B5ADA5",
"&X c #B6B2AD",
"*X c #BBB4A9",
"=X c #CA9A83",
"-X c #D49D82",
";X c #DC9C83",
":X c #DA9986",
">X c #E19D88",
",X c #DCA284",
"<X c #D8A58A",
"1X c #DDA48A",
"2X c #CDAB93",
"3X c #DAAB93",
"4X c #E2A686",
"5X c #E2A38B",
"6X c #E3AB8D",
"7X c #E4AC93",
"8X c #E8A996",
"9X c #E5B194",
"0X c #E9B395",
"qX c #E6B49A",
"wX c #EAB59B",
"eX c #E6B99C",
"rX c #EBB99E",
"tX c #F1BA9F",
"yX c #C5B7AA",
"uX c #D0B9AF",
"iX c #C2BCB3",
"pX c #C5BEB8",
"aX c #ECADA1",
"sX c #ECB5A2",
"dX c #ECBBA3",
"fX c #ECBCA8",
"gX c #F1BAA6",
"hX c #C4C2B5",
"jX c #CAC3B7",
"kX c #C7C4BA",
"lX c #C9C5BC",
"zX c #C9C6BE",
"xX c #D0C2B5",
"cX c #EDC0A6",
"vX c #EDC3AB",
"bX c #F1C3AB",
"nX c #EFC9B3",
"mX c #F1CBB7",
"MX c #CBC6C1",
"NX c #CBC7C4",
"BX c #CBC8C0",
"VX c #CDC9C2",
"CX c #CECAC5",
"ZX c #D1CCC6",
"AX c #D7CCC5",
"SX c #D2CFC9",
"DX c #D5D1CB",
"FX c #D9D3CC",
"GX c #D7D3D0",
"HX c #DAD6D2",
"JX c #DCD8D5",
"KX c #DEDAD9",
/* pixels */
"zXzXzXzXzXzXzXzXzXzXzXzXzXzXzXzXzXzXzXzXzXzXzXzXzXzXzXzXzXzXzXBXzXzXzXzXzXzXzXzXzXzXzXzXzXzXzXzXzXzXzXzXzXzXzXzXzXzXzXzXzXzXzXzXkXzXzXzXkXkXkXkXjXkXjXkXkXkXkXjXjXjXjXjXhXjXjXjXhXhXhXhXhXjXjXiXiXhXhXiXiXiXiXiXiXiXiXiXiXiXiXiXiXiXiXiXiXiXiXiXiXiXiXiXiXyXyXyX",
"zXzXzXzXzXzXzXzXzXzXzXzXzXzXzXzXBXBXzXzXzXzXzXzXzXzXzXzXzXzXzXBXBXzXzXzXzXzXzXzXzXzXzXzXzXzXzXzXzXzXzXzXzXzXzXzXzXzXzXzXzXzXzXzXzXzXzXzXzXzXkXzXzXzXzXkXkXkXkXjXjXjXjXjXjXjXjXjXjXhXhXhXhXjXjXhXhXhXhXiXiXiXiXiXiXiXiXiXiXiXiXiXiXiXiXiXiXiXiXiXiXiXiXiXiXiXiXiX",
"zXzXzXzXzXzXzXBXzXzXzXzXzXzXzXBXBXBXzXzXzXzXzXzXzXzXzXzXzXzXzXzXzXzXzXzXzXzXzXBXBXBXBXBXzXzXzXzXzXzXzXzXzXzXzXzXzXzXzXzXzXzXzXzXzXzXzXzXzXzXzXkXkXzXzXkXkXkXkXkXkXkXkXkXjXjXkXjXhXhXhXhXhXhXhXhXhXhXhXhXhXhXhXiXhXhXiXiXiXiXiXiXiXiXiXiXiXiXiXiXiXiXiXiXiXiXiXiX",
"kXzXzXzXBXBXBXBXzXzXzXzXzXzXzXzXBXBXBXBXBXBXzXzXzXzXzXzXBXBXBXBXzXzXzXzXzXzXzXzXBXBXBXBXzXzXzXzXzXzXBXzXzXzXzXzXzXzXzXzXzXlXzXzXzXzXkXkXzXzXkXkXjXkXkXkXkXkXkXkXkXkXkXkXkXkXkXjXjXjXjXjXhXhXhXhXhXhXhXhXhXhXhXhXhXhXhXhXiXiXiXiXiXiXiXiXiXiXiXiXiXiXiXiXiXiXiXiX",
"zXzXBXBXzXBXBXBXBXBXBXBXzXzXBXBXBXBXBXBXBXBXBXBXzXzXBXBXBXBXBXBXBXBXBXBXzXBXBXBXBXBXBXBXBXBXBXBXzXzXzXkXkXjXjX*X$X#X@X$XuXuXuXxXxXhXxXxXhXhXhXhXjXzXzXzXkXkXkXkXkXkXzXzXkXkXkXjXjXjXjXjXjXjXjXjXhXhXhXhXhXhXhXhXhXhXhXhXhXiXiXiXiXiXiXiXiXiXiXiXiXiXiXiXiXiXiXiX",
"zXMXBXBXBXBXBXCXCXCXCXCXCXCXBXBXBXBXBXBXCXBXCXBXzXzXBXzXBXBXBXBXBXBXBXBXzXzXBXBXBXBXBXBXBXBXzX*X%X*X*X$X+XI.S.1.,.k.k.P.Q.@X@X@X@XQ.Q.Q.Q.Q.@X$XyXyX*XyXpXjXjXjXjXiXiXjXkXkXjXjXjXjXjXjXjXjXjXjXhXhXhXhXhXhXhXhXhXhXhXhXhXhXhXhXhXiXiXiXiXiXiXiXiXiXiXiXiXiXiXiX",
"zXBXBXBXBXBXBXCXCXCXCXCXCXCXCXCXCXCXCXCXCXCXBXBXzXzXzXCXCXBXBXBXBXCXBXBXBXBXBXBXBXBXBXBXzX*XoXoXoXI.D.,.%.%.%.,.,.,.,.h.,.h.k.D.Q.Q.Q.Q.Q.P.l.l.l.P.@X2X2X2X2X$X@XQ.+X*XzXzXzXkXjXkXjXjXjXjXjXjXjXjXjXhXhXhXhXhXhXhXhXhXhXhXhXhXhXiXhXiXiXiXiXiXiXiXiXiXiXiXiXiX",
"zXzXBXCXCXCXCXCXCXCXCXCXCXCXCXCXCXCXCXCXCXBXBXBXCXCXCXCXCXCXCXBXzXBXCXCXCXCXBXBXBXCXBXzX$XD.D.S.:.[ Q ' { o.{ o.o.{ o.%.h.k.k.l.P.Q.P.l.h.h.,.&.&.l.Q.Q.Q.P.k.l.k.h.k.oX$X*XhXjXjXkXjXjXkXkXkXkXkXkXjXjXhXhXhXhXhXhXhXjXjXhXhXhXhXhXhXhXhXhXhXhXiXiXiXiXiXiXiXiX",
"BXBXCXCXCXCXCXCXCXCXCXCXCXCXCXCXCXCXCXCXCXCXCXCXCXCXCXCXZXZXCXkXzXBXCXCXCXCXBXBXBXBXjX%XS.:.%.Y I R I I R ' [ Q ' ' %.>.,.,.h.h.k.P.P.D.k.P.D.h.,.k.P.Q.P.l.k.,.%.;.1.I.1.<.oXyXjXzXzXkXkXkXkXkXkXkXkXjXjXjXjXjXhXhXhXhXhXhXhXhXhXhXhXhXhXhXhXhXhXhXhXiXiXiXiXiX",
"CXCXCXCXCXCXCXCXCXCXCXCXCXCXCXCXCXCXCXCXCXCXCXCXCXCXCXCXCXCXCXzXzXBXCXCXCXCXBXBXjXiX+X2.} R I I I d C R R R T I R { { ' { %.>.%.%.o.} %.{ %.,.>.;.%.,.h.l.l.h.;.{ ;.:.k.I.I.S.S.S.oX%XjXzXzXkXkXkXkXkXkXkXkXjXjXjXhXhXhXhXhXhXhXhXhXhXhXhXhXhXhXhXhXhXhXhXhXiXiX",
"CXCXCXCXCXCXCXCXCXCXCXCXCXCXCXCXCXCXCXCXCXCXZXZXCXCXCXCXCXCXCXkXzXBXCXCXCXCXZXzX+X2.:.] T T I I T R T I d d I Q { Q I T { %.%.{ Q [ [ R R } 1.1.,.;.,.,.k.k.k.k.k.P.1.>.,.k.h.%.[ R } S.$XjXzXzXkXkXkXkXkXkXkXkXjXjXjXjXhXhXhXhXhXhXjXjXhXhXhXhXhXhXhXhXhXhXiXiX",
"CXCXCXCXCXCXCXCXCXCXCXCXCXCXCXCXCXCXCXCXCXCXCXCXCXCXCXCXCXCXCXzXzXBXCXCXBXiX#XI.;.~ ~ I I R R R T K d d I R } %.{ [ } { { ^ R U Q { { } ;.;.;.;.} %.%.} } ;.} o.1.k.k.,.>.1.P.k.,.} } ;.:.I.#X*XkXkXkXkXkXkXkXkXjXjXjXjXjXjXjXjXjXjXjXjXhXhXhXhXhXhXhXhXhXhXiXiX",
"CXCXCXCXCXCXCXCXCXCXCXCXCXCXCXCXCXCXCXCXCXCXCXCXCXCXCXCXBXCXBXBXBXCXBXjX+X1.;.;.=.~ Y z s z s a s K K I R ^ ^ Q Q R T K z u p z K s s K ~ } =.} [ R T I I Q { %.;.%.>.;.%.;.;.} [ R T R I z [ S.%XiXjXzXkXkXkXzXkXkXkXkXkXjXjXjXkXjXkXjXhXhXhXhXhXhXhXhXhXhXhXiX",
"CXCXCXCXCXCXCXCXCXCXCXCXZXZXZXZXCXCXCXCXCXCXCXCXCXCXCXCXBXBXCXBXzXjX#XI.k.k.1.} I p 0 u w r p s z K T T ^ ^ K K K T T ~ Y l l p z z z T } ;.:.:.;.{ R T K K R %.%.;.>.;.%.[ } ;.=.y $ $ 2 8 u z =.I.yXjXzXkXkXzXzXzXkXkXkXkXkXkXkXkXkXkXjXjXhXjXjXjXjXjXhXhXhXhX",
"CXCXCXCXCXCXCXZXZXZXZXZXSXSXSXSXSXZXZXZXZXCXZXZXCXCXCXCXCXCXzXyX#XI.1.1.,.1.;.^ z p p p 0 w p I K s I [ R T T Q ^ T T T T T ~ ^ [ } } %.} } ;.%.[ Q R R K I T T z R Y z z p c ] ] l c s $ $ 2 2 s ] oXjXjXzXzXzXzXzXkXkXkXkXkXkXkXkXkXkXkXkXkXjXjXjXjXjXjXhXhXhX",
"CXCXCXCXCXCXCXZXZXZXSXSXSXSXSXSXSXSXZXZXZXZXSXSXSXSXZXZXBX*XoX,.,.,.} ' { %.Q I z s s p z z I z a K T T I T K z r 0 4 0 0 w p z K U U T Q { } ^ ^ ^ ^ T T R Y b c ] k - # $ c <.:.:.} Y z z s u s [ S.*XjXzXzXzXzXzXkXkXkXzXkXkXkXkXkXkXkXkXkXkXkXkXkXjXjXhXhXhX",
"ZXCXCXCXCXCXCXSXSXSXSXSXSXSXSXSXSXZXZXZXZXZXSXSXZXZXBXzX$X2.[ [ ,.;.Q R R R ~ z p w r s K K p d I I p 4 3 3 3 3 , 2 8 0 0 p c T I R { Q Q ^ Q R I p 0 2 4 0 9 y k k - $ - b =.} =.} ~ I I ] R z [ } =.2.*XzXzXBXzXzXzXzXzXzXlXlXlXzXzXzXzXlXlXlXzXzXkXjXjXjXhXhX",
"SXSXSXSXSXSXSXSXSXSXSXSXSXSXSXSXSXSXSXSXSXSXSXSXZXZXzX*X1.T d [ ;.} { Q T T R z w 3 3 w u w s K z 0 > 2 > > , 3 w a C K T Q { o.} } { Q U U K d u p 2 @ @ @ $ $ - $ 8 9 y c l p c c c l s Y Y Y } ;.Y [ I.iXzXzXzXzXzXzXzXzXlXlXzXzXzXzXlXlXzXlXlXlXkXkXjXjXjXhX",
"SXSXSXSXSXSXSXSXSXSXSXSXSXSXSXSXSXSXSXSXSXSXSXSXZXZXpXS.R z } ;.} R } ^ K z p 0 2 3 4 0 p z z w > @ > 2 3 4 6 w i i i a C U ! ! ! Q U C a e 6 3 4 4 4 > @ @ @ @ @ $ 9 $ @ $ $ 8 l l l l Y ;.<.2.S.S.:.[ :.$XzXzXzXzXzXzXzXzXzXzXzXzXzXzXzXzXzXzXzXzXzXkXkXjXjXjX",
"SXSXSXSXSXSXSXSXSXSXSXSXSXSXSXSXSXSXSXSXSXSXSXSXZXZXoXR I } ;.[ s p T s 0 0 0 2 0 4 4 p z s 3 @ @ > 2 4 0 6 6 w w i K Q Q ^ ^ o.o.^ Q K i w 6 3 1 2 3 3 2 > 2 2 2 2 2 2 2 2 0 p Y Y ~ ;.1.<.=.;.=.=.<.=.Y <.*XzXzXzXzXzXzXzXzXzXzXzXzXzXzXzXzXzXzXzXzXkXkXkXjXjX",
"SXSXSXSXSXSXSXSXSXSXSXSXSXSXSXSXSXSXSXSXSXSXSXSXZXiX:.R } } ~ I p s s 0 2 2 2 3 4 3 0 w 3 3 > > > 3 0 4 3 3 3 3 6 e a K L T Q Q Q T U C w 6 4 3 3 3 2 3 0 w w w 0 0 3 2 2 2 2 u z p p p p 8 2 $ 8 k p l s Y S.iXzXzXzXzXzXzXzXzXzXzXzXzXzXzXzXzXzXzXzXzXkXkXkXjX",
"SXSXSXSXSXSXSXSXSXSXSXSXSXSXSXSXSXSXSXSXSXSXSXSXZX#X;.} Q T d d s p p p 3 2 2 3 3 3 0 3 3 3 3 3 6 6 6 3 3 1 3 6 6 e C e e i N N i w 3 3 3 w w 0 w w 4 3 w w w w u w w 4 3 2 2 @ @ @ @ @ @ @ @ @ 8 y p Y u 8 Y S.pXzXzXzXzXzXzXzXzXzXzXzXzXzXlXzXzXzXzXzXkXkXkXjX",
"SXSXSXSXSXSXSXSXSXSXSXSXSXSXSXSXSXSXSXSXDXDXSXZXpXD.} C u w w a I I z p 3 > 2 3 3 3 3 3 6 6 6 6 7 7 7 e i 7 N N V Z E E S Z Z N i e 6 w 6 3 3 0 w w w r a d K K C a u w 0 3 2 > @ @ @ @ > > 2 2 4 2 8 8 2 $ 2 c OXzXzXzXzXzXzXzXzXlXzXzXzXzXlXlXzXzXzXzXzXzXkXkX",
"SXSXSXSXSXSXSXDXDXDXDXDXDXDXDXDXDXDXDXDXDXDXSXBXoX;.I u u u I ^ } [ T p 3 2 3 3 6 6 6 N N V Z Z S S F W ( F W ( ( ) O.$.O.) ) ( D Z N m e 7 e e e i e e e e w 6 6 6 6 6 3 3 3 3 2 2 2 > @ @ @ > 2 2 2 2 2 $ 8 l 2.*XzXzXzXzXzXzXzXMXzXzXzXlXlXlXzXzXzXzXzXzXzXkX",
"SXSXSXSXSXSXSXDXDXDXDXDXDXDXDXDXDXDXDXDXDXZXBX%X<.=.I a a z T [ [ ^ I a 4 1 3 3 e V Z F ( ` ` ..X.X.5.w.0.8.5.9.f.f.j.j.v.j.j.f.e.$.O.( / P D A B N B N n m 7 7 7 7 7 7 7 7 7 5 5 3 > > @ @ @ @ 2 0 0 8 8 8 8 y <.iXzXBXMXzXzXMXzXMXMXMXzXzXzXzXzXzXzXzXzXzXzXzX",
"SXSXSXSXSXDXDXDXDXDXDXDXSXSXDXDXDXDXDXDXSXZXBX#X:.;.I I z T [ ^ T U T d 6 w 6 i F W / X.5.q.u.u.u.x.C.H.Z.A.C.C.H.R.R.W./._._.W.R.R.F.N.g.u.0.9.X.` ` ` ` / D D B m n n 7 7 7 5 5 < < , > @ + + @ 2 0 p y 2 8 8 c OXzXBXMXMXMXMXzXzXzXzXzXzXzXzXzXzXzXzXBXzXzXkX",
"SXSXSXSXSXDXDXDXDXDXDXDXDXSXDXDXDXDXDXDXDXDXZXiXoX} I I T R K d I ' ' C C N N S F ) 5.q.z.x.C.C.A.(.[.[.[.|.[.[.|.;X1X3X7X7X3X3X1X-X.X|.'.(.H.C.b.x.z.z.u.r.0.5.X.` J D B m n n 7 7 7 5 5 1 > + . + @ 2 p u 0 8 y ;.iXMXMXBXBXBXBXBXzXzXBXBXBXBXzXzXzXzXBXBXBXzX",
"SXSXSXSXDXDXDXDXDXDXDXDXDXDXDXDXDXDXDXDXDXDXZXZX$X[ I T T d d K [ { { Q Q Z S / ..q.g.b.A.~.(.).). X.XXX,X;X;X4X6X7XqXqXrXdXcXfXdXeXqX9X1X;X.X|.).(.~.~.H.A.V.b.z.u.0.#.` J D D Z B V N t 7 4 1 + . . $ $ 2 8 8 8 ] %XMXMXBXBXBXBXBXBXzXMXMXMXMXzXzXzXzXzXzXzXBX",
"SXSXDXDXDXDXDXSXSXSXDXDXDXDXDXDXDXDXDXDXDXDXDXDXoXR T I d d C T Q ' { o.! S ( #.q.x.C.~.).[. X X)..X4X6X6X7XqXwXrXfXcXfXcXbXvXvXnXvXcXdXwX7X6X1X,X.X|.|.|.'.(.~.H.A.C.x.u.9.X.` H J F S Z V i 6 > + . + + $ $ 2 8 Y oXzXVXBXBXBXBXBXBXBXBXBXBXBXzXzXBXzXzXzXBXBX",
"SXDXDXDXDXDXDXSXSXSXDXDXDXDXDXDXDXDXDXDXDXDXDXSXoXR R a u d a C T { %.| E | #.q.x.A.~.[..X X.X.X4X4X4X6XqXeXdXcXcXvXnXmXmXmXmXmXmXnXcXdXeXrXrXqX6X1X5X1X,X;X|.[.).(.~.A.m.z.q.0.5.X...) ( W S N 4 @ + + + $ 8 2 8 c I.jXBXBXCXCXBXBXBXBXBXCXCXBXBXBXBXBXBXBXBXBX",
"DXDXDXDXDXDXDXDXDXDXDXDXDXDXGXGXDXDXDXDXDXDXDXSXoXR I i u u a d T [ Q Z E *.f.M.A.~.). X.X.X.X4X6X6X9X0XwXdXcXcXvXnXmXmXmXmXmXmXmXvXcXrXqXrXrXqX8X7X7X3X6X,X.X X[.(.(.~.A.C.x.g.q.q.9.5...( W Z i 2 @ $ $ $ 0 2 0 u <.jXBXCXCXCXCXBXBXBXCXZXZXCXBXBXBXBXBXBXzXzX",
"DXDXDXDXDXDXDXDXDXDXDXDXDXDXGXGXDXDXDXDXDXDXDXDXoXI a u w w u d U I C N ! e.v.G.^.). X.XXX,X,X4X6X9X6X0XrXdXcXcXbXmXmXmXmXmXmXmXnXvXdXrXwXwX8X7X8X7X3X8X7X1X,X.X|.[.(.~.Y.Z.C.x.z.f.q.9.#...| W C 4 > 2 2 0 0 2 2 u ~ #XCXCXCXCXCXBXBXBXZXZXZXCXBXBXBXBXBXBXBXzX",
"DXDXDXDXDXDXDXDXDXDXDXGXGXGXGXGXGXGXGXGXDXDXDXSXoXR a a w 6 w d d d d E  .f.N.R.).[..XXX4X4X4X6X9X0X0X0XrXfXbXvXvXnXmXmXmXmXmXvXcXdXdXsXqXwXwXqX8X7X7X7X6X1X,X.X.X[.(.^.A.A.C.m.x.z.g.q.9.#. .| F t 1 2 0 s u 2 2 u } %XCXCXCXCXCXCXCXCXZXZXZXCXCXCXCXBXBXBXBXzX",
"DXDXDXDXDXDXDXDXDXDXGXGXGXGXGXDXGXGXGXGXDXDXDXSX+XT d a w 3 6 d a d C ! *.j.Y.[.}. XXX,X6X6X4X6X9X0X0X0XwXdXdXcXbXnXmXmXmXnXnXvXcXcXdXdXeXwXqXqXqXqX8X6X1X1X,X.X.X[.(.~.A.A.Z.C.M.x.x.g.q.5...| E i 2 4 s z p 2 2 u =.iXCXCXCXCXCXCXCXCXZXZXZXZXCXCXCXCXBXBXBXzX",
"DXDXDXDXDXDXDXGXGXGXGXDXDXDXDXDXDXDXGXGXDXDXDXSX%XY a u 4 3 4 d a C C ( 8.M.W.}..X.XXX,X1X1X6X6X7XqX0X0X0XwXdXdXcXcXvXvXvXvXcXcXdXfXdXsXeX9XqX7XqXqX8X7X5X1X,X.X|.[.(.~.Y.A.C.C.M.M.x.g.q.5.#. .! C 1 2 p p u 0 2 u ;.iXCXCXCXCXCXCXCXCXCXCXCXCXCXCXCXCXBXBXBXzX",
"DXDXDXDXDXHXHXGXGXGXGXDXDXDXDXDXDXDXGXGXDXDXDXDX*X~ p u 0 4 u I d I U | w.B.W.}..X.XXXXX,X4X6X9X6X7X9X9X9XwXeXrXdXdXfXcXvXvXcXdXdXdXsXsXeXqXeXeXwXwX8X8X7X1X,X.X}.)./.~.Y.A.A.Z.C.M.b.x.f.8.#.@.( Z 4 2 0 0 0 p 0 4 :.jXCXCXCXCXCXZXZXZXCXCXCXCXCXCXCXCXBXBXBXBX",
"DXDXDXDXGXGXGXGXGXGXGXDXDXDXDXDXDXDXDXDXDXDXDXDXiX[ p s u 3 u I I T U o.w.B.R./..X.XXXXX.X1X6X9X7X7X7X6X9XqXqXdXfXfXfXvXvXnXvXvXcXdXdXdXeXqXeXrXrXwX8X7X5X;X-X.X}._././.Y.A.Z.C.M.C.M.x.f.8.#.@. .E u 1 3 2 4 p 0 p 2.iXCXCXCXCXCXCXCXCXCXCXCXCXCXCXCXBXBXCXBXMX",
"DXDXDXGXGXGXGXDXDXGXGXGXDXGXDXGXDXDXGXGXDXDXDXGXzX:.p p 0 3 4 C Q R U | w.N.Y./..X.X.XXX,X1X4X6X9X9X7X9X9X9X9XeXeXdXfXbXcXvXvXvXcXfXdXeXqX8XeXeXrXqX8X7X1X1X-X.X.X{.)./.Y.A.Z.M.M.M.M.x.y.8.@.@.o.' i 2 3 2 2 0 p 0 S.jXZXCXCXCXCXCXCXCXCXCXCXCXCXCXCXBXBXBXMXVX",
"GXGXGXGXGXGXGXDXDXGXDXDXGXGXGXGXGXGXGXGXGXGXGXGXSXOXz 0 u 4 4 C { U C | w.v.Z./.}..X.X,X,X1X4X4X9X9X7X9X9X9X0XqXeXdXfXcXcXcXcXcXfXeXwXqX0X8X7XqXrXrXqX8X6X1X,X,X.X}.)./.~.Y.Z.C.C.C.M.z.y.8.#.#.@.| i 2 2 > 2 4 p 0 <.jXZXCXCXCXZXCXCXCXCXCXCXCXCXCXCXCXCXCXBXMX",
"GXGXGXGXDXDXDXGXDXDXDXGXGXGXGXGXGXGXGXGXGXGXGXHXDXiX} 0 4 0 4 d } U N | w.N.U./..X.X.X.X,X,X1X6X6X6X6X7X9X0XeXrXdXgXfXcXcXbXbXcXbXrX8X0X0X7X7XqXwXqXqX0X7X1X,X;X.X|.[.).(.~.Y.A.Z.Z.M.z.f.5.#.#.@. .N 2 2 > 2 3 w 0 =.*XCXSXSXSXSXCXCXCXCXCXCXCXCXCXCXCXCXCXCXBX",
"GXGXGXGXDXDXDXGXDXSXDXGXGXGXGXGXGXGXGXGXGXGXGXGXHXZX;.4 0 u 4 i o.! i ! w.N.U.[..X.X.X.X.X,X1X6X9X7X9X0X0XrXrXdXfXbXbXbXbXbXgXgXfX0X7X7X6X7X8X7XqXqXqX7X5X1X,X.X|.}.[.[.(.^.H.H.A.Z.B.v.u.8.8.#.@. .i 2 2 2 2 2 u 0 ~ iXCXSXSXSXSXZXCXCXCXCXCXCXCXCXCXCXCXCXCXBX",
"GXGXDXDXDXDXGXGXDXDXGXGXGXGXGXGXGXGXGXGXGXGXGXGXHXVX=.4 0 4 4 w Q E i F 9.v.Y./.}..X.X,X,X,X1X4X9X9X0XwXrXrXdXdXfXfXfXfXfXfXdXdXrX7X5X1X7X8X7X7X7X8XqX5X5X1X;X.X}.|.[.'.(.^.H.G.A.Z.N.v.f.8.*.*.@.| i 2 2 2 2 2 0 p ] *XDXSXSXSXSXSXSXSXZXZXZXCXCXCXCXCXCXCXCXBX",
"GXDXDXDXGXGXGXGXGXGXGXGXGXGXGXGXGXGXGXGXGXGXGXHXHXjX=.0 0 2 2 w C U N S 8.B././.}..X.X,X,X,X1X6X7X0XwXwXrXdXrXdXdXdXdXdXdXsXsXwX8X6X4X,X1X7X7X5X8X8X8X5X1X;X-X|.|.;X.X`.(./.Y.G.G.Z.N.v.g.w.*.&.@.| i > 2 2 2 2 0 Y S.zXSXSXSXSXSXSXSXSXSXZXZXCXCXCXCXCXCXCXCXBX",
"GXGXGXGXGXGXGXGXGXGXGXGXGXGXGXGXGXGXGXGXGXGXGXHXDXSXS.p u 0 0 w C Z 7 V 8.N.Y./.[..X-X;X,X1X3X7X0XwXwXrXrXrXeXqXeXeXqX8X8X8X7X5X1X;X.X|..X5X;X;X5X5X1X;X-X}.'.[.'.[.W.T.F.F.N.j.j.f.w.e.e.*.@.@.o.o.C 2 2 2 @ 2 w [ %XZXSXSXSXSXSXSXSXSXSXSXSXZXZXZXZXCXCXCXZXZX",
"GXGXGXGXGXGXGXGXGXGXGXGXGXGXGXGXGXGXGXGXDXDXDXDXDXDX*X=.p u p w C N 7 V 8.B.Y./.[.}.-X-X,X1X3X7X7X7X1X<X<X<X<X-X=X{.R.Y.^./._.^.'.'.(.'.'. X|.|.|.|.[.^.G.V.B.M.v.d.e.*.#.*.*.*.| W S V V Z E | o.o.! 0 > 2 > 2 0 R %XSXSXSXSXSXSXSXSXSXSXSXSXSXZXZXZXCXCXZXZXZX",
"GXGXGXGXGXGXGXGXGXGXGXGXGXGXGXGXGXGXGXHXGXDXDXDXDXDXGX#Xc p a i i i i Z 8.Z.W./.{..X.X-X,X,X1X,X.X_.!.!.E.E.j.w.*.#.9.9.0.y.f.u.a.b.V.L.(.].(.(.^.~.V.x.u.9.X. .) S Z Z A Z N B Z S S S S E ! | o.o.| i 1 > 2 0 w z #XZXSXSXSXSXSXSXSXSXSXSXSXSXSXZXZXCXCXCXZXZX",
"GXGXGXGXGXGXGXGXGXGXGXGXGXGXHXHXHXHXHXHXHXGXGXGXGXGXGXuX;.C d i i i t F 9.Z./.[.}..X.X.X{.W.B.v.w.0.8.8.#.*.( J G D D G J ( ` X.4.q.x.H.(.'.(.L.A.x.q.6.X.( D A Z B N N B B D (  .o.o.o. . . . .o.o.o.Z 3 2 0 z K T #XZXZXSXSXSXSXSXSXSXSXSXSXSXSXZXZXCXCXCXZXZX",
"GXGXGXGXGXGXGXGXGXGXGXGXGXGXHXHXHXHXHXHXHXHXHXGXGXGXGX2Xj.F N i e 6 t F w.Z._.{.}..X}.!.v.5.5.5.8.9.8.9.0.8.#.X.` / J J H ` ` ` 4.6.x.L.[..X[.^.V.z.5.` G D A m 7 7 6 w w 4 w i Z W | @.&.&.@.o.@.@.@.! 6 0 d U W >.%XBXZXSXSXSXSXSXSXSXSXSXSXSXSXZXZXZXZXZXZXZX",
"GXGXGXGXGXGXGXHXHXHXGXGXGXGXGXGXGXGXHXHXHXHXGXGXGXGXGXyXN...Z C w 6 7 F d.U._.{.-X-X{.U.g.g.N.Z.F.T.T.N.f.8.) E Z Z A D G H ` ` X.4.g./.,X7X1X.X(.x...D B B m n 5 m w 9 * % 8 s K e m B / @.&.&.&.&.&.o.a w U D / +XzXZXSXSXSXSXSXSXSXSXSXSXSXSXSXZXZXZXZXZXZXZX",
"GXGXGXGXGXGXGXHXHXHXHXHXGXGXHXGXHXHXHXHXHXHXGXGXGXGXGXFX+X#.D C i 6 7 F f.R.{..X-X-X{.T.Z.F.R.W.T.v.8.( Z r p j 8 l T ! / J H ` ` ` 9.R.3XwXwX6X XZ...A Z D D A D O.;.[ Y Y ^ >.O.( P S A F |  .@.@.&.>.L w U S h.VXSXSXSXSXSXSXSXSXSXSXSXSXSXSXSXZXZXZXZXZXZXZX",
"HXHXHXHXGXGXGXGXHXHXHXHXHXHXHXHXGXGXHXGXHXHXGXGXHXHXHXJXxXi.H  .! C N W f.W.{.-X-X=X=X{.!._.W.B.6.G J ) >.[ c y b =.h.d.` ` 3.0.r.j.j.Y.,X0XgX8X.XH.4.J 8.f.e.w.j.j.j.n.j.e.i.f.e.*.+.@. .( ( ..&.*.*.>.! e E W +XGXSXSXSXSXSXSXSXSXSXSXSXSXSXSXSXZXZXZXZXCXZXZX",
"HXHXHXHXGXGXGXGXHXHXHXHXHXHXHXHXGXGXHXGXHXHXHXHXHXHXHXHXFX=Xu.v.w.! E ( f.W.{.-X-X,X=X=X_.W.N.9.X.7.g.J.J.J.D.D.k.F.J.J.c.c.c.G.<X3X=X}.;X8XrX8X;XL.0.X.g.Y.{.=X{.G.B.b.v.c.N.N.v.g.g.f.w.8.9.w.f.w.e.>.o.C E ) yXSXSXSXSXSXSXSXSXSXSXSXSXSXSXSXSXZXZXZXZXCXZXZX",
"HXHXGXGXHXHXHXGXHXHXHXHXHXHXHXHXHXHXHXHXHXHXHXHXHXHXHXHXHXxXR.H.n.*.! | j.W.{..X,X<X,X-X_.Z.v.j.T.{.=X{.{.!.!.=X`.!.!.G.H._.}.=X3XeX3X;X;X5XwX8X5X^.u.q.z.G.R.R._._././././.R.Y.Y.F.N.v.f.f.l.N.v.f.e.>.o.N A ) yXSXDXDXDXSXSXSXSXSXSXSXSXSXSXSXSXSXZXZXZXCXZXZX",
"HXHXGXGXHXHXHXHXHXHXHXHXHXHXGXGXGXHXHXHXHXHXHXHXHXHXHXHXHXFXuX{.H.y.| | f.T._..X,X<X3X<X<X.X}.<X3X3X3X3X3X<X=X=X=X_.!._._.{.{.<XqXqX7X;X X>XwX8X:X(.a.q.z.Z.Y.Y.H.H.H.R.^.^.^./.R.U.Z.N.N.N.U.U.N.f.w.e.o.N n  .yXDXDXDXDXSXSXSXSXSXSXSXSXSXSXSXSXSXSXZXCXCXZXZX",
"HXHXGXGXHXHXHXHXHXHXHXHXGXHXHXHXHXHXHXHXHXHXHXHXHXHXHXHXHXHXzX=X`.C.5.) f.T._.{..X<X7X0X0X6X6X9X3X3X3X3X3X3X3X3X<X-X-X_.`._.<XeXqX7X>X:X X;XwXsX:X^.u.6.u.b.H.(.'.(.Y.A.M.M.M.M.M.B.Z.Y.W.W.W.U.N.f.w.e.o.7 B  .yXDXDXDXDXDXSXSXSXSXSXSXSXSXSXSXSXSXSXZXCXCXZXZX",
"HXHXGXGXHXHXHXHXHXHXGXGXGXHXHXHXHXHXHXHXHXHXHXHXHXHXHXHXHXHXFX2X-X(.M.O.w.T.W.{..X,X6X0XwXwXwXrXeXqX3X3X3X3X3X<X=X_.`.`.-X7XsXwX5X>X;X;X X>X8XsX:XL.a.0.q.z.b.H.(.'.[.[.[././././.[.}.{.{._.W.Z.N.f.e.e.! N A $.uXDXDXDXDXDXDXDXDXSXSXSXSXSXSXSXSXSXSXZXCXCXCXCX",
"GXGXGXGXHXHXHXHXHXHXHXHXHXHXHXHXHXHXHXHXHXHXHXHXHXHXHXHXJXHXHXuX<X,X'.j.w.F.W._.{.-X1X9X0XeXtXgXgXdXsXqX7X<X<X<X-X-X1XqXsXsX8X8X>X;X X X X>X8XsX>XL.z.q.q.u.z.b.Z.^.[.|..X;X.X;X;X.X.X}.[./.G.M.g.w.e.e.W B n D.AXSXDXDXDXDXDXDXDXSXSXSXSXSXSXSXSXSXSXSXZXCXCXCX",
"HXGXGXGXHXHXHXHXHXHXHXHXHXHXHXHXHXHXHXHXHXHXHXHXHXHXHXHXHXHXHXuX:X1X;XR.f.l.T.!.{..X,X1X7XwXrXrXgXgXdXdXsXsXsXsXsXsXsXsXwX8X8X5X>X X X X;X>X8XsX8X].m.u.u.u.u.z.V.~.'.'.|.|..X.X.X|.[.[.^.H.V.z.y.e.>.>.( A _ yXDXDXDXDXDXDXDXDXDXSXSXSXSXSXSXSXSXSXSXSXZXCXCXCX",
"HXHXGXGXHXHXHXHXHXHXHXHXHXHXHXHXHXHXHXHXHXHXHXHXHXHXHXHXHXHXHXAX3X;X<X<XT.j.E.!.!.{..X,X1X3X7XwX8X8X8XsXdXfXfXgXgXgXgXsX8X8X5X>X>X:X;X>X>X>X8XgX8X].A.b.p.y.q.u.b.A.^.'.|.].[.[.[.'.'.(.~.V.b.g.w.8.>.&.W A I.FXSXDXDXDXDXDXDXDXSXSXSXSXSXSXSXSXSXSXSXSXZXCXCXCX",
"HXHXHXHXHXHXHXHXHXHXHXHXHXHXHXHXHXHXHXHXHXHXHXHXHXHXHXHXHXHXHXHXxX<X7X3X=XN.N.!.!._.{..X-X,X,X8X5X5X8XwXsXsXsXsXsXsXsXqX8X8X>X>X|. X:X>X>X8XsXgX8X|.L.V.z.q.4.4.u.C.L.(.(.'.(.(.(.(.^.~.G.b.z.y.8.*.*.o.W h.xXDXDXDXDXDXDXDXDXDXSXSXSXSXSXSXSXSXSXSXSXSXSXZXCXCX",
"HXHXHXHXHXHXHXHXHXHXHXHXHXHXHXHXHXHXHXHXHXHXHXHXHXHXHXHXHXHXHXHXHXuX2X3X<XT.N.T.T.!.{.}..X-X;X>X>X5X8X8X8X8XwXsXwXwXwX8X7X5X].L.^..X:X:X>X8XfXfXaX>X].G.z.q.r.X.4.x.L.(.(.(.(.^.^.~.H.H.V.b.u.0.*.*.&.@.D.zXGXDXDXDXDXDXDXDXDXDXDXSXSXSXSXSXSXSXSXSXSXSXZXZXZXZX",
"HXHXHXHXHXHXHXHXHXHXHXHXHXHXHXHXHXHXHXHXHXHXHXHXHXHXHXHXHXHXHXHXHXHXxX3X<X}.N.F.T.T.R._.}.|.;X;X>X8X5X5X8X8X8X8X8X8X8X8X5X|.A.m.'.:X:X>X>X8XfXfXsX5X].L.n.p.g.6.4.u.m.A.L.~.^.~.H.G.G.V.b.g.w.8.*.&.o.>.%XDXDXDXDXDXDXDXDXDXDXDXDXDXSXSXSXSXSXSXSXSXSXSXZXZXZXZX",
"HXHXHXHXHXHXHXHXHXHXHXHXHXHXHXHXHXHXHXHXHXHXHXHXHXHXHXHXHXHXHXHXHXHXHXAXuX2XQ.l.F.T.G.T._.[.[..X5X5X5X5X8X8X8X8X8X8X5X;X].L.m.H.|.:X:X:X:X>X8XsXaX5X].H.z.q.w.5.` 6.z.m.A.H.H.H.G.G.V.b.v.y.8.*.&.&. .>.yXDXDXSXDXDXDXDXDXDXDXDXDXDXDXDXSXSXSXSXSXSXSXSXSXZXZXZX",
"HXHXHXHXHXHXHXHXHXHXHXHXHXHXHXHXHXHXHXHXHXHXHXHXHXHXHXHXHXHXHXHXHXHXHXHXJXHXxXP.N.U.U.T./._.[.}.;X;X;X>X5X5X8X8X8X5X:X].L.A.L.L.L.^.L.H.L.(.].:X:X|.H.p.7.X.+.` H 4.q.a.b.V.A.G.G.B.n.g.u.e.*.@.&.@.| h.zXDXDXDXDXDXDXDXDXDXDXDXDXDXDXDXSXSXSXSXSXSXSXSXZXZXZXZX",
"HXHXHXHXHXHXHXHXHXHXHXHXHXHXHXHXHXHXHXHXJXJXJXHXHXHXJXJXJXHXHXHXHXHXHXHXJXJXGX@XF.F.T.T.W._.{.{..X.X;X;X5X;X>X5X>X:X].^.L.(.].].m.u.4.` 4.p.n.m.n.c.r.+.G A A m G 5.q.u.a.x.m.m.b.b.c.g.w.8.*.@.@.@. .I.DXDXDXDXDXDXDXAXAXDXDXDXSXSXSXSXSXSXSXSXSXSXSXSXSXZXZXZX",
"HXHXHXHXHXHXHXHXHXHXHXHXHXHXHXHXHXHXHXHXJXJXHXHXHXHXJXHXJXHXHXHXHXHXHXHXJXJXJXjXP.B.U.U.U.W._.{..X.X.X;X;X;X;X;X X|.^.L.(. X>X>X|.m.4./ J / ) ) / / / A n n n m J 5.q.z.x.x.x.b.x.x.g.y.0.7.#.@.o.O.>.*XDXDXDXDXDXDXDXDXDXSXDXDXSXSXSXSXSXSXSXSXSXSXSXSXSXZXZXZX",
"HXHXHXHXHXHXHXHXHXHXHXHXHXHXHXHXJXJXHXHXHXJXHXHXHXHXHXHXHXHXHXHXHXHXHXJXJXJXJXGX#Xl.F.T.R.W./.[.}..X|..X.X.X.X X|.(.K.^. X4X6X8X8X;XH.g.e.O.) D A A A B n n B A ( 4.u.z.x.x.x.b.x.z.u.q.8.*.@.o.o.O.D.ZXDXDXDXDXDXDXDXDXDXDXDXDXSXSXSXSXSXSXSXSXSXSXSXSXSXZXZXZX",
"HXHXHXHXHXHXHXHXHXHXHXJXHXHXHXHXJXJXHXHXHXHXHXHXHXHXHXHXHXHXHXHXHXHXHXJXJXJXJXHXpXP.F.F.U.R.W._._.[.[.}.[.[.[.[.(.~.~. X4X6X7X7X5X;X}.W.n.i.8.) / W D Z N N A / ` X.0.q.g.z.z.z.x.g.q.9.8.#.@.o.o.>.%XFXDXDXDXDXDXDXDXDXDXDXDXDXSXSXSXSXSXSXSXSXSXSXSXSXSXZXZXZX",
"HXHXHXHXHXHXHXHXHXHXHXJXHXHXJXJXJXJXHXHXHXHXHXHXJXJXHXHXHXJXJXJXHXHXHXJXJXJXJXHXFX+Xl.B.Z.W.W./._.[.[.[.[.'.'.).(.~.[.;X1X1X,X-X-X}._.`.R.V.p.+.X.$.` W S W / ) +.5.0.0.q.q.q.q.u.g.q.8.5.#.@.@.%.oXAXDXDXDXDXDXDXDXDXDXDXDXDXDXDXSXSXSXSXSXSXSXSXSXSXSXSXZXZXZX",
"HXHXHXHXHXHXHXHXJXHXJXJXHXJXJXJXHXJXHXHXJXHXHXHXJXJXHXHXHXJXJXJXHXHXJXJXJXJXJXJXHXyXl.l.N.U.W./.{.[.[.[.[.).).(.~.(.}..X-X}.{.{.`.`.^.R.^.R.n.z.p.c.r.+.` +.+.+.#.#.#.#.#.#.9.9.0.u.0.8.#.#.@.@.D.zXDXDXDXDXDXDXDXDXDXDXDXDXDXDXDXSXSXSXSXSXSXSXSXSXSXSXSXZXZXZX",
"HXHXHXHXHXHXHXHXHXHXHXHXHXHXHXJXHXHXHXHXJXHXHXHXJXHXHXHXHXHXHXHXHXHXHXJXJXJXJXSXzX$Xl.f.l.N.F.R.[./.[.[.[.).).A.A.(.(././.Y.Y.G.H.L.^.^.^.L.H.H.G.n.q.4.` ` _ / / / F D F | #.9.0.g.y.5.#.@.@.>.%XFXDXDXDXDXDXDXDXDXDXDXDXDXDXDXDXSXSXSXSXSXSXSXSXSXSXSXSXZXZXZX",
"HXHXHXHXHXHXHXHXHXHXHXHXHXHXHXHXHXHXHXHXJXJXHXHXHXHXHXHXHXHXHXHXHXHXJXDXpX#X2.-.~ ,.N.v.d.j.N.U././.).[.[.[.).A.~.R.A.z.y.8.e.r.i.r.t.6.6.3.3.4.3.H G M M M G D D P D D J ..5.9.q.g.0.#.@.@.o.D.ZXFXDXDXDXDXDXDXDXDXDXDXDXDXDXDXDXSXSXSXSXSXSXSXSXSXSXSXZXZXCXCX",
"HXHXHXHXHXHXHXHXHXHXHXHXHXHXHXHXHXHXJXJXHXHXHXHXHXHXJXJXJXHXJXHXHXHX&X<.k * .   # %.B.V.j.>.d.N.U././.).). X).~.R.Z.q.` D J ` 6.t.p.s.m.J.L.J.J.s.s.s.s.s.t.6.+.+.+.#.0.q.y.d.f.f.f.9.@.@. .%.$XDXDXDXDXDXDXDXDXDXDXDXDXDXDXSXDXDXSXSXSXSXSXSXSXSXSXSXSXSXSXCXCX",
"HXHXHXHXHXHXHXHXHXHXHXHXHXHXHXHXHXJXHXHXHXHXHXHXHXHXJXHXJXJXHXHXHX#X] #         o ^ B.V.F.f.*.d.N.U.U.W.).[.[.).W.Z.f.q.f.Z.Y.^.L.^.(.].].].].L.L.L.m.s.u.6.4.X.+.0.w.u.u.y.f.f.f.q.#. . .o.I.AXDXDXDXDXDXDXDXDXDXDXDXDXDXSXDXDXDXSXSXSXSXSXSXSXSXSXSXSXSXSXCXCX",
"HXHXHXHXJXJXJXHXJXJXHXHXHXHXHXHXHXHXJXJXHXHXHXHXHXHXHXHXHXHXHXJX&X-.q . .     . # } B.G.A.M.f.8.0.j.M.B.U.[.[.[.).Y.U.Y.}..X.X|.'./.H.V.m.m.b.c.c.a.q.4.X.` ..5.9.0.9.5.5.9.0.q.0.#...| | h.pXGXDXDXDXDXDXDXDXDXDXDXDXDXDXDXDXDXDXSXSXSXSXSXSXSXSXSXSXSXSXSXCXCX",
"HXHXHXHXJXJXJXHXJXHXHXHXHXHXHXHXHXHXHXHXHXHXHXHXHXHXHXHXHXHXJX&X-.j h .         # o.F.H.H.Z.Z.f.&.8.d.j.N.F.W.[./.Y.Y./.{.{./.'.(.^.G.b.u.6.6.5.7.X.` ` ( ` 5.5.5.#...` X.9.5.8.#. . .| >.%XGXDXDXDXDXDXDXDXDXDXDXDXDXDXDXDXDXDXDXSXSXSXSXSXSXSXSXSXSXSXSXZXCXCX",
"HXHXJXJXJXJXHXHXHXHXHXHXJXJXHXHXHXHXHXHXHXHXHXHXHXHXHXJXJXJXkX-.q q j *         O ^ F.H.L.H.V.M.d.&.@.*.9.w.q.0.q.v.U.U.U.Z.Z.Z.A.A.Z.b.q.4.` ` ` H G J ` 4.0.0.5.#...#.8.5...@. .| | >.$XFXDXDXDXDXDXDXDXDXDXDXDXDXDXDXDXDXDXDXDXSXSXSXSXSXSXSXSXSXSXSXSXZXCXCX",
"HXHXJXHXHXHXHXHXHXHXHXHXJXJXJXJXJXJXJXJXJXJXJXJXJXJXJXJXJXCX<.h q q h f o     . + %.F.H.~.~.A.V.v.f.&. .@.&.&...#.f.j.j.M.v.x.x.M.Z.Y.A.M.x.z.6.4.X.6.g.b.b.b.z.u.5.9.w.w.8.#.| | | >.$XAXDXDXDXDXDXDXDXDXDXDXDXDXDXDXDXDXDXDXDXDXSXSXSXSXSXSXSXSXSXSXSXZXZXCXCX",
"HXHXHXHXHXHXHXHXHXHXHXHXJXJXJXJXJXJXJXJXJXJXJXJXJXJXJXJXDX2.h q q q f k ;     o T j.B.H.~.~.H.A.C.v.f.8.@. . .&.8.d.f.f.N.U./.[..X.X[.|..X.X|.^.L.L.^.(.(.H.V.b.g.u.u.f.w.*.@. .| ,.yXAXDXDXDXDXDXDXDXDXDXDXDXDXDXDXDXDXDXDXDXDXDXSXSXSXSXSXSXSXSXSXSXSXZXZXCXCX",
"HXHXHXHXHXHXHXHXHXHXHXHXJXJXJXJXJXJXJXJXJXJXJXJXJXJXJXJXOXk q q q q q f j #   K j.n.G.L.~.~.H.A.V.b.g.f.e.@. .&.w.j.N.N.W.[..X1X5X4X,X4X5X;X X|.].].].'.^.V.p.u.u.0.u.w.*.@. . .k.yXFXDXDXDXDXDXDXDXDXDXDXDXDXDXDXDXDXDXDXDXDXDXDXSXSXSXSXSXSXSXSXSXSXSXZXZXCXCX",
"HXHXHXHXHXHXHXHXHXHXHXHXHXJXJXJXJXJXJXJXJXJXJXJXJXJXJX#Xv q q q q q q q k h K i.b.c.V.^.L.L.H.H.V.b.z.x.f.0.@.@.*.f.l.U.W.{..X}.|.;X,X>X X|.|.].].'.^.L.m.z.r.y.0.#.8.*. . . .{ ;.%XDXDXDXDXDXDXDXDXDXDXDXDXDXDXDXDXDXDXDXDXDXDXDXSXSXSXSXSXSXSXSXSXSXSXSXZXCXCX",
"HXHXHXJXHXHXHXHXHXHXHXHXHXJXJXJXJXJXJXJXJXJXJXJXJXJX&X=.q q q q q q q f j x o.f.x.x.V.L.^.L.L.H.H.V.B.v.g.y.#.@.@.&.*.f.U.{.{.{..X.X.X;X|.^.'.'.(.L.n.n.c.i.e.7.@. .*.@.| ! { K . k OXSXDXDXDXDXDXDXDXDXDXDXDXDXDXDXDXDXDXDXDXDXSXSXSXSXSXSXSXSXSXSXSXSXZXZXCXCX",
"HXHXHXJXJXJXJXJXJXJXJXJXJXJXJXJXJXJXJXJXJXJXJXJXJXNX<.q q q q q q q q q f k I *.g.c.A.H.L.^.~.~.~.H.V.x.z.g.w.*.@. .| @.d.U.W.W.{.{.~.H.G.H.H.G.m.c.a.i.w.7.O.( ( ( | | ! ! ^ -     - 2.zXDXDXDXDXDXDXDXDXDXDXDXDXDXDXDXDXSXSXSXSXSXSXSXSXSXSXSXSXSXSXSXZXZXCXCX",
"HXHXHXJXJXJXJXJXJXJXJXJXJXJXJXJXJXJXJXJXJXJXJXJXDX2.h q q q q q q q q q q f k ! r.b.C.H.H.~././.~.H.H.V.b.v.f.w.8.#...| ( *.l.F.F.F.F.B.B.G.n.j.j.e.7.7. .( F W ! ! ! E W ! K .       O -.&XDXDXDXDXDXDXDXDXDXDXDXDXDXDXDXSXSXSXSXSXSXSXSXSXSXSXSXSXSXZXZXZXZXZX",
"HXHXHXJXJXJXJXJXJXJXJXJXJXJXJXJXJXJXJXJXJXJXJXJXOXk q q q q q q q q q q q f h p _ x.C.A.H.~.(.'./.H.H.H.V.b.v.y.w.w.8.@.( (  .>.h.j.e.d.h.h.d.d.e.O.) ) S V V V Z E E E W E 8             v OXDXGXDXDXDXDXDXDXDXDXDXDXDXDXSXSXSXSXSXSXSXSXSXSXSXSXSXSXZXZXZXZXZX",
"HXHXJXJXJXJXJXJXJXJXJXJXJXJXJXJXJXJXJXJXJXJXKXNX=.q q q q q q q q q q q q q q y w 7.m.A.H.~././.(.(.Y.G.A.B.M.g.f.y.0.5.O. .( (  .o.' ! Q ^ %.&. .W E F N N N Z E ! W E E C +               : 2.BXDXDXDXDXDXDXDXDXDXDXDXDXSXSXSXSXSXSXSXSXSXSXSXSXSXSXZXZXZXZXZX",
"JXJXJXJXJXJXJXJXJXJXJXJXJXJXJXJXJXJXJXJXJXJXNXOXh : q q q q q q q q q q q q q q 9 Z p.A.H.^./.'.'././.Y.G.B.b.v.g.u.w.9.7.@.O. .! ! F Z N N Z F F V V V V Z W ( ( W F F Z 4 .                 # -.&XDXDXDXDXDXDXDXDXDXDXDXSXSXSXSXSXSXSXSXSXSXSXSXZXZXZXZXZXZXZX",
"JXJXJXJXJXJXJXJXJXJXJXJXJXJXJXJXJXJXHXMX#X2.-.k : q q q q q q q q q q q q q q q 9 0 ( n.H././././././.^.H.G.V.b.g.u.y.0.8.#...O.) ( W W F F F S S Z A S S F W ( W S S Z e > .                   O b 2.#XkXSXDXDXDXDXDXDXDXSXSXSXSXSXSXSXSXSXSXSXSXZXZXZXZXCXZXZX",
"JXJXJXJXJXJXJXJXJXJXJXJXJXKXJXHXkX#X2.-.b x j q q q q q q q q q q q q q q q q f q 9 w O.B.~.^.~.~.~.H.H.H.G.C.M.b.z.u.0.9.5.+.+.) ) / / W W W W D S A A D W ! W A A A m < @ .                       * k =.2.#XpXSXDXDXDXDXSXDXDXSXSXSXSXSXSXSXSXZXZXZXZXZXCXZXZX",
"JXJXJXJXJXJXJXJXJXJXJXJXGXpX+X2.-.b v x j q q q q q q q q q q q q q q q q f f f f q 9 a 8.C.H.~.~.H.G.G.V.V.V.V.C.b.x.g.q.0.7.#.+.) ) / / / / / / P D S P W W S Z Z N 5 , + .                       . $ = * y ] <.OX&XCXDXDXDXDXSXSXSXSXSXSXSXSXZXZXZXZXZXCXCXBX",
"JXJXJXJXJXJXJXJXJXHXpX+X2.-.b b v x k f ; q f q q q q q q q q q q q q q q f f f f f q 9 L w.B.H.H.H.H.G.V.V.V.V.V.V.b.x.z.p.r.7.#.O.) ) / / G P P D D S S S S S Z N 7 , @ + .                         . % - % # % q b <.OX%XBXSXDXSXSXSXZXZXSXSXZXZXZXZXZXCXCXBX",
"JXJXJXJXJXJXHXMX#X2.-.b v v v x k k j q q f f q = ; q q q q q f f q q q q f f f f f f q 9 ! y.b.V.G.G.G.V.V.V.V.V.V.n.c.z.y.y.i.0.7.#.X.) / G D A A A A A A S Z Z e < , + + +                             # - % # # # * : x -.2.+XpXZXSXSXSXSXZXCXZXZXZXZXZXBXBX",
"JXJXKXJXBX#X2.-.b v v v v x k k j k j h f f f f q ; q f q q f f f q q f f f f f f f f f q q ! y.b.V.G.G.G.V.V.B.B.B.n.n.c.p.i.i.r.0.7.+.O.) / / D D A A A A Z N N 5 1 > + + . .                           . * : * O o O & # # = h =.2.%XMXSXSXZXZXZXZXZXZXZXZXCX",
"HXNX#X2.-.b x x v v v x k j j j j h h h q q q q q q q q q f f f f f f f f f f f f f f f f q r  .u.b.B.M.M.B.b.b.b.B.n.n.z.p.p.i.r.0.7.+.O.) / / P D S A Z B N N 7 < , > + + . .                             O * * o o O O O O # % % - x :.OXpXCXZXZXZXZXZXZXZXZX",
"2.-.b x x x x x k k j k j j f f f q q f : ; q q q f q q f f f f f f f f f f f f f f f f f y 8 a $.y.g.c.x.c.c.x.x.c.c.c.p.i.y.r.0.6.+.X.) ( / / D D A A Z N B 7 < , , @ + + . .                               o ; & O X O O % * * = = * * q =.OXkXZXZXBXBXBXZXZX",
"x x x x x v x j j j j j f f f f f q q f j h q q q f q q q f f f f f f f f f f f f f f f f q y q z $.y.g.z.z.z.g.g.g.p.g.p.i.r.0.7.+.X.` ) ) / / / D A B B B m 5 < , , @ + + + . .                           o & ; ; O O O O % * * = * * * * * y -.#XBXCXBXBXZXZX",
"v x v v x k j j j h j j f f f f f j k k k k q q q q q q q f f f f f f f f f f f f g g g f h f y q K *.y.g.g.p.p.p.p.u.u.r.q.0.5.+.` ` ) / / / / D A A B B N 7 < < , , @ + + + + + +                   O O O * h : = # O O O # * * * * * * * * = ; b S.pXCXBXBXBX",
"v x k k j h h j j j f f q f f f h j j j j j q ; ; q q q q q f f f f f f f f f h f f g g f f h f f q L 8.y.y.y.u.p.p.u.u.r.0.5.+.` ` / / / / / D A A A B B m 5 < < , , @ + + + + + +             O * = h k j : ; * O O O O O # & * * * O # * * * = ; j <.&XBXBXBX",
"x k h f g g j f f q q q f f f f f j j h f f f q ; ; q q q q f f f f f q q f f h f f f f g g f f h h q L 8.u.q.u.u.p.p.u.y.r.7.+.` _ / G / D D D D D A A Z 7 < , < 3 1 > @ > > > > +           = j k f ; * O         O O O # # & * * # O O O & * * * = q <.*XBXBX",
"h h f g g g f q q f f f f f f f f h h h f f f f q ; ; q q q f f f f q q q f f f f f f f f g f f f h h q z O.p.a.z.z.z.z.p.i.0.` ` _ ( / / / / / / / / / S 7 < < 5 6 3 , , , , , , +       . ; x j * O               O # O # & & & & O O O O # & % $ * * q 2.*XzX",
"h f h f f f f f f f f f f f f f f f f f h h f f f q q q q q f f f q q q f f f f f f f f f f f f f f f q q q T e.v.n.n.n.n.c.i.7.` ` ) ) X.` +.+.+.7.7.$.P 5 < 5 e e 7 5 < < 5 5 3 +       & h : O                     O # O O O # # O O O O O # # # # # $ j I.zX",
"f q q q h j j f f f f f f f f f f f f f h j f f f f f q q q q f f f f f f f f f f f f h f f f f f f f q = O o 8 p C K T ~ Q ! ! _ +.7.*.7.0.e.i.i.g.p.e.D < 5 m B V V N m m m e 3 .     o & #                         O & & % O O O O O O O O O O O # # # * b #X",
"q f f f f f h f f f f f f f f f f f f f f j f f h f f f f q q q q q f f f q q q q f f f f f f f f f = O           O         . o # 0  .w.i.g.c.n.B.B.n.r.A 5 m A P W W P P A B B 6 .     o * O                           O & # O O O O O O O O O O O O # # # = -.",
"j j h q q f f f f f f f f f f f f f f f f h f f h f f f f f q q q q f f f q q q q q q q f f f f q #               * O           . O 2 ) g.B.G.H.R.H.B.r.A n A _ O.+.` ( / W P P 3 . . o O * O                           O & # O O O O O O O O O O O O # # # % y ",
"j j j f q q q f f f f f q f f q q q q f h h f f f f f f f f f q q f f f f q q q q q q q q q q = o                                 X o r j.V.G.~.`.`.H.r.m A ` 6.0.0.7.+.` _ / L $ . o O # * & .                   O O     O O O O O o o O O O O O O O O # # # * ",
"j j h h h f q q q q q q q q q q q q q f f h f f f f f f q f f q f f f f q q q q q q f f f q *                             . . O # * = l j.V.V.H.^.`.G.0.A ` r.p.p.i.0.7.+.) _ L # . o # * * * o                   O O O     O O O O o O O O O O O O O O O # O # ",
"f f h h h h f f q q q q q q f f q q q f f f f f f f q q q f f q q f f f f q q q f f f h q O                         O O # * * = ; q q y e.m.V.V.H.^.V.6.` r.c.c.z.p.i.r.7.+.) C # O O # * = * O                 O O O O O o O O O O O O O O O O O O O O O # O & ",
"f f f h h f f f f f q q q q q q q q q q f f f f h f f f f f f q q q q f q q q q f f h ; O                         O O O & * = = ; : : q *.x.b.V.G.G.b.r.r.a.c.n.n.c.p.y.6.+._ r # O # * * * * O               O O O O O X O O O O O O O O O O O # # O O O O # & ",
"f f f f f f f f f f f f q q q q q q q q f f f f q f f f q f f q q q q q q q q f f f *                             O O # # & * * = : : =  .x.c.b.n.m.b.c.c.b.n.n.b.c.z.p.0.$.^ 9 # & * * = = = #               X O O O O O O o O O o O O O O O O # # # O O # # & ",
"f f q f f f f f f f f f h f q q q q q q f f f f f f f f f f f q q q q q q q q h : #                                 O O O & = = = * * * E z.z.z.c.b.b.b.n.n.n.n.b.z.a.p.w.e.T = * * = = = = = *               O O O O O O O o O O o O O O # # # # # O # # & # * ",
"k j f f f f f f f f f f h f f q q q q q q q f f f f f f f f f q q q q q q f f : O                                     . o # & * * & * * p r.a.z.z.b.b.n.m.n.b.b.c.z.a.i.y.>.p = = = = = = 9 9 *           X O O O O O O O O o o O O O O # # # # # O O # # & # * ",
"j j j j j h f f f q f f f f f f f q q q q q q q f f f f q f f q q q q q f f =                   o O O O O O O O O .       . o # # O & * - O.u.u.z.x.x.b.b.b.n.b.c.a.a.p.y.o.9 = = = = = = q q *           O O O % & O O O O O O O O O O # # # # # # # & & & * * ",
"h h h h h f f f f f f f f f q f f q q q q q q q q q f q f f f q q q q f q * .                 o O # # # # # # O O O X       . o O O O * $ E w.r.u.g.z.x.x.x.c.c.c.c.p.i.e.K 9 = = = = = = : = O         O O O * & & # O O O # # # O O O O O # # # # # & & & & & ",
"f f f f f f f f f f f f f f f f f q q q q q q q q q q q f f f q q q q q O                 O O O # * * * * * * * # # O O       . . O O O # w $.0.q.y.u.p.u.z.c.c.c.c.z.p.>.r 9 9 9 : ; ; : ; #         O O O * * O # O O O O # # # O # # O & & # # # # # & & # # ",
"f f f f q q f f f f f f f f f f f q q q q q q q q q q q q f f q q q q * O         . o O O O # & * * = = = = = * * * * & O O         X O X $ ) 5.6.q.u.p.z.z.c.c.z.c.c.p.$.0 9 q q q q : = O           O O O * & O # # # # O O # # # # # & & & # # # # & & & # # ",
"f f f f q q q q q q q q q f f f f f q q f f f q q q q q q q q f f f f ; & O o O O # # & * * * * * = = ; ; = = = = = = * * * O O         X o K +.4.6.r.u.z.z.c.c.z.c.c.i.O.0 9 9 9 q q * .             O O O # # O O # # # # # # # # # # & & & # # # # & & & # # ",
"f f q f f f q q q q q q q f f f f f f f f q q q q q q q q q q q q q q q = * * * * * = = = = = ; = ; ; ; : : : ; ; ; ; = = = = * O .     . . $ W X.5.0.u.z.z.a.a.a.p.i.i.$.0 = : 9 q =                 . O # # # # O O O # # # # # & & & * * & # # # # & & & # # ",
"q f f f q f f q q q q q q q q q q q q q q q q q q q q q q q q q q q q q q : ; ; : ; ; ; : q q q : : ; : : : : ; ; ; : ; ; ; ; = * O O     o . 4 _ $.6.r.u.i.p.p.p.u.r.i.o.q = q q q O                 . O # # # O O O O # # # # # * * * * * & # # # # & & & # # ",
"q q f q q f f f f f q q q q q q q q q q q q q q q q q q f q q q q q q q q q q q q q q q q q q q q : : : : : : : : : : : : : : : : * O o       . r ) 7.6.q.r.u.p.u.r.r.r.! 8 = q q &                   o O O O O O # # # # # # # & * * * * * & # # # & * * * # # ",
"q q q q q f f f f f q q q q q q q q q q q q q q q q q q q q q q q q q q q q f f q q q q q q q q q q q : : : : : : : : : : : : : : = * O     : = O L +.5.6.q.r.r.r.r.r.t.C = q q = O                 O O O O O O # # # # # # # & * * * * * * # # # & * * * * # # ",
"q q q q q q q q q q q q q q q q q q q q q q q q q q q q q q q q q q q q q q q q q f q q f f q q q q q q : : : : : : : : : : : : : = * * O   b j o $ ! 7.6.e.e.0.r.q.t.7.e 9 q : O                 O O O O O O # # # & & & # # # * * * * * * # O # & * * * & # # ",
"q q q q q q q q q q q q q q q q q ; ; q ; ; ; ; q q q q q q q q q q q q f q q q q q q q f f f q q q q q q q : : : : : : : : : : = * * * % X     o   2 ) 7.7.7.6.r.r.r.$.r q q %           o X O O O O O O O O # # & * & & # # # * * * * * * # # # * * * * & $ # ",
"q q q q ; ; q q q f q q f q q q q q q q q q ; ; ; q q q q q ; ; q q q q q q q q q q q q q q q q q q q q q q q : : : : : : : : ; = * * * * O O X       w _ +.7.0.0.0.e.O.0 q = X         o X O O # O O O O # & & & & * & # # # & * * * * * & # # # * * * * & # # ",
"q q q q q q : ; q q q q q q q f f q q q q q q q ; ; : : : : : ; : : : : : : : q q q q q q q q q q q q q q q q q ; ; : : ; ; ; = * * * & * * # O O     o L $.#.7.7.7.7._ 9 = #             X O O O O O O # # & & & & * & # & & & * * * * * # # & & * * * * & * O ",
"q q q q q q ; ; ; q q q q q q f f q q q q q q q q : : : : : : : ; ; ; = = = ; ; ; : q q q q q q q q q q q q q q q q : ; ; ; ; = * * * & * * & # O O O o $ ! O.+.$.$.$.E 9 = o           X O O O O O O # * & * * * * * * & & & * * = * * # # # * * * * * * * * X ",
"q q q q q q q ; ; ; ; q q q q q q q q q q q q q q q q q q q : : : : ; = = = = * = = = ; ; ; : q q q q q q q q q q q : ; ; ; ; = * * & & * * * * % O O O o a ) ` $.+.$.K = * .         X O O O O o O # & & & * * * * * * & & * * * = * & # # # & * * * # # * *   ",
"f q q q q q q q : ; ; ; ; q q q q q q q q q q q q q q q q q q : : : ; ; = = = = * * * * * & * * = ; : q q q q q q q q : : : ; = * * # & * * * % O O O X . + L ) $.$.$.l ; O .       O O O O O O O # * & & & * * * * * * & & * * * * * & # # & & & * * # # * #   ",
"f q q q q q q q : : = = ; ; : q q q q q q q q q q q q q q q : : : : : ; ; = = = = * * * & # # # # & * = = : : q q q q q q : ; = * * & # * * * O O O O O O o 0 ( O.$.;.y = O . .   X O O O O o O & * & & * * * * * * * * & & * * = * # # # # & & & * * # # * O   "
};
