/* XPM */
static char *west[] = {
/* columns rows colors chars-per-pixel */
"128 128 256 2 ",
"   c #191108",
".  c #1D1211",
"X  c #1B1812",
"o  c #2A0C04",
"O  c #28170A",
"+  c #34150C",
"@  c #3A160D",
"#  c #351A0B",
"$  c #3B1B0D",
"%  c #231512",
"&  c #281A15",
"*  c #351C14",
"=  c #3D1C13",
"-  c #1E2314",
";  c #30240F",
":  c #24261C",
">  c #292518",
",  c #3C2314",
"<  c #372619",
"1  c #3C231A",
"2  c #1E1E23",
"3  c #211F22",
"4  c #1E2124",
"5  c #232323",
"6  c #292724",
"7  c #23252B",
"8  c #382924",
"9  c #323628",
"0  c #3A3729",
"q  c #441B0D",
"w  c #481B0C",
"e  c #531E0F",
"r  c #441D13",
"t  c #4A1E13",
"y  c #441F19",
"u  c #6A1E0B",
"i  c #4D220E",
"p  c #432215",
"a  c #4C2314",
"s  c #482916",
"d  c #442519",
"f  c #4C2519",
"g  c #442A1B",
"h  c #4C2C1B",
"j  c #522415",
"k  c #552817",
"l  c #542C1B",
"z  c #5B2D1C",
"x  c #4A311D",
"c  c #54311D",
"v  c #5B321D",
"b  c #5B381D",
"n  c #662B1A",
"m  c #732A16",
"M  c #66371D",
"N  c #74381E",
"B  c #492D22",
"V  c #552E21",
"C  c #493426",
"Z  c #543423",
"A  c #5B3422",
"S  c #5C3A25",
"D  c #553829",
"F  c #5C3C2B",
"G  c #493832",
"H  c #553B32",
"J  c #672E22",
"K  c #633423",
"L  c #6D3524",
"P  c #643A24",
"I  c #6C3C23",
"U  c #67352A",
"Y  c #643C2B",
"T  c #6B3C2B",
"R  c #773827",
"E  c #733C24",
"W  c #733B2B",
"Q  c #683C31",
"!  c #783E32",
"~  c #3C4629",
"^  c #5D422D",
"/  c #4C4836",
"(  c #5A4436",
")  c #63422C",
"_  c #6B4328",
"`  c #6C432B",
"'  c #734325",
"]  c #7B4425",
"[  c #73442C",
"{  c #7B452B",
"}  c #75492D",
"|  c #7C4A2D",
" . c #60502D",
".. c #644433",
"X. c #6B4432",
"o. c #6C4A34",
"O. c #684B39",
"+. c #784736",
"@. c #744B33",
"#. c #7B4C33",
"$. c #6C523C",
"%. c #74523C",
"&. c #7B5439",
"*. c #70633F",
"=. c #575147",
"-. c #6A5546",
";. c #6E554B",
":. c #765846",
">. c #7C5A44",
",. c #59664C",
"<. c #796656",
"1. c #746850",
"2. c #777365",
"3. c #88361D",
"4. c #853C29",
"5. c #8B3F2D",
"6. c #87472B",
"7. c #834C2C",
"8. c #96472D",
"9. c #85512E",
"0. c #8C512E",
"q. c #93532E",
"w. c #9A542E",
"e. c #844433",
"r. c #834D32",
"t. c #894A37",
"y. c #944C34",
"u. c #984935",
"i. c #845234",
"p. c #8C5333",
"a. c #83533B",
"s. c #8C543B",
"d. c #895939",
"f. c #8C5B3C",
"g. c #935433",
"h. c #9B5B34",
"j. c #985538",
"k. c #945B3B",
"l. c #9C5D3B",
"z. c #AB4C2E",
"x. c #A54B34",
"c. c #A74D37",
"v. c #AA4D35",
"b. c #A65737",
"n. c #AC523A",
"m. c #A35D3B",
"M. c #B3533B",
"N. c #B7573A",
"B. c #99613B",
"V. c #9D613D",
"C. c #A3633C",
"Z. c #A9653B",
"A. c #AB653D",
"S. c #B6663B",
"D. c #CB6138",
"F. c #D1693C",
"G. c #8C4F42",
"H. c #845C44",
"J. c #8A5A45",
"K. c #975945",
"L. c #A75A46",
"P. c #B75B45",
"I. c #AD5D51",
"U. c #896349",
"Y. c #9B6443",
"T. c #93644B",
"R. c #986649",
"E. c #886856",
"W. c #956953",
"Q. c #9B6C52",
"!. c #8B735B",
"~. c #9A735A",
"^. c #A46542",
"/. c #AA6542",
"(. c #AC6A44",
"). c #A46C4B",
"_. c #A86948",
"`. c #B26C44",
"'. c #B66848",
"]. c #AC714C",
"[. c #B4734B",
"{. c #B9754A",
"}. c #BB754B",
"|. c #A96954",
" X c #B76955",
".X c #A87556",
"XX c #B57957",
"oX c #BC7B53",
"OX c #88766A",
"+X c #977966",
"@X c #A77964",
"#X c #B57864",
"$X c #C55E45",
"%X c #C66549",
"&X c #D36C47",
"*X c #C4794B",
"=X c #D77649",
"-X c #C86A55",
";X c #C37D53",
":X c #C87857",
">X c #D77956",
",X c #E47C4D",
"<X c #D47D63",
"1X c #86815B",
"2X c #BC825C",
"3X c #938771",
"4X c #A68A75",
"5X c #B08A71",
"6X c #C48155",
"7X c #C4835B",
"8X c #CB855A",
"9X c #CC8658",
"0X c #D58956",
"qX c #D38A5B",
"wX c #F38A47",
"eX c #F38C4F",
"rX c #E68754",
"tX c #C88964",
"yX c #D38B63",
"uX c #D89568",
"iX c #CD9474",
"pX c #E7966B",
"aX c #E9A476",
"sX c #F1A877",
"dX c #959284",
"fX c #AA9688",
"gX c #B69B86",
"hX c #98A88E",
"jX c #B9A696",
"kX c #B3A991",
"lX c #B9B0A5",
"zX c #C8978A",
"xX c #C5AA97",
"cX c #CBB29A",
"vX c #F7B586",
"bX c #C9B8A8",
"nX c #D5BAA7",
"mX c #CBBBB2",
"MX c #B7C7A9",
"NX c #CFC5B2",
"BX c #D7C8B8",
"VX c #E3CBB7",
"CX c #E7D3BB",
"ZX c #CCE4BF",
"AX c #D8CDC2",
"SX c #DBD4C7",
"DX c #D6D8D1",
"FX c #E7D8C9",
"GX c #EBD9CD",
"HX c #D4E2C8",
"JX c #EDE6D4",
"KX c #F5E7DA",
"LX c #EBEBEA",
"PX c #F9EDE3",
"IX c #FDF4EA",
"UX c #FEFCF7",
/* pixels */
"u.w.b.b.u.8.y.y.6.6.6.8.y.y.j.6.4.m.%X>X>XyXT.a @X.XY.b.%XrXeXeXeXeXeXeXeXpXsXpXM q 1 1 < * * & 8 8 8 < < < 1 < < 1 g g s h Z h x c c x x h s s d d 1 1 1 1 < < ; * * * & & & & & * * + F R.|.H.; X 2.=.> ~  .lXSX2.9 ~ > ; ; # g g , , , g x D h 1 # s S ^ D ; ",
"w.b.m.m.b.u.y.y.y.y.y.y.j.j.j.j.4.b.-X>X>XiXW.s @X4X).b.%XrXeXeXeXeXeXeXeXpXsX_.i p , * < * * * 8 8 < < < 1 g g d g g s h h h c x Z c h c c l h f d d d d d 1 1 1 , * * * & & & & < * + K |. X&.O X 9     X > ,.2.0 ; - O O O # p h s s x D x s d , # F ..^ C ; ",
"b.m.m.m.b.w.w.j.g.y.y.g.j.L.L.L.y.8.:X>XqXiX~.h +XU.i.'.=X>XrXeXeXeXeXpXsXsXpXN a 1 ; * * * * * < 1 1 1 1 g B B g g Z Z h c Z S S S l k c v c l f s s f h h s s s d , = * * * * < < * * a |.@Xs > ,.0 : ,.1.3X3X2./ 0 ( 1.;.-.C h s s s s s p , d 1 $ c ) D -.~ ",
"m.m.A.m.b.w.w.g.g.p.g.g.l.^.^._./.g.:XpX:XiX+Xx +X&.f.[.:X%X%XpXsXpX;X6X7XyXj.i p , * * * * * * * 1 1 1 d d g g d s Z S c A S P S P b M M b v z b l l l l l l l l f p p = = * * < 8 < = r |.H.-.3X3X/ kXHXlX2./ 2.( Z :.E.+X$.h a a s s f h # x C , # h c s 2.3X",
"'.'.`.A.b.m.L.K.k.g.g.k.K.K.k.k.s.7.Y._.f.~.!.x +X~.n N R m m b.'./.m.l.l.Y.k q = * ; * ; * * * * d d s g d g g h l A S P P P I P L I ' _ _ M M _ P P T P M b b A c f a p = = 1 < 8 < 1 = J.C ,.NX3XlXHX3X/ 0 > C x Z V f f p f f f s a f c # x < O O x x O.NXHX",
"|._.^.L.j.t.e.[ M n n n L n e e w i _ U.&.U.!.h U.U.n L L n R b.P.%X%X'.-XG.w = = = * ; , , * * d B g f h h l k l A P K _ [ N M E E ' ' ' { ] ] | { [ | { ' I T P K v l l a d 1 1 1 1 1 + ..; O 1.2.hX,.0 / > > ; x Z v l l a a h l f a j S , x  ./ > < < 3XJXJX",
"z k k k e e t w w j z n L L k j i i o.4X3X*.$.h o.@.#.e.{ e.6.L.%X%X-X%X XL @ = = = = = 1 1 1 d g B l c Z A S A v P T E [ { ] ] 7.6.7.7.7.7.7.7.7.7.7.7.7.] ' ' I L P K v l s g g g g 1 # , O O O < 8 8 / < ; O ; h l l l l a a f f a a j S , 1.NXMXhX,.,.hXJXJX",
"k z z k j j z n W e.t.G.K.G.{ L n ` E.1X3X1X:.h X.@.+.{ { { 4.j. X-X-X-XL.e @ = 1 1 1 1 d d s f l Z A S Y Y ` [ I E [ | 7.7.0.0.q.y.q.q.0.0.0.0.0.0.0.0.0.7.7.] ] E I P M z j s s s s 1 # # # # < 1 < 1.;.O ; O O s k k l l a s h s a a j S g 2.NXZXZXZXZXZXJXZX",
"z n n n n R 6.t.s.j.K.L.I.L.y.t.e.J.5X3X1X,.$.x F X.+.{ ! ! 4.u. X-X-X-Xe.w = 1 d p p p d f f l c A P Y ` ` [ [ { { | 6.0.0.q.q.q.w.q.q.q.q.q.q.q.q.q.g.g.0.7.7.] ' I I M v k j f h h s , # # # H 1 g -.< O O O O d f a f l a p f p p a a Z x 3X2.3XMXZXJXZXZXhX",
"L E E ] 0.j.l.j.j.j.j.L./.L.j.y.y.j..X3XMX3X .x F X.[ { ! ! 4.j. X-X-X Xn q p d d a a a f f l l A K Y ` [ [ [ { | | 7.0.0.q.g.w.w.w.w.w.w.w.w.w.w.g.g.g.g.q.0.7.| ' ' I M v v k l h h h g # # , $., $ # O O O O O = r p r p $ $ , = $ r p s , OX1.> ~ 2.MXHXMXNX",
"g.l.j.l.L.L.L.l.j.j.j.L.L.L.j.y.y.j.s.~.NXcX<.$.S @.{ ! ! ! 4.u. X-X-XI.e w p d f f a f f k l v A P T ` [ [ | | 7.7.r.p.g.g.g.w.w.w.w.w.h.h.h.h.h.h.w.g.w.q.0.7.7.] ' ' I M v v c c c x h p # $ D $ # # + + O O O # $ q q @ $ # O # # # # B C / OX> : 9 2.MXhXHX",
"m.'./.L.m.m.m.m.m.m.m.L.L.L.l.j.j.j.j.t.J.b ^ O.h ` { ! ! ! 4.u.'.-X Xt.w t d f f a a f f l l v K P T [ [ | | 7.7.r.0.p.g.g.h.h.h.h.h.h.m.m.A.A.m.h.h.h.g.q.0.9.7.] ' ' I P M v b c c c x f $ + $ $ # # + + O O O # = r r p ( < 9 2.=.& 1 OXdX-.1.9 ,.hXMXdX=.=.",
"'. X'.L.m.m.L.L.m.m.m.L.L.l.k.l.K.j.j.R s.v x h h X.! ! W ! R u. X X XL q p d f f a a f f l c A K I ` [ } | | 7.r.0.p.p.g.g.h.h.h.h.m.m.m.C.C.C.C.m.h.h.h.q.0.0.7.| ' ' _ I M M b v c c c h p + + # # # + + O O O = = r r g B ; 2.3X/ ; ( -./ ~ ~ / dXMXlX2.hX2.",
"'. X X X'.L.L.L.L.l.l.L.K.).5X5XU.&.i.R t.W.o.h h X.! ! ! ! R u.I. XI.j q p d f f j f f k l c A K T [ [ +.#.#.r.0.p.p.g.g.g.h.h.h.m.m.m.m.m.m.C.C.C.C.h.h.h.q.0.7.7.{ [ ' I L M b v c c c l s $ # # # $ + + + o + = = = = * & O =.~   < C C =.hXdXdXZXhX,./ 2.HX",
"'. X|./.I.L.L.L.j.j.j.j.p.5XVXkX1. .@.{ e.@Xo.Z h X.{ ! ! ! ! 8.L. Xt.w = p f f f f k k l c v A P T [ { | #.r.i.i.p.p.g.q.q.h.V.h.l.m.C.C.C.A.A././.C.B.V.B.k.p.9.i.7.{ [ _ T P S v v c c c s = $ $ $ $ @ # # + # = = = * < > : 3XdX< < 1 < 0 OXDXHXhX/ - 9 9 kX",
"L.L.L.L.L.L.j.y.y.y.y.y.{ } 4X1X1.1X@.[ { ~.o.E.S X.! ! W W R R K.|.W q , d f f k k k l l c v A P ` [ { | r.i.i.p.p.p.g.q.q.g.C.m.m.C.C.A.(.(.A.(.(.C.C.C.V.V.k.p.p.r.| { [ I P P b A A A c f = $ = $ $ @ $ = = = = = = * > > 0 hX3X1 , 1 ;   X / =.6 - - - > 2.",
"K.K.K.K.L.L.j.u.u.y.6.e.r.5X3X1.!.kX&.' T.@X>.gXF T L J n k e n 6.K.K q 1 d f k k l l l l c v K Y ` [ | | r.i.p.s.s.g.g.g.q.j.C.C.C.C.C.C./.C.C.C.C.^.(.^.l.l.l.k.p.7.| ] ' _ T P K A A A Z h , + = + + @ = = = = = = = * < < 0 / 1 , 1 d C =.2.-   > > > - - / ",
"K.K.K.y.u.u.y.u.u.8.t.t.iXnX~.5XcXcXd.| R.5X>.@XS X.! ! W W W 4.K.|.z p 1 d f k l l l l l v A P T [ | +.#.i.s.s.s.s.g.g.g.g.j.C.^.^.^./.^.C.V.V.C.C.C.(.^.l.k.g.g.p.7.7.] ' ' I P P K A A A l d # = @ @ @ $ r r = = = = , < 1 1 1 1 p d d B fXSX2.  9 > > - O ; ",
"+.W L n m 4.5.u.u.u.u.t.iX5Xf.s.Y.).K.{ s.#X%.E.A X.! ! { e.e.t.L.|.k p d s f k l l l l c A S P T [ +.#.r.a.s.s.s.k.k.l.K.V.l.^./.^.^.^.C.C.V.C.C.C.C.C.C.l.h.k.g.p.9.7.] ' ' I L P K K A A c d # + @ @ @ $ r r r r = = 1 g g 1 p p p p d , 1.NXlX0 > < > - O < ",
"L n j e m j.I.'.I.L.j.y.K.K.s.t.L./.L.R t.@X>.4XZ T { ! ! ! e.t.K.L.j p d g l l l l l c v A P Y T [ +.r.i.s.s.s.f.k.K.Y.^.^.^.^.^.^.C.m.^.C.C.C.C.C.C.C.C.l.l.l.k.g.0.7.{ ' E I L P K K A A Z f = + = @ @ $ q r r r r r , p p r t r t p d ; < dXBXkX( , ; X O C ",
"G.+.! J e.L.I.I.L.L.L.j.j.k.t.y.L.'.K.R t.@XE.4XF T +.+.! ! e.e.K.t.t p d f l l l l c c A S P Y ` +.#.r.a.s.f.f.k.K.Y.^._._./._.^.^.C.C.(.^.^.C.C.C.C.C.C.m.l.l.h.g.p.p.7.] E I L P P M b A Z h = + = @ @ q w r r r r r p p = r r t t a d , O / kXBX3Xp ; O O C ",
"G.a.+.e.G.L.'.I.L.L.L.L.y.g.y.y.j.L.j.R t..X@X+XZ T +.+.+.+.e.e.K.+.r p s f k l l l l v A S P _ [ [ { | #.r.i.s.k.Y.^.].].].].(._.(.(.^.^.(.(.(.(./.C.m.C.^.m.l.h.k.g.p.7.] E I L P P M b A A Z 1 * = = r r t a t r r p p r = r r t t a f , ; < / <.S q , O ; x ",
"+.+.+.t.j.L.'.I.L.P.I.L.y.j.y.y.u.L.j.R e.J.:.:.l T { ! e.5.e.e.K.! r p s f k l l l l A A P P _ [ [ ' [ { | r.r.p.s.k.Y././.].[.[.[.].(.(.].[.oX[.].].].[.[./.C.l.k.s.p.7.| ' I I P P M A A S C 1 = = r r t a l t r p p p r r = r r t a f = * , $ f a w p , < f ",
"e.e.e.s.K.L.'.P.P.P.'.'.m.j.y.y.y.K.j.R e.H.o.F h T { ! 4.4.4.4.G.L t p s k l l l l l A S P P _ ` [ [ { | | i.i.s.g.k.l.l.l.C./.(.].^.C.l.h.C.(.].[.[._.]._.^.V.l.k.f.p.7.| [ ' _ I P M K K S Z B * y r r t f l a r p r r r r r t t t j f $ # , $ Z a a a C h s ",
"e.e.t.G.K.L.'.P.P.P.P.:X'.j.y.y.8.j.j.R { +.) x h T { ! 4.4.4.4.t.k r p f k l l l l c A S P P T ` [ [ | | r.s.s.k.k.k.l.C.C.C.C./.m.m.m.l.C.^.^./.^.C.l.l.k.0.7.0.p.p.7.7.| { [ _ T I M M P S D B = r p r t j z a t t t t t r r t t t j f $ # , $ l a a a f f f ",
"t.t.t.G.K.L.'.P.L.L.P.'.L.j.y.y.8.j.L.4.{ +.^ x Z T e.4.4.4.4.4.t.j t p f k l l l l c A S P P _ ` [ +.#.#.i.s.k.k.k.l.V.C.C./._.(./.^._._.^.^.^.(.(._.C.V.k.6.] 0.p.0.7.| | { [ ' I L M M P Y F B = r p p q j z k a a a a a r r r t a k k $ # , p A a a a a j k ",
"e.e.e.t.K.L.'.P.L.L.I.I.L.j.y.y.j.y.L.K.K.%.D h A T e.4.R 4.4.4.t.e p d f l l l l l c A P Y T _ [ [ } +.#.i.p.k.k.l.l.C.C././.(._./././././.^./.(.].(.C.^.l.0.0.p.p.0.7.7.| { [ ' I L P P P Y F B = r p p w j z z j a a a a p p p t j k l $ , = p A k j j j j l ",
"e.5.4.t.K.L.'.P.n.L.I.'.j.w.y.8.j.b.j.y.+.X.Z h A U e.e.R 6.y.|.W.a d d h l l l l l v A P Y _ ` [ [ } | #.i.p.k.k.l.V.C.^.(.(.(.(.(.(././././.^.^.C.V.V.^.^.B.l.k.g.p.0.7.| { [ ' I L M P P X...D p p p t i j z k j j a j a a p a a j l l $ , , d A k k k j j l ",
"t.5.5.u.L.L. X XL.L.I.L.j.y.8.8.u.j.8.t.{ S D h S K s.K.|.|.L.|.+.f f s l c l l l z v S P T _ ` [ [ } | | i.s.k.k.l.C.C.C.(.`.].[.[.].(.(././.C.l.l.V.^.^.V.l.l.k.k.g.0.7.7.| ' ' I L M P P X...D p f a a i j n z j k z z j a p a a j z k # , , d Z l l k k k l ",
"y.t.e.u.K.c.I.I.u.y.8.4.N m m m R 8.u.6.+.A ..^ :.&.J.R.|.L.y.G.+.f f f c c l l l z A S Y T _ ` [ [ } #.i.f.K.k.l.C.C.C./.`.].[.[.[.].`.(.`.`.^.^./._.^./.V.k.k.k.k.k.p.9.7.| { ' I L P P Y o...D p V l a i j n n k z K v j f a a a j z f # , 1 f Z l l l l l l ",
"'.'.I.I.K.4.3.3.u u u m m N 3.4.y.L.L.u.T.E.:...X.z a.t.y.j.L.K.W a f f l l l l l v A S Y Y _ ` ` [ | #.r.i.k.K.V.^.C.C./.(.].[.{.[.].`.`.(.(.[.[._._._./.l.l.l.l.k.k.p.0.7.7.] ' I L P P Y o...D p V l j k z K K z K T z j f f f a j l f + p p d f f f f k j a ",
"'.m.u.8.8.u.b.x.8.8.8.u.8.8.w.b.b./.'.y.n Z g h +.z a.s.j.b.L.K.{ j f f l z v v v v A S Y P _ _ ` [ | e.r.i.s.k.k.l.l.l./.(.].[.{.].(.`.`.(./.^.C.^.(.(./.^.C.V.l.l.k.g.0.9.| ] ' I L M P Y o...D a V l j z z K K K U U l f a p f p a f a @ $ = r p t t t a a a ",
"%X%XN.b.w.b.'.'.b.b.x.b.b.w.w.b.b.'.:XL.k s g c &.z a.j.u.b.L.L.e.j f f l z v v v A A A P P _ ` [ | | r.i.s.s.k.k.l.h.h.l.l.m.m.C./.C.m.m.m.C.C.C./.(.(.(.^.^.^.^.V.k.k.p.9.7.{ ' M M M b _ o.X.A p k k a a a f f j j t t t r = d r r t r $ g F ;.X.t a A a a f ",
"=X=XF.N.b.b.'.'.A.b.b.x.b.b.b.b.b.'.:Xb.M S x x :.l #.j.j.j.L.L.e.j a f l z v v v A A A P P _ [ [ | r.i.p.g.k.l.l.h.h.C.C.l.C.A.(.(.A.C.A./.A.A./.`.`.`.(.Z.C.C.C.V.l.l.p.i.7.{ ' M M M b ) o.o.Z $ q a w w w t t a t t t r r = r r r r H -.:.E.+XE.:.E.@XQ a f ",
",X,X&XS.b.b.S.%X'.b.b.b.b.b.A.b.S.'.%Xw.| ^ < O.<.D &.t.j.j.c.L.e.i a a l z v v c A A S P P ` [ | i.i.s.k.l.V.^.^.l.A.(.A.C.C.(.`.(.A./.(.`./.(.`.[.{.{.[.`.(.Z.C.V.V.V.k.s.i.| ' M M M S ) o.:.D @ q a j w w t a a t t r r r $ r = = = Z ..-.!.+X!.+X4X5X%.t f ",
"rXrX=XF.S.N.S.{.'.b.x.w.w.w.b.b.z.b.b.b.i.Z < ;.4XgXzX^.y.u.u.j.e.i a f l z v v c A A P P T [ | r.p.f.k.Y.^.^.(.].[.[.`.(.A.(.`.`.(.A.`.`.[.[.{.{.oX;X;XoX{.[.`.(.^.V.V.k.f.i.| ' ' I M P ) o.:.) $ q v K q w t a a a t t t r $ r = $ @ + $ s H $.:.!.fXxX+Xf f ",
"rXeXrX&XS.b.b.N.b.x.w.8.8.8.u.x.w.x.8.P.K.Z D 1.jX5XQ.s.8.u.y.u.e.i a k z z z v Z A K P T [ { #.a.f.k.B.Y._.(.[.[.oX{.[.[.`.[.[.[.`.`.[.{.{.*X;X;X6X6X9X6X6X{.{.[._.Y.Y.Y.f.i.| [ ` _ P Y ) o.:...$ q S T t t t a a a a t t r = r = $ ..E.O.O.1.+X4XxXBXGXFXO.f ",
"rXrX,X&XN.b.x.b.b.w.8.8.6.8.u.b.u.w.5.'._.) D <.<.l P e.6.u.y.t.{ j a l z z v v Z A P T ` [ #.i.s.K.Y.Y.^.^.[.oXoX;X;X;XoXoXoXoX;X;X;X{.{.*X;X;X9XqXqX9X8X7X7XXX].).Y.J.U.d.#.} ` _ _ ) ) ) o.%.X.@ t A T j t a a a a a t r r $ = = , +XNXBXBXCXGXJXKXKXKXGX:.r ",
"=X,X=X&XM.8.8.u.u.8.8.8.8.8.u.b.w.8.8.'./.) < x $.f T t.e.t.t.s.#.a a c A v v A A A P T [ | a.f.f.Y.Y.^._.].oX7X7X8X8X8X6X6X;X;X;X;X;X;X;X;X9X9XqXyXyXqX8XtXtXXXQ.Y.d.&.&.@.` _ Y F ) ) ) ) o.%.o.t a v U j t a a a a a a r r $ = $ , O.U.4XgXcXnXxXVXCXVXbX$.p ",
"=X=X=X=X'.x.8.w.w.8.8.8.8.t.y.j.u.6.6./.|.) , g :.c T H.J.K.J.a.+.a f A A A v A A A P ` } #.a.f.K.Y.Y.).].2XtXtXtXyXqX9X8X8X6X;X;X;X;X;X6X8XyXyXuXuXuXyXiXtX.Xd.a.&.` o.o.) S b c h x ^ ) ) ..%.%.f a j z a t a f f f a a r r r = $ p ^ $.+XgXxXgXfXxXbXcXxX-.a ",
"=X=X=X:X%Xb.8.8.y.y.y.e.t.e.y.j.j.R e.).Q.S 1 x !.4X>.c l z l l l a a A A A z v A S ) ` ` } @.a.U.T.R.).XX2XtXtXtXyXyXyXuXqX8X6X8X;XoX;X9XyXuXpXaXaXuXiX2XXXa._ ) c s D D D D D s x $ x F ^ ..o.%.l l a k t t a j j j f a t r r p $ d F $.!.:.+XgXcXjXjXxXVX+Xp ",
":X>X>X:X:X XL.^.|.|.).).K.t.t.t.{ n M [ +.l , g <.nXNX$.h l l h V d a A A v z V A Y F Y ) ) X.@.&.H.U.T..X2X2XtXiXtXyXuXuXqX8X6X6X;X6X8X8XuXaXaXaXaXiXtXXXf.@...^ D C C B C Z Z x D g , s H O.o.%.l z t j t a f l k l l f a t p r $ h $.:.E.+XfXcXnXnXnXCXKXfXp ",
">XyXyXyXyX<X XK.t.e.{ W L L W T T K K L T h # B ..+XjX;.Z Z h B h d a A v v l Z D Z D F D ) $.$.O.o.%.%.&.U..X2XiXiXuXuXuXyXqX9X9XqXyXyXuXuXaXaXaXuXiXXXf.d.%. .C B C B B C B g C x C B g C ..$.%.l z a k a a j l k l l f t r r r $ h :.>.+X4XnXnXVXBXcXCXCXgXs ",
"L.'.P.L.L.j.t.e.! ! W T L T T T T T K U Q h , Z ..O.4X:.Z Z Z B g r a A v v Z Z V Z D x g g C D C ^ F F S ) &.T.5XiXiXuXuXuXuXuXuXuXuXuXaXsXvXsXaXyXtXY.d.&...D x C C B C Z ^ h g g , g g h ..O.o.A A j k a t a f f f j a t t r r $ Z %.E.4X!.xXgX4XjXBXVXxX4XZ ",
"b.L.L.L.L.L.j.y.e.+.! Q Q Q U Y Q Y A S X.Z , D O.Z ..O.S S Z Z V d f A v A A h d h g g C D C B x Z ^ ^ ..) b ` T.2XtXyXuXaXaXaXaXaXaXaXaXsXsXsXaX8XXXB.U.} ^ S C D x D ) ^ S S h c Z x p h O.O.%.Y K j k j w t a a f a a t t p p $ Z $.%.4XgXcX4X$.4XGXGXnXgXS ",
"L.L.L.L.L.L.K.G.t.+.! Q Q Q Y F F Y A A ..D , D O.Z Z Y Y Y A A Z f f A v A Z d = $ g D D D C C C Z ..$...%.) _ [ Y.XXtXuXaXsXsXsXsXaXaXaXaXaXaXuXoX^.B.d.#._ c F S b X.` } &.&.) ) S c s s F X.%.o.U a k a w t a a a a a a t a p $ c %.E.U.E.cXgX!.cXBXxXJXnXS ",
"L.L.L.L.L.L.L.K.t.e.! ! Q Q U D A F Z Z ..D , D O.F Y +.+.Q U U A V h S A A Z p = d h , g x s x Z F ^ $.) F X.&.| p._.2X8XuXaXaXaXaXaXaXaXaXaXaXyXoXV.d.a.#.P _ ` } #.d.R.).Y.s.a.&.&._ l f F X.%.%.K i j a w t a a a a a t t a p p ^ >.~.!.>.cXnXgXBXVXNXGXVX..",
"L.L.L.L.L.L.L.K.u.e.+.+.! Q U A F Q Z Z ..D 1 Z ..Y Q +.+.X.Q U U l h S A S l @ s h $ p h c F Y ) ) ) X.` b _ #.d.f.V.[.2XyXuXuXuXuXpXuXuXuXuXuX7X{.^.k.f.| | a.f.Y.).].XXXX_._.Y.d.i.' z j Y o.@.Y k i a a i a a a j a a a a a a p ^ >.!.5X5XgXxXnXNXcXbXFXBXO.",
"L.I.L.L.L.L.L.L.G.t.+.+.+.W U A Y Q V V O.H , Z ^ Z D o.+.+.! Q Y l f S v A f p h h Z F F @.a.d.d.&.} ' _ ' ' i.d.V.V.(.oX8XqXqXqXqXqXqXuXuXuX9XoX[.(.B.k.k.Y.).XX2X7X;XoXoX].(.^.Y.B.f.' v S X.@.P z k i i i a a j j k k j j j l f ^ E.+XE.+XnXcXxXGXNXkXVXBX:.",
" X'.I.L.L.L.L.L.G.t.+.+.+.! U K U U V V -.( , C ^ :.E.o.+.+.+.! Q V f S v A c c S S ` ` #.R.R.R..X.X).Y.k.f.i.9.d.B.B.Z.[.6X9X9XqXqXqXuXuXuXqX6XoX`.C.k.B._.XX2XtXtXyX8XoX[.(.C.C.C.Y.B.i.M b ` [ _ M n i i i a j j k k k k k j l Z o.E.!.E.>.xX3X!.jXCXVXGXGXE.",
"XX XI.I.L.L.L.L.G.t.! +.e.! T J U Q z Z :.-.< C :.nXcXH.G.G.+.U K a f S b b k z ` @.&.K.R.).].].XX2X2XXXXX).V.B.k.B.B.C.A.{.{.oX9XqXqXqXqX9X9X{.`.Z.B.B._.XX2XtXtXuXuXuXtX[._.V.k.g.g.k.f.} T ` ` [ I n i i i a j k z z z z z l Z Z O.$.%.gX5XxXcXVXcXFXFXGXGX+X",
"L././.I.L.L.L.K.K.t.! ! t.e.W K K K U D ;.O.B ( <.jX5Xa.G.K.4.L K l j A A b v I #.f.Y.Y.Y._._.].2X7X7XtXtXXXXX).V.B.l.V.C.A.(.A.oX6XqXqX9X6X{.`.A.C.C.(.[.XXXXXX|.]..X.X].].).Y.k.0.0.s.s.r.[ [ ` [ { k j i i i k k z z z z z l Z h :.U.!.4XgXcXcXVXNXBXgXbXKX5X",
"I././.I.L.L.L.L.K.y.t.e.G.G.+.W U v Y S <.1.x O.^ F +.e.u.u.6.R M K v K K P I r.f.k.k.k.l./.].XXtXtXtX2X2XXXXXXX]._.V.m.C.m.C.C.A.{.9X9X;X{.(.C.m.C.^.].XX).s.e.{ [ [ I I ' ' i.f.p.7.7.p.i.+.[ [ @.#.k a a a k k z v I I z l l D h :.U.+X^ :.cXjXcXFXNX<.jXFX5X",
"L.I.'. XL.L.L.L.L.y.R L R 4.e.R L L P o.E.D , Z j [ 6.u.n.c.y.6.E L P P P L I 7.p.p.9.p.k.).].).Y.f.d.i.7.p.k.).].]._.^.l.h.w.h.m.{.9X9X{.C.h.h.h.(.].].k.i.s.T.J.H.H.W.E.@.[ _ I ' | | 7.i.+.[ [ @.&.j a f a a a f j z z w @ r C h -.:.E.1.!.gXnXCXbXBXBXCXBXzX",
":X-X-X XI.L.c.u.y.4.R R 6.t.t.e.{ ! E +.F , 1 r M 0.8.n.P.P.n.w.6.E L M M I ' | 7.| | p.s.r.{ [ #.a.H.U.R.T.i.i.B.).).^.k.g.q.g.m.[.6X9X{.C.w.g.V.].].k.s.T.~.~.>...Z ..%.F ) X.` M ' { 7.7.| [ [ [ ` r = = = $ @ @ @ t j q o = -.<.-.:.~.+X4X4X5XxXbXCXBXFXVXzX",
"P.n.c.x.c.L.L.P.P.L.j.y.u.u.y.t.t.R ! { k , g a { y.u.n.%X%X'.b.g.7.M M M _ { 7.| ] | | I I ` X.o.o.) %.W.5X@X.Xf.k.).Y.p.0.0.q.m.[.;X6X[.C.w.g.^.].Y.f.W.U.o.d d , C , # h a f c b L { | 7.| [ [ ` A @ @ = @ + + @ @ t z t @ = ( <.O.^ E.D E.nXxX4XBXJXbXBXnXgX",
"n.c.n.L.P.P.P.P.P.P.c.j.u.j.u.j.y.6.e.t.z = 1 l t.8.8.v.P.%XP.b.w.6.N M L ' | 7.] ' ' M T Y l r + # * s f l %.~..XJ.R.R.7.] 6.y.m.[.;X;X`.h.q.0.^..XY.Y.H.H.+XD ;.-.OX( d 4X5XF + q z { | 7.| [ [ X.Z @ + + + + + @ @ f U k @ = H ( ..F E.+X4XcX3X3XgXGXKXGXBXxX",
"P.M.M.P.$X%X%X%X%X%XP.c.u.j.j.b.u.6.4.e.z $ 1 z e.6.8.z.M.N.N.b.w.0.E M M ' 7.7.] N n v v a ..!.p H ;.;.-...@X&.H.W.R.|.] E 7.0.m.[.;XoX(.h.q.7.Y.|.{ [ ~.xXVXO.H H ( B g xXVXE.q @ k [ 7.7.| ' ` X.A + @ + + + + + @ j Q V @ d H C ..F <.4XgXkX!.gX3XVXcXnXCXnX",
"$X%X%X%X%X%X%X-X-X$XP.x.y.8.y.u.8.6.R R l , 1 v e.5.8.x.v.M.M.b.h.0.E N M ' 7.7.] N z w + ..xXfX= D -.H ( <.nXH.&.K K T.E { 7.y.m.`.oX{.A.h.q.6.s.| e n +.%.+X..d # # # O.gX!.S z z M | 7.9.7.' _ X.A @ + + + + + @ @ j W z @ d H D O.^ o.S :.fX3XkX4XcXgXcXVXVX",
"%X%X%X%X%X%X$X$X$XP.n.u.8.8.5.5.6.t.R W l , g v { 5.5.8.x.M.n.x.w.6.N N N ' 7.7.7.E e q @ Y @XgXf # # # , S X.a v v k [ E E e.y.m.`.{.{.(.w.0.7.{ r.d.a.` b l f p + p $ A ) v M ' N ] 7.0.0.7.] ' [ P @ @ + + + + @ @ t U z @ d D D -...S ^ D !.4XkXjXbXVXCXCXCX",
"$X$X$X$X$X$X$X$X$XP.P.x.5.5.4.4.4.e.R W l , , c R 4.5.8.x.v.v.x.h.6.N N E ] 7.7.7.| M k v v v ` a $ $ @ f S X.H.T.~.J.L M E 7.y.m.`.*X{.A.w.0.7.E #.W..X.X~.J.+.Y X.Y S b M | i.7.] 7.0.0.0.0.| ' [ T @ @ + + + + @ @ t J n q d D H -.o.>.3X!.3XgXxXcXNXGXBXVXcX",
"$X$X%X%X$X$X$X$X$XP.P.x.5.4.4.4.4.e.{ E h ; , l E N 4.6.y.u.n.L.j.6.N N E { 7.9.7.7.] M ' [ ' z z M P @.&.T.@X5X@X~.H.n M E 6.q.Z.{.*X{.A.h.0.7.E ' J.Q.Q.~..X.XW..XW.W.K.Y.Y.l.g.0.g.g.q.q.0.| ' [ T @ @ + + + + @ @ t J n q f H O.O.) U.!.3X4X4XxXjXBXCXCXNXgX",
"$X$X%X%X$X$X$X$X$XP.P.c.8.4.4.4.R e.t.T s g g h +.K.).l.K.j.L.b.y.6.E N ' | 7.0.0.0.7.] 7.r.p.7.i.R.#X2X.X.X.XQ.Q.J.T n L E 6.j.A.{.*X{.A.h.p.7.] N 7.R.R.Y.R..X.X.XXX2X.X].^.h.y.q.w.g.w.q.0.| ] [ T @ @ + + @ + @ @ t J n q f B O.^ S >.!.3X4X1.!.+XCXGXGXcX5X",
"$X%X%X$X$X$X$X$X$XP.L.u.5.4.4.6.e.r.J.` x C g Z U.&.` ' t.6.4.4.6.R E N ' { 7.p.0.0.0.6.7.7.k.B.^.XXXXXXXX.XR.R.R.+.K M I { 0.m.`.{.*X{.`.C.h.0.7.N E s.Y.Y.K.R..XXX.XXX].(.m.w.q.w.h.w.q.q.0.7.{ [ X.q @ @ @ @ @ @ @ w n J w d = O.^ S %.!.3X4X$.^ 3XVXnXcXVXcX",
"$X$X$X$XP.$X$X%X%X-X-X'.L.K.t.e.{ W #.A x O.x x ) >.4XU.[ r.E E R { ] E E { 7.p.p.0.q.0.0.0.q.l.^.].].].].).^.Y.s.E I I [ e.g.m.`.{.*X*X`.C.C.g.7.] ] 7.Y.).).)._._._.].(.C.C.m.m.m.h.h.w.q.0.7.{ } X.q @ = @ @ $ $ q w L W j p 1 -...F ^ s E.4X!.$.kXVXgXfXBXnX",
"$X%X%X-X>X>X<X<X>X-X XL.8.R m n n n #.v x O.g g F >.~.U.I I N R e.e.{ E E { 7.0.0.q.w.g.w.q.w.h.C.^.Y.Y.^.]..XY.] E E E { r.g.m.`.{.*X*XS.Z.C.w.0.7.7.7.f.).].XXXXXXoXoX[.`.`.S.A.Z.m.h.w.w.0.7.{ @.+.r = = = = = r q t L +.z r , ..$.^ ..O.:.4XgX3XxXjXVXNXNXVX",
"<X<X:X>X-X%XP.n.v.x.8.5.4.m m m n M #.Y p < g f S A K P I E E e.r.e.R E E { 7.0.0.q.h.h.h.h.C./.(.[.[.XXXXXX|.s.{ ] E { 7.0.g.m.`.{.*X*X`.A.C.h.0.7.7.7.p.l.].XXXX7XtXtXyX9X;X*XS.A.Z.m.h.w.0.7.| | +.t @ r r r r r r e W e.z l h ..$.^ ^ E.:.>.4XgXcXjXgX4XVX5X",
"P.P.M.M.M.M.n.v.v.v.c.u.5.N m m m L W Y p * g f Y T L I W W R { e.e.R E E 7.7.0.q.w.h.C.C.A.`.;X6X6X7XtXtXXXY.s.r.{ ] { r.0.j.C.`.{.*X*X`.A.C.h.q.0.7.0.g.k.^.].oXtXtXyXyXyXqX9X{.`.A.Z.m.w.q.9.| | [ q q r t r t r t e R e.n A F ..$.^ g s ..4X4XgXnXBX3X3XNX5X",
"P.P.M.M.M.M.M.n.n.v.c.c.8.4.4.N R R W T r * g f U L L L R E E R e.e.R E E { 6.0.w.h.C.A.A.`.;X9X8X8XyXtXoX_.^.^.k.6.] 7.r.p.j.m.`.{.*X*X`.A.C.h.w.p.p.g.k.C.C.].oXtXyXyXyXyXqX9X*X{.`.A.m.h.w.0.| | +.q q t t t t t t j 4.u.J U F ..O.^ g p ^ !.:.:.+XnXcXNXcXzX",
"P.P.P.M.M.n.n.n.n.c.c.c.x.8.4.4.4.4.! U $ ; g l L R R R L L L R e.e.R E E 7.0.q.w.h.Z.`.[.{.9XqX9XqXyXoX]._.^.).Y.0.7.7.0.0.w.m.`.{.{.S.`.A.C.h.w.s.s.h.V.].(.(.[.7XyXyXyXqXqX9X*X{.{.S.C.h.h.0.| | +.w w t j j j j e k R u.J Q Z ( O.x D O.$.:.E.>.+XxXNXcXcXcX",
"M.P.M.M.M.n.n.n.n.n.n.n.c.u.8.6.8.5.! U $ , g l L R R R N L R L E R E E { 7.0.g.h.C.(.[.{.*X9XqXqXqX8XoX]./.].].^.p.7.7.0.g.w.m.`.{.S.S.`.A.m.h.g.p.p.h.^.[.[.[.[.{.9XqXqXqX0X9X6X*X{.{.A.m.h.p.| #.+.t w t z z z z k k R u.R X.Z D O.D ^ ..$.:.+X+X4XxX4X!.gXxX",
"P.N.M.M.M.M.M.M.M.M.M.M.M.c.8.8.8.8.4.U $ , B l U L L N L E E L R { E E ] 7.0.g.C.A.[.oX;X9X9XqXqX9X7X[.].XX2XXX^.p.7.7.7.p.j.C.`.A.A.S.`.Z.m.w.0.0.p.k.^.[.oXoXoX{.{.;X9X9X9X9X*X;X*X{.S.C.h.p.| #.+.w w a v K K L z j R y.R T ....^ F x p D E.4XgXxXxX:.:.4X5X",
"P.N.N.P.M.M.M.M.M.M.M.M.n.c.u.8.8.8.5.U @ 1 D V L L L L L E L M N E E E ] 7.0.w.C.`.{.6X9X9XqXqXqX8X;X[.[.2XXXXX^.0.7.7.7.0.h.m.A.m.A.`.A.m.w.w.0.0.0.k.(.[.oX6X6X;X{.;X;X9X9X;X;X6X;X*X`.Z.C.k.| #.+.w w a K U L L n e L t.L Y :.:.D Z f $ x O.4XxXxXgX4XfX+XU.",
"P.P.N.P.M.M.M.M.M.M.n.v.v.c.u.8.y.8.5.K + 1 D V T L R R L W M n n M I E ] 7.0.h.C.[.;X9X9X9XqXqX9X6X{.[.[.XXXX]._.7.7.7.7.g.h.m.A.A.`.S.Z.b.w.q.0.0.0.k._.XXoX{.`.[.;X*X*X*X;X9X9X9X6X*X{.A.C.k.| +.X.w w j K U U W K k +.K.Q F :.<.Z C Z f Z Z :.!.4X4X3X4X3XY ",
"P.N.N.M.M.n.M.M.M.v.v.v.v.x.x.u.u.u.5.K + 1 ( Z T L R R L L L L L I E E ] 7.0.h.C.[.;X8XqXqXqXqX6XoX[.[.XXXX2X.X_.7.{ 7.7.p.j.m.m.A.S.A.C.h.q.q.0.9.7.k.].oXoX2X7XoX;X;X*X*X9X9X9X9X6X;X[.A.h.k.| +.X.t q f A S F U D F -.O.B B <.+Xg x D Z D Z ....4XgX!.!.:.c ",
"P.P.N.M.n.M.M.M.M.n.v.v.x.x.x.u.u.u.6.L @ B -.S T L W ! E E L L I E E E { 7.0.g.C.(.oX6X9XqXqX9X;X[.[.[.XXXX2X).K.7.] { 6.0.g.h.m.A.A.A.C.h.q.0.0.7.7.k.XXXXXXXX7XtX;X;X*X*X6X9X;X;XoX{.`.A.h.f.r.@.X.C g B C D 8 O O O O   o g <.3Xs h D h Z x F F $.+X+X!.) c ",
"P.P.N.M.M.M.M.v.x.x.x.8.x.x.x.x.u.u.6.L @ Z :.Y T L L L W W E L E E E E { | 7.g.l.(.{.;X6X9X9X6XoX[.].].XXXX2XXXY.{ ' ] 7.0.0.g.m.A.A.A.C.h.g.0.9.7.| s..XXXXXXXoX7X;X;X;X{.;X;X{.{.[.(.A.C.h.s.r.+.o.-.G & .               o g E.4Xx h D c D Z x ^ ^ :.$.$.A j ",
"P.P.n.n.v.8.5.5.5.8.x.x.x.x.x.x.c.c.8.W w D U.X.T L L W L L L I E E E E { | 7.p.h.C.[.oX6X6X;XoX{.[.].XXXXXXXX.XR.] N ' { 7.6.8.w.A.A.A.Z.m.g.0.7.7.] 7.].XXXXXXoX6X6X6X6X6X;X;X;X{.`.A.C.h.k.s.r.+.O.C H 0 .           8 G B D <.+XZ x Z Z ..F Z ..Z ....o.X.` ",
"c.x.8.8.x.x.x.x.c.v.v.c.c.v.v.v.v.c.8.e.a D :.Y U L L W L L E E I E E E { | 7.p.k.C.(.[.oXoXoX{.{.{.XXXXXXXXXX.XY.N M E ] ] 6.y.h.A.S.`.A.m.w.0.7.7.] ] ].XXXXXXoX7X7X8X8X9X;X;X;X{.`.(.C.h.l.s.r.+.X.B * H G & & 6 & 8 ;.;.-.D $.:.s h Z Z O.$...^ ^ O.O.o.H.W.",
"v.v.v.c.v.c.c.c.c.c.c.c.c.c.c.x.c.c.8.s.l D :.K K L L L L I L L I E E E { | 7.p.k.V.^.`.[.{.{.{.{.oXXXXX.X.X.X.Xs.M M ' ] ] 6.g.m.A.`.{.`.Z.h.q.0.7.] N ].XXXXXXoX7X8X8XqX8X9X6X;X{.]./.l.h.k.p.#.+.X.B & & 8 / =.;./ G C C D d $ p = p p = h D $...$.^ D S &.H.",
"n.n.v.c.c.c.c.c.c.c.c.c.c.v.c.x.x.c.8.K.Y F E.Y K L L L L L L L L L E E { | 7.p.g.l.C.(.`.[.{.{.oXoXXXXX].)..X).{ M ' 7.7.6.6.h.(.{.{.;X{.A.m.g.0.6.6.] s.XXXXXXoX7XyXyXqX8X7X6X;X{.`./.l.g.g.i.| +.X.B & & % & 0 =.=./ ( C D V p p $ + o o o = H F ..Z s @ X.a.",
"v.v.v.v.n.n.n.c.c.c.c.c.c.c.x.x.u.x.8.|.+.F E.Y K L L L L L L L L L E W { { 7.i.s.l.C.(.`.[.{.oX;X7X2XXX]..X).K.] { r.s.7.6.q.C.{.;X;X6X;X{.C.w.y.0.6.6.6.XXXX[.oXtXyXyXqX8X7X6X;X{.`.`.C.g.g.7.| [ X.B & & & % X > G / ( H d D f q @ o o o o o o o + o o a &.J.",
"n.n.n.n.n.n.n.c.v.c.c.c.x.x.x.u.u.x.8.|.+.D E.T K L L L L L L L L L E W [ { | 7.p.k.V.^.`.[.oX6X7X7X7XXX.X).R.s.{ p.k.k.p.0.h.].;X8XqXqXqX;XA.h.q.h.h.0.6._..X_.XX7XyXyXqX9X8X8X6XoX`.`.(.h.g.7.| [ X.B & & & % % . . 8 -.D y A +.P l t r + o o o + $ s Y H.T.K.",
"n.n.n.n.n.c.v.v.v.c.c.x.x.x.x.u.x.x.8.|.+.Z E.Y J J J L L W R { a.a.W E [ { | 7.p.k.V.Z.`.[.oX6X7X7XtXXX].).).s.p.K.Y.^.j.g.C.[.8XuXpXsXaX6X`.Z.m._.(.^.g.^.XX].[.oXtXyXyXqX8X8X6XoX[.].(.l.p.7.| [ X.B & & % % % X . . O + y f J..XQ.J.J.&.X.` +.&.>.H.J.J.K.K.",
"n.n.n.c.v.v.c.v.v.v.c.x.x.c.c.x.x.x.8.|.+.Z E.Y L W e.G.R.K.K.K.J.+.E E [ [ | 7.i.g.l.C.(.[.oX6X8XtXtXXX].).).s.k._.[.].l.l.(.6XuXsXaXvXvXqX{.S.A.[.[.].m.^.tXXXXXoXtXyXyXqX8X7X6XoX[.(.(.C.p.9.+.[ X.B & & % % % % X . O + y t U R.K.K.G.t.r.r.s.J.J.J.J.T.T.T.",
"n.n.n.v.v.v.v.v.v.v.v.v.c.c.x.x.x.x.8.|.#.A E.>.Q.W.K.G.G.e.W I I E E E [ [ [ | i.s.l.C.(.[.oX7X8XtXtX2X.X]..Xk.l.[.7X;X(.C.[.8XuXsXsXvXvXuX*X*X;XyXyX;X`.C.oX2XoXtXtXtX7X8X8X6X6X;X[.(.(.^.s.i.| [ X.B + & & % % % X . O O y t t [ K.s.s.s.i.s.s.f.f.f.f.K.K.K.",
"n.n.n.v.v.v.x.v.z.v.x.v.v.M.P.%X-X:X:X#X+.A H.T { { { [ [ +.+.+.%.+.[ E [ [ [ | i.s.k.C.(.[.6X7X8XtXtXtXXXXXXXk.^.oXtXyXoX`.{.8XuXaXaXsXsXpX9X6XqXpXaXuXoXC.7XtXtXtXtXtX7X7X7X6X6X;X[.(.(.^.p.r.| [ X.d + & & % % % % % % O d t e z G.s.s.s.s.k.k.f.f.s.s.s.a.a.",
"M.n.n.v.v.v.x.v.M.N.-X>X>X<X>X>X:X-X'.XX+...H.Y +.a.a.H.J.E.E.E.E.E.+.[ ` ' [ | r.s.k.C.(.[.oX6X7X8XtXtXtX2XXXV._.oX7X7X{.(.[.6XuXuXuXpXuXqX;X{.;XuXaXuXoX(.oXtXtXtXtXtX7X7X7X6X6XoX[.(.(.^.p.r.+.[ ..d + & & % % % % % . O d t t e W G.s.a.s.a.d.a.d.d.J.T.T.T.",
"M.N.N.N.%X>X>X>X>X>X>X&X%X%X%X'.'.'./.|.` E.:.%.W.U.>.o.Q F g & * E.+.[ T _ [ | r.s.k.^.(.[.oXoX7X8XtXiXtXtXXX^.].[.[.[.[.C.h.oXqXqXqXqXqX6X[.[.oXoX7XyXoX(.XXtXiXtXtXtX7X7X7X6X;X{.[.(.^.^.s.7.} +...d + + % % % % % % . O y t t t j +.H.E.!.+X+X+X!.E.<.H.J.G.",
":X>X>XyX>X>X=X=X=X&X&X&X:X:X:X#X2XiXiX@X) $.O.S Z * + o o o o   o :.&.I I _ [ +.r.s.k.C.(.[.{.6X7XtXtXiXtXtXXX_._.(.[.7X7X].B.(.oX6XoX6X6X[.oX8XtXoX(.(.(.^.[.tXtXtXtXtX7X7X7X6XoX{.[.].^.V.k.7.@.+...d + + & % % % . . . % d r t t q f H H 8 8 0 8 8 8 < B K n ",
">X>X=X=X=X>X>X>X>X>X>X>XpXxXzXgXBXCXNX1.< C ( , * o o o + + + O 1 ;.>.T T ` [ { #.i.k.V.(.[.oXoX;X7XtXtXtXtXXX_.^.^.].[.l.p.V.].[.].`.`.XX2X7X].h.k.l.k.h.V._.(.oX2X2XtX7X2XoX;X{.[.[.(.C.l.s.r.+.+...d + + & % % % % % . % 1 r t t t = & & % & 5 7 7 7 8 V L L ",
"rX,X=XrXrXrXrXrXrXrXrXpXzX;.( H 3X3X3X1X$.OX4XD < O * B H :.-.;.( O.U.T T ` [ [ #.i.f.l.^.].[.oXoX7XoXoXoXXX].).Y.l.g.0.7.7.k.).2XtXtXtXtXtXXXY.7.7.p.k.B.V.Y.B.Y.XX].XXXXoX{.oX[.(.(.(.V.k.p.r.+.+.Q = + & % % % % % % . % 1 r t t t = & & 5 5 7 7 7 7 8 D W R ",
"rXrXrXrXrXrXrXrXrXrXpXpXzX;.( 2.bXfX4XkX1XlXbX-.-.OXOX;.( -.:.!.E.( E.` _ _ [ [ +.i.p.k.^.(.[.{.oXoX[.[.].).).Y.Y.k.s.i.7.7.d.f.XXtXiXXXXXXX.XR.p.k.k.Y.Y.Y.Y.Y.).).).).XXXX[.[.(.(.^.(.l.k.i.#.+.X.Q = + + % % % % % % . % 1 p t t t = & 5 5 7 7 7 7 7 8 Y W R ",
"rXrXrXrXrXrXrXrXrX0X>XyXzX;.<.nXBXcX4XOX0 / / ( 4XfXOX;.:.;.<.<.<.H E.X.I _ ` [ +.r.p.k.V._.].[.[.]._._.).).Y.Y.K.K.s.i.| } a.U..X5X.X)..X.XR.R.J.f.Y.Y.f.R.R.R.Q.R.Y.R.).XX].(.(.^.^.^.l.k.i.#.+.X.Y = + + % % % % % % . % 1 r t t a = & 5 7 7 7 7 7 7 8 Q R R ",
"rXrXrXrXrXrXrX=X=X=X>XyXzXE.gXNXNXxXgX+X-.G > / <.-.( -.OX<.;.<.<.-.E.T I I ` [ +.#.p.k.B._.).^.^.^.Y.).).Q.f.f.J.J.H.&.#._ _ @.a.~.U.W.U.&.a.H.H.J.H.d.a.U.W.W.W.W.R.Y.Y.^._.^.C.C.C.V.l.s.i.#.@.X.F = + + % % % % % % . % 1 t t t t r % 3 7 7 7 7 7 5 8 ! 4.4.",
"rXrXrXrXrXrXrX=X=X=X>XyXiXgXVXVXCXxXgXnXfX=.> G 0 G =.-.<.;.;.<.<.1.:.Y I I ` [ | #.i.f.k.Y.Y.Y.B.k.Y.Y..XQ.J.J.H.&.@.) ) A c X.Y %.%.>.&.@.) ` v X.` @.} U.W.T.W.W.R.k.f.B.Y.V.B.V.l.k.k.k.a.#.@.X.A + + + % % % % % . . % 1 t t t t = % 5 7 7 7 7 7 6 B ! 4.4.",
"rXrXrXrXrXrXrX=X=X=X>XuXiXxXCXCXFXNXbXGXfXG > 0 =.=.2.OX2.-.H C < & O A E I _ [ [ #.i.s.k.k.k.k.k.k.Y.R..XQ.J.@.` ) Z D F p $ D Z Z :.Z S F A S h l A X.%.>.>.>.H.T.Q.Y.f.f.B.B.l.h.k.k.j.s.t.#.@.o.V + + & & % % % % % . % 1 t t t p = % 5 7 7 7 7 7 6 C e.5.4.",
"rXrXrXrXrXrXrXrX=X=XqXiX5XgXVXCXnX3X3XjXOX2.OXOX2.,.=.G > O O & & % & D [ ` _ [ [ | i.p.p.f.f.s.p.p.Y.Q.Q.U.%.F ^ Z s p D , , D h s O.Z s h h Z h s h ..o.%.:.) %.H.Q.R.f.f.f.k.k.k.k.j.s.s.t.#.+.o.f + & & % % % % % % . & 1 t t t r = % 5 7 7 7 7 7 6 D e.5.8.",
"rXrXrXrXrXrXrX0X0X:X'.XX5XjXBXmXjX3XOX<.,.=.0 9 5 X : : > & % % & X O S +.` _ [ [ | | 9.9.i.p.i.i.i.R.~.&.@.o.D Z D g # x , g D s s F D s p Z s h s d Z Z ) >.) Y @.T.Q.f.p.p.k.k.k.g.s.s.s.t.#.+.X.r + & & % % % % % % . & 1 t a t r = % 5 7 7 7 7 5 : D e.8.y.",
"rXrXrX0X=X%XS.b.3.3.3.j.+XOX2.=.G 0 6 : : 5 : 5 5 5 5 5 : : : - - X O S +.` _ [ } } | | 9.9.i.7.9.d.Q.H.) o.Z g h C , ; 1 g Z ..Z q f l f S ..F c p a l l c ) %.Z f @.W.T.s.7.p.k.g.g.s.i.s.a.#.o.U + + & & % % % % % % . & 1 t t t p = % 5 7 7 7 7 5 > Q 6.6.t.",
">X%XN.z.8.3.3.3.4.5.8.6.r & & & 6 6 6 6 6 6 6 6 5 5 5 : : : - - - X O F +._ ` [ } } | | | | | | i.T.U.S ...., g g g , g s D $.U.:.l k A @.W.+X~.H.o.A v v A S o.o.h c U.W.f.| 7.k.p.p.s.i.a.a.#.o.V + + & % % % . . % . . & 1 t t t t = % 5 7 7 7 7 5 < Q 4.m n ",
"M.z.z.z.x.P.8.4.4.5.u.8.t * > 6 6 6 6 6 6 6 6 6 5 : : : : : - - - - O F #.[ [ [ [ } } | | | | | i.T.U.F F g , x g s Z ^ $.:.E.~.~.U.H.H.@X4X@X@X@X~.U.&.+.o.Y A S F b &.W.J.i.| f.f.s.p.i.i.&.#.o.f + + & & % % . . . . . & 1 t w t a = % 5 7 7 7 7 5 < +.8.5.e.",
"n.c.v.n.n.L.x.u.5.8.x.u.f & > > 6 6 5 5 5 6 6 6 : > > : : : - - - - O Y t.e.{ [ } } } } | | | | a.Q.U.c Z x g Z ^ F o.:.>.U.E.W.~.5X5X5X@XW.W.Q.Q..X.XQ.T.J.+.Y l c F ) T.T.i.9.p.k.k.p.i.i.&.#.X.r + + & & % % . . . . . & 1 t w t p = % 5 7 7 7 7 5 < t.u.y.e.",
"v.v.v.v.n.n.c.x.8.x.M.M.n & > > 6 6 5 5 5 5 5 : : > > : : : : : > - O Y G.t.{ [ } } } } } | | | a.U.@.x g g D O.:.:.>.>.H.U.T.T.U.T..X@XQ.T.W.Q.W.W.Q.W.R.W.U.H.%.F c S U.Q.d.9.i.f.f.p.i.i.&.+.Y @ + + & & % % . . . . . % 1 r t t t = & 5 5 7 7 7 5 g j.L.t.t ",
"v.v.v.v.v.v.c.x.x.n.'.%XR & > > 6 5 : : : : : : : > > : > > > > > O ; X.K.K.t.+.X.} } } } | | #.d.T.>.h s C $.:.>.>.>.H.J.U.W.T.T.U..X.XW.W.~.Q.R.R.T.K.J.T.U.E.E.%.c S E.Q.d.9.9.f.s.p.i.a.&.%.A @ + + & & % % . . . . . % = r t t a = & 6 7 7 5 5 & C L.L.` # ",
"M.n.v.v.v.n.n.n.n.M.%X-Xy.* > > 5 5 : : : : : : > : : : : > > > > > ; ..J.K.G.#.X.X.@.@.@.} | #.f.W.%.h D O.:.>.H.>.>.H.J.J.T.W.T.T.@XR.R.~.~.Q.Q.R.T.s.a.d.H.H.H.%.O.o.U.~.f.p.0.f.f.p.i.a.#.+.V @ + + & % % % . . . . . % = r t t a = & 5 7 7 5 5 & S './.w O ",
"M.M.M.M.M.M.M.M.M.N.-X&XL.= > : 5 : : : : : : : : : : : : : > > > & =.fXzXxX5X%.@.@.@.@.@.} } #.U.W.o.c ) $.:.>.>.&.H.J.J.K.K.T.K.J.@X|.T.Q.Q.W.W.T.J.s.a.+.@._ X.%.^ o.U..Xk.k.k.f.f.a.a.a.#.+.S = + + + O % . . . . . . % = t t t r = % 5 7 7 5 5 & ` S.'.M O ",
"N.N.N.N.N.N.M.M.M.N.%X&X'.p > : 5 : : : : : : : : : : : : > > % X =.fXjXcXnXxXH.%.@.@.@.@.@.#.#.U.~.o.h F o.o.X.%.&.H.J.J.K.J.T.K.J.#X.XR.Y.T.R.T.K.J.J.a.#.[ P v ..b S >.~.Y.k.k.f.f.a.a.a.a.+.Y = + + + O % . . . . . . % 1 a t t p = % 5 5 5 5 5 & } S.S.k.q ",
"N.N.N.N.N.N.M.M.M.N.%X&X%Xk & : 5 : : : : > > : : : : : > > > > =.fXdXfXjXgXgX+X%.@.@.@.@.@.#.&.U.W.) S o.%.X.T +.&.&.>.G.a.G.K.K.|.#X XK.K.K.R.K.J.J.a.#.[ L ` @.>.) l &..XR.Y.k.f.f.a.a.a.a.G.Y = + + + O % . . . . . . % 1 a t t r = % 5 5 5 4 4 & a.S.S.[.| ",
"N.N.N.N.N.N.M.M.N.%X&X&X&XL & : 5 : : : : > > : : : > : =.3X3XdXkXdX3XfXfX4X4X+X>.%.%.@.@.@.&.a.T.W.) Y U.U.&.X.T T Q +.! ! e.t.y.|. X|.L.y.y.K.K.t.a.a.+.E E #.J.W.>.c X.~.Q.Y.k.f.d.a.a.a.a.+.Y s + + + & % . . . . . . . 1 p t t r = & 3 5 4 4 2 & d.S.D.S.^.",
"N.N.N.N.N.z.z.z.$X&X&XF.&X! & : 5 : : : : > > : : 6 > =.lXmXmXjX3XOX3X4XOX!.E.:.:.:.%.@.@.&.&.a.U.W.X.o.E.T.a.+.T T T T T { G.L.K.L.u.L.I.I.L.L.K.t.e.a.+.[ #.J.T.Q.U.v v U.Q.R.Y.f.d.&.&.&.T.W.X.p + + + & % % . . . . . % 1 p t t r 1 & 3 5 4 4 2 & d.S.S.S.(.",
"M.z.z.z.z.z.N.D.F.F.F.F.&Xu.* : 5 5 : : 5 : > > > 6 / jXAXFXbX<.;.OXOX<.;.;.H B ) :.%.%.%.%.&.H.T.E.Y %.U.U.d.#.#.@.[ T +.#.K.|.|. XL.|. X X|.).K.K.r.s.#.#.s.T.Q.Q.W.&.b H.W.R.T.d.a.&.&.>.gXxXfX<.g + + O & % % . . . . % d r r r p * & 3 5 5 2 3 8 J._.(._.^.",
"z.N.N.N.N.D.F.F.F.F.&XF.=X/.= 5 5 5 : : : > > : > 0 dXAXSXFX3X-.3XjX=.B G H D B $.:.:.%.%.%.&.H.T.>.S X.U.R.T.d.a.&.#.#.a.a.|. X|. X X X X X|.|.K.K.s.s.r.s.Y.Q..X@XU.>.X.H.W.U.f.d.&.&.:.!.nXbXbXbXfX;.H B + O % % . . . & 1 r r r p * & 3 4 5 2 3 8 %.H.#.@.@.",
"N.D.D.F.&X&X&X=X=X,X,X,X,X=Xf : 5 : : : : : > > 0 dXBXFXGXbX<.fXmXjXH G H Z B F U.) :.:.%.%.&.H.U.>.) %.T.Q.R.K.d.a.a.d.J.K.#X|.L. X X#XXX X#X|.|.R.k.s.k.K.Y..X.X@XU.@.@.U.T.U.d.&.&.&.:.o.xXmXbXbXmXbXfX3X<.G & % % . . & 1 d p p 1 * & 3 2 4 2 3 < H Y F F F ",
"F.=X,X,X,X,X,XwXwXwXwXwXwXrXK : 5 : : > 6 6 > G dXNXAXGXGXjX3XbXBXjXH H H Z g :.!.Z :.:.:.%.:.>.H.&.S &.W.Q.Q.Y.f.a.a.a.J.K.K.K.|. X X#X#XXX#X|.|.R.Y.Y.K.Y.)..XXX.XH.X.@.>.U.U.d.&.%.>.:.s +XBXmXmXmXmXbXbXlXfX;.8 % . . & 1 1 1 1 1 * & 3 2 2 2 2 8 H H H H H ",
",XeXeXeXeXwXwXwXwXwXwXwXwXrX[ > : : 6 6 6 : 0 dXmXAXGXJXGXfXxXVXAXxXH H D Z h >.>.c o.:.:.:.:.>.H.>.) @.T.R.Q.Y.f.K.J.a.J.K.T.R.#X#X X#XtXtX#X|.|.R.R.).^._.)..XXX.XU.S ) &.U.U.>.&.>.U.o., O.NXBXNXNXmXNXNXNXBXbXdX=.& . & < * = = = * & 3 2 2 2 2 8 H H H H H ",
"wXwXwXwXwXwXwXwXwXwXwXwXwXrX#.& > > > > > 8 OXAXFXGXJXKXFXfXBXAXFXxXD H D Z Z E...x F :.>.:.:.>.>.&.) o.U.T.Q.Y.Y.R.R.f.U.T.Q..X#X#X#X#X5XtX#X#X.XQ.R.).)._._.]..X~.W.o.) %.>.U.>.&.:.U.%.x C jXFXBXBXNXNXBXAXAXAXBXlX2.0 & * * * 1 1 < & & 3 2 2 3 8 H H H H H ",
"wXwXwXwXwXwXwXwXwXwXwXwXrX0Xi.* > : > > 8 OXmXGXKXKXPXPXBXfXFXGXGXxXZ F D Z ) +X) Z F ..U.>.:.>.>.%.) o.&.Q.Q.R.R.Y.Y.f.f.R.Q..X#X5X5X#X5X5X5X#X.XR.R..X].^.).].Q.J.&...^ %.%.>.>.&.:...%.Z Z 4XFXSXSXSXBXNXAXFXFXSXAXNXfX;.8 * * < < < & & 3 2 2 3 0 H H D H H ",
"wXwXwXwXwXwXwXwXwX,X=X=X&X=XK.= * * * G 3XmXGXPXPXPXIXIXBXxXJXJXKXbXZ F D Z F ~.) F ....%.>.:.:.:.%.S b @.W.W.R.Q.Y.K.a.i.J.Q..X@X@X@X.X@X.X@XQ.Y.Y.)..X].).].XX).&...^ x %.:.>.>.>.>.Z %.D x OXGXGXGXFXAXBXBXAXFXGXFXAXNXlXOX( < * < < & & & 2 2 5 0 G D D H H ",
"eXwXwXwXwXwX,X=XF.D.F.&X&X>X XB * = -.fXmXJXPXIXIXIXIXIXmXbXPXKXKXmXH F S A Y +X) Z F ....:.>.:.:.:.^ Z o.U.U.T.W.Q.K.i.| | ' #.d.J.H.H.H.H.a.+.| Y.).).).).)..XT.@.^ D D $.>.U.U.U.$.c O.F x <.KXKXJXGXFXAXAXAXAXAXSXFXGXFXAXbXOXC * & & & & 5 2 6 G G D D H H ",
"eXwX,X=X&XF.D.&X&X>XrX<X>X-X|.k B E.jXbXFXPXPXIXIXIXIXIXNXmXPXPXPXBX( Y F S X.+XF F F ....o.:.:.:.:.( D ^ $.>.E.U.T.U.f.| I I z k v k z b P [ I } f.R.].).).T.Q.U...D D ..-.:.>.U.>.) c o.F Z 1.KXKXKXKXGXSXAXAXSXAXNXmXAXSXSXSXAXfX/ & & & 5 3 4 6 G H H H H H ",
"F.F.F.F.=X,X>X<X>X-X%XP.P.I.K.+.4XcXnXFXKXKXIXUXUXUXUXIXBXBXPXPXPXAXO.Y Y b } 3XS F F ) ..X.:.:.:.:.( C B D -.;.%.H.U.R.f.d.J.&._ @.b P ` M | | | k.Q..XQ.Q.&.&.%.D g g O.-.:.>.>.%.) c ..^ D <.KXPXPXKXJXFXAXFXFXFXAXmXmXBXBXmXbXBXjX2.G & 5 6 6 8 G H H H H H ",
"=X>XrXrX>X&X&X%X$XP.P.I.I.I.#XzXnXnXFXKXKXPXIXUXUXUXUXUXAXAXIXIXPXGX;.Y _ ) &.5Xb S S ) ..X.o.:.:.;.$.C 1 B C ^ ..o.U.Q.Q.Q.Q.T.U.~.a.} H.J.T.Q.Q.Q..X.XT.U.} o.^ C 1 < ^ ;.:.:.:.$.) S X.) S <.KXIXPXPXKXFXFXFXFXGXFXAXNXBXSXSXmXlXmXlXdX=.8 6 8 8 G G ( ( H C ",
">X&X%X%X$X$X$X$X$XP.P.I.K.#XzXcXVXGXKXKXKXKXIXUXUXUXUXUXDXDXUXIXIXJX:.Y ` _ &.2Xb S S ) ..X.X.%.:.:.-.1 < 1 B D H F &.T.W.W.Q.Q..X5X.XU.U.T.R..X.X.X.X.XH.X.F ..C B 1 < ( ;.:.:.%.O.) S o.) D 1.KXIXPXPXKXJXGXGXGXJXJXGXAXNXBXFXGXBXbXNXNXlXdX=.6 6 G H H H G B ",
"$X$X$X$X$X%X%X%X$XP.L.L.|.zXnXFXKXKXKXPXKXKXIXUXUXUXUXUXJXDXUXUXUXPX!.) } } } .XM b S ..X.` X.o.:.-.O.< < < < C B B D &.T.W.R.Q.W.@X@X~.R..X.XQ.).)..XQ.@.X.S D C 8 < & H -.:.-.$.o.) b o.X.^ <.KXIXIXPXKXKXJXJXJXJXKXKXFXBXmXBXFXSXNXBXSXSXAXjX2.0 8 G H B B B ",
"-X%X$X$X$X$X$X%XP.L.L.|.zXnXGXKXPXPXPXPXKXPXUXUXUXUXUXUXLXDXUXUXUXIX3XX.@.} } .X_ b S ..` ` X.X.%.:.-.< > > > < < C F X.>.H.U.H.a.Q..XW.U.R.R.J.T.Q.Q.H.` o.Z 1 0 8 > > D -.:.$.O.o.) b } o.) <.KXIXIXIXKXKXKXKXKXJXKXKXKXFXNXmXAXAXBXNXFXJXGXAXmXfX;.G =.H C 8 ",
"%X%X$XP.P.P.P.P.I.L.|.zXnXGXKXPXPXPXPXKXKXPXUXUXUXUXUXUXLXDXUXUXUXUXfXo.@.#.} .X_ b S ) ` X.X.o.o.%.:.C < & > < * 8 H ^ $.@.} @.@.&.&.@.&.U.U.d.d.W.H.@.o.F B < > > < > C ;.:.%.O.o.) b &.o...<.KXIXIXIXPXKXKXKXKXKXKXPXKXJXSXNXBXAXAXNXAXGXGXFXAXmXjX<.G H G 8 ",
"$XP.P.P.P.P.P.I.I.#XzXnXFXKXPXIXIXPXPXPXPXIXUXUXUXUXUXUXUXLXUXUXUXUXjXo.+.#.} .X} P S ) ` X.o.@.@.%.:.( > > > < < < B ( $.$.F } ` @.%.%.H.Q.U.T.&.U.) ) O.C B 8 & > 8 * C :.:.%.O.o.) b &.o.o.<.KXIXIXIXPXKXKXKXKXKXKXPXPXPXJXAXBXAXAXAXAXAXAXAXmXbXbXlX;.& 8 G "
};
