/* XPM */
static char *f172975a81874973c5987d93d4e5f436CCbaryG2b4kckBT2[] = {
/* columns rows colors chars-per-pixel */
"348 503 21 1 ",
"  c #DCDBD9",
". c #CFBFB9",
"X c #BBB5B8",
"o c #CAB3A7",
"O c #180F11",
"+ c #D2C9C6",
"@ c #E3E3E4",
"# c #EFEFEF",
"$ c #D7D2D0",
"% c white",
"& c #A29896",
"* c #B3A7A3",
"= c #3B2527",
"- c #7E5D55",
"; c #928789",
": c #999AB4",
"> c #61413E",
", c #CE9D93",
"< c #9A6C64",
"1 c #B8867D",
"2 c #7B7EA5",
/* pixels */
"%%%%%%%%%%%%%%%###############%%%%%%%%%%%%%%%###############%%%%%%%%%%%%%%%###############%%%%%%%%%%%%%%%###############%%%%%%%%%%%%%%%###############%%%%%%%%%%%%%%%###############%%%%%%%%%%%%%%%###############%%%%%%%%%%%%%%%###############%%%%%%%%%%%%%%%###############%%%%%%%%%%%%%%%###############%%%%%%%%%%%%%%%###############%%%%%%%%%%%%%%%###",
"%%%%%%%%%%%%%%%###############%%%%%%%%%%%%%%%###############%%%%%%%%%%%%%%%###############%%%%%%%%%%%%%%%###############%%%%%%%%%%%%%%%###############%%%%%%%%%%%%%%%###############%%%%%%%%%%%%%%%###############%%%%%%%%%%%%%%%###############%%%%%%%%%%%%%%%###############%%%%%%%%%%%%%%%###############%%%%%%%%%%%%%%%###############%%%%%%%%%%%%%%%###",
"%%%%%%%%%%%%%%%###############%%%%%%%%%%%%%%%###############%%%%%%%%%%%%%%%###############%%%%%%%%%%%%%%%###############%%%%%%%%%%%%%%%###############%%%%%%%%%%%%%%%###############%%%%%%%%%%%%%%%###############%%%%%%%%%%%%%%%###############%%%%%%%%%%%%%%%###############%%%%%%%%%%%%%%%###############%%%%%%%%%%%%%%%###############%%%%%%%%%%%%%%%###",
"%%%%%%%%%%%%%%%###############%%%%%%%%%%%%%%%###############%%%%%%%%%%%%%%%###############%%%%%%%%%%%%%%%###############%%%%%%%%%%%%%%%###############%%%%%%%%%%%%%%%###############%%%%%%%%%%%%%%%###############%%%%%%%%%%%%%%%###############%%%%%%%%%%%%%%%###############%%%%%%%%%%%%%%%###############%%%%%%%%%%%%%%%###############%%%%%%%%%%%%%%%###",
"%%%%%%%%%%%%%%%###############%%%%%%%%%%%%%%%###############%%%%%%%%%%%%%%%###############%%%%%%%%%%%%%%%###############%%%%%%%%%%%%%%%###############%%%%%%%%%%%%%%%###############%%%%%%%%%%%%%%%###############%%%%%%%%%%%%%%%###############%%%%%%%%%%%%%%%###############%%%%%%%%%%%%%%%###############%%%%%%%%%%%%%%%###############%%%%%%%%%%%%%%%###",
"%%%%%%%%%%%%%%%###@###@###@###%%%%%%%%%%%%%%%###@###@###@###%%%%%%%%%%%%%%%###@###@###@###%%%%%%%%%%%%%%%###@###@###@###%%%%%%%%%%%%%%%###@###@###@###%%%%%%%%%%%%%%%###@###@###@###%%%%%%%%%%%%%%%###@###@###@###%%%%%%%%%%%%%%%###@###@###@###%%%%%%%%%%%%%%%###@###@###@###%%%%%%%%%%%%%%%###@###@###@###%%%%%%%%%%%%%%%###@###@###@###%%%%%%%%%%%%%%%###",
"%%%%%%%%%%%%%%%###############%%%%%%%%%%%%%%%###############%%%%%%%%%%%%%%%###############%%%%%%%%%%%%%%%###############%%%%%%%%%%%%%%%###############%%%%%%%%%%%%%%%###############%%%%%%%%%%%%%%%###############%%%%%%%%%%%%%%%###############%%%%%%%%%%%%%%%###############%%%%%%%%%%%%%%%###############%%%%%%%%%%%%%%%###############%%%%%%%%%%%%%%%###",
"%%%%%%%%%%%%%%%###############%%%%%%%%%%%%%%%###############%%%%%%%%%%%%%%%###############%%%%%%%%%%%%%%%###############%%%%%%%%%%%%%%%###############%%%%%%%%%%%%%%%###############%%%%%%%%%%%%%%%###############%%%%%%%%%%%%%%%###############%%%%%%%%%%%%%%%###############%%%%%%%%%%%%%%%###############%%%%%%%%%%%%%%%###############%%%%%%%%%%%%%%%###",
"%%%%%%%%%%%%%%%###############%%%%%%%%%%%%%%%###############%%%%%%%%%%%%%%%###############%%%%%%%%%%%%%%%###############%%%%%%%%%%%%%%%###############%%%%%%%%%%%%%%%###############%%%%%%%%%%%%%%%###############%%%%%%%%%%%%%%%###############%%%%%%%%%%%%%%%###############%%%%%%%%%%%%%%%###############%%%%%%%%%%%%%%%###############%%%%%%%%%%%%%%%###",
"%%%%%%%%%%%%%%%#########@#####%%%%%%%%%%%%%%%#########@#####%%%%%%%%%%%%%%%#########@#####%%%%%%%%%%%%%%%#########@#####%%%%%%%%%%%%%%%#########@#####%%%%%%%%%%%%%%%#########@#####%%%%%%%%%%%%%%%###############%%%%%%%%%%%%%%%#########@#####%%%%%%%%%%%%%%%#########@#####%%%%%%%%%%%%%%%#########@#####%%%%%%%%%%%%%%%#########@#####%%%%%%%%%%%%%%%###",
"%%%%%%%%%%%%%%%###@###########%%%%%%%%%%%%%%%###@###########%%%%%%%%%%%%%%%###@###########%%%%%%%%%%%%%%%###@###########%%%%%%%%%%%%%%%###@###########%%%%%%%%%%%%%%%###@###########%%%%%%%%%%%%%%%###@###@###@###%%%%%%%%%%%%%%%###@###########%%%%%%%%%%%%%%%###@###########%%%%%%%%%%%%%%%###@###########%%%%%%%%%%%%%%%###@###########%%%%%%%%%%%%%%%###",
"%%%%%%%%%%%%%%%############@##%%%%%%%%%%%%%%%############@##%%%%%%%%%%%%%%%############@##%%%%%%%%%%%%%%%############@##%%%%%%%%%%%%%%%############@##%%%%%%%%%%%%%%%###############%%%%%%%%%%%%%%%###############%%%%%%%%%%%%%%%############@##%%%%%%%%%%%%%%%############@##%%%%%%%%%%%%%%%############@##%%%%%%%%%%%%%%%############@##%%%%%%%%%%%%%%%###",
"%%%%%%%%%%%%%%%######@########%%%%%%%%%%%%%%%######@########%%%%%%%%%%%%%%%######@########%%%%%%%%%%%%%%%######@########%%%%%%%%%%%%%%%######@########%%%%%%%%%%%%%%%######@#####@##%%%%%%%%%%%%%%%###############%%%%%%%%%%%%%%%######@########%%%%%%%%%%%%%%%######@########%%%%%%%%%%%%%%%######@########%%%%%%%%%%%%%%%######@########%%%%%%%%%%%%%%%###",
"%%%%%%%%%%%%%%%###############%%%%%%%%%%%%%%%###############%%%%%%%%%%%%%%%###############%%%%%%%%%%%%%%%###############%%%%%%%%%%%%%%%###############%%%%%%%%%%%%%%%###############%%%%%%%%%%%%%%%#%#%#%#########%%%%%%%%%%%%%%%###############%%%%%%%%%%%%%%%###############%%%%%%%%%%%%%%%###############%%%%%%%%%%%%%%%###############%%%%%%%%%%%%%%%###",
"%%%%%%%%%%%%%%%###############%%%%%%%%%%%%%%%###############%%%%%%%%%%%%%%%###############%%%%%%%%%%%%%%%###############%%%%%%%%%%%%%%%###############%%%%%%%%%%%%%%%###############%%%%%%%%%%%%%#@XXX+#  %%%%%%%%%%%%%%%%%%%%%%%###############%%%%%%%%%%%%%%%###############%%%%%%%%%%%%%%%###############%%%%%%%%%%%%%%%###############%%%%%%%%%%%%%%%###",
"###############%%%%%%%%%%%%%%%###############%%%%%%%%%%%%%%%###############%%%%%%%%%%%%%%%###############%%%%%%%%%%%%%%%###############%%%%%%%%%%%%%%%###############%%%%%%%%%%%%%%%##%%%#$;-;--=OOOOOOOOO=>>-;X@ @%%%###########%%%%%%%%%%%%%%%###############%%%%%%%%%%%%%%%###############%%%%%%%%%%%%%%%###############%%%%%%%%%%%%%%%###############%%%",
"###############%%%%%%%%%%%%%%%###############%%%%%%%%%%%%%%%###############%%%%%%%%%%%%%%%###############%%%%%%%%%%%%%%%###############%%%%%%%%%%%%%%%###############%%%%%%%%%%%%%%%#% ->=OOOOOOOOO=O=OOOO=OOOOOOOO-X$%%%%%######%%%%%%%%%%%%%%%###############%%%%%%%%%%%%%%%###############%%%%%%%%%%%%%%%###############%%%%%%%%%%%%%%%###############%%%",
"###############%%%%%%%%%%%%%%%###############%%%%%%%%%%%%%%%###############%%%%%%%%%%%%%%%###############%%%%%%%%%%%%%%%###############%%%%%%%%%%%%%%%###############%%%%%%%%%%%%%X=O=OOOOO==O=OOOO=OO=O=O==OO=>==OOOO=*$+@%%####%%%%%%%%%%%%%%%###############%%%%%%%%%%%%%%%###############%%%%%%%%%%%%%%%###############%%%%%%%%%%%%%%%###############%%%",
"###############%%%%%%%%%%%%%%%###############%%%%%%%%%%%%%%%###############%%%%%%%%%%%%%%%###############%%%%%%%%%%%%%%%###############%%%%%%%%%%%%%%%###############%%%%%%%%#X&-OOOOOOO==O==O===OO==OOO=OO=OOO=O=OOOOOOOOO- %%##%%%%%%%%%%%%%%%###############%%%%%%%%%%%%%%%###############%%%%%%%%%%%%%%%###############%%%%%%%%%%%%%%%###############%%%",
"###############%%%%%%%%%%%%%%%###############%%%%%%%%%%%%%%%###############%%%%%%%%%%%%%%%###############%%%%%%%%%%%%%%%###############%%%%%%%%%%%%%%%###############%%%%%#;=OOOOOO====O======OO=OOO==OOOOOOOOOO=OOOOOOOOOOOO=X%%%%%%%%%%%%%%%%%###############%%%%%%%%%%%%%%%###############%%%%%%%%%%%%%%%###############%%%%%%%%%%%%%%%###############%%%",
"###@###@###@###%%%%%%%%%%%%%%%##@###@###@####%%%%%%%%%%%%%%%##@###@###@####%%%%%%%%%%%%%%%##@###@###@####%%%%%%%%%%%%%%%##@###@###@####%%%%%%%%%%%%%%%##@###@###@####%%%%&OOOOOOOO=>=OOOOO=OO=OO=OOOOOOOOOOOOOOOOOOOOOOOOOOOOOO=&#%%%%%%%%%%%%%%##@###@###@####%%%%%%%%%%%%%%%##@###@###@####%%%%%%%%%%%%%%%##@###@###@####%%%%%%%%%%%%%%%##@###@###@####%%%",
"###############%%%%%%%%%%%%%%%###############%%%%%%%%%%%%%%%###############%%%%%%%%%%%%%%%###############%%%%%%%%%%%%%%%###############%%%%%%%%%%%%%%%##############%%@>=OO=O===OO==OOOOOOOOOOOOOOOOOOOOOOOOOOOOOOOOOOOOOOOOO=OOOO>$%%%%%%%%%%%%###############%%%%%%%%%%%%%%%###############%%%%%%%%%%%%%%%###############%%%%%%%%%%%%%%%###############%%%",
"###############%%%%%%%%%%%%%%%###############%%%%%%%%%%%%%%%###############%%%%%%%%%%%%%%%###############%%%%%%%%%%%%%%%###############%%%%%%%%%%%%%%%############%%X;=OOOO===O==OOOOOOOOOOO=OO=OOOOOOOOOOOOOOOOOOOOOOOOOOOOOO=OOOOO=X%%%%%%%%%%###############%%%%%%%%%%%%%%%###############%%%%%%%%%%%%%%%###############%%%%%%%%%%%%%%%###############%%%",
"###############%%%%%%%%%%%%%%%###############%%%%%%%%%%%%%%%###############%%%%%%%%%%%%%%%###############%%%%%%%%%%%%%%%###############%%%%%%%%%%%%%%%##########%#&-OOO==OOOOOOOOOOOOOOOOOOOOOOOOOOOOOOOOOOOOOOOOOOOOOOOOOOOO==OOOO=OO;%%%%%%%%%###############%%%%%%%%%%%%%%%###############%%%%%%%%%%%%%%%###############%%%%%%%%%%%%%%%###############%%%",
"######@########%%%%%%%%%%%%%%%######@####@###%%%%%%%%%%%%%%%######@####@###%%%%%%%%%%%%%%%######@####@###%%%%%%%%%%%%%%%######@####@###%%%%%%%%%%%%%%%#########%#=OO=O=OOOO=O=OOOOOOOOOOOOOOOOOOOOOOOOOOOOOOOOOOOOOOOOOOOOOOOO=OOOOOOOOO&%%%%%%%######@####@###%%%%%%%%%%%%%%%######@####@###%%%%%%%%%%%%%%%######@####@###%%%%%%%%%%%%%%%#######@####@##%%%",
"##@#########@##%%%%%%%%%%%%%%%##@############%%%%%%%%%%%%%%%##@############%%%%%%%%%%%%%%%##@############%%%%%%%%%%%%%%%##@############%%%%%%%%%%%%%%%#######%%@=OO==OOOOOOOOOOOO=OOOOOOOOOOOOOOOOOOOOOOOOOOOOOOOOOOOOOOOOOOOOOOOOOOO=OOO= %%%%%##@############%%%%%%%%%%%%%%%##@############%%%%%%%%%%%%%%%##@############%%%%%%%%%%%%%%%####@##########%%%",
"###############%%%%%%%%%%%%%%%###############%%%%%%%%%%%%%%%###############%%%%%%%%%%%%%%%###############%%%%%%%%%%%%%%%###############%%%%%%%%%%%%%%%#####%%&OOO===O=OO=OOOOOOOO=OOOOOOOOOOOOOOOOOOOOOOOOOOOOOOOOOOOOOOOOOOOOOOOOOO=OOOOOO&%%%%###############%%%%%%%%%%%%%%%###############%%%%%%%%%%%%%%%###############%%%%%%%%%%%%%%%###############%%%",
"########@######%%%%%%%%%%%%%%%###############%%%%%%%%%%%%%%%###############%%%%%%%%%%%%%%%###############%%%%%%%%%%%%%%%###############%%%%%%%%%%%%%%%####%%-OOOOO=OOO=O=OOO=O=OOOOOOOOOOOOOOOOOOOOOOOOOOOOOOOOOOOOOOOOOOOOOOOOOOOOOOOO=OOOOX%%%###############%%%%%%%%%%%%%%%###############%%%%%%%%%%%%%%%###############%%%%%%%%%%%%%%%###############%%%",
"###############%%%%%%%%%%%%%%%######@###@####%%%%%%%%%%%%%%%######@###@####%%%%%%%%%%%%%%%######@###@####%%%%%%%%%%%%%%%######@###@####%%%%%%%%%%%%%%%###% =OOO==OOOOOOOOO=OOOOOOOOOOOOOOOOOOOOOOOOOOOOOOOOOOOOOOOOOOOOOOOOOOOOOOOOOOOO=OOOOOX%%######@###@####%%%%%%%%%%%%%%%######@###@####%%%%%%%%%%%%%%%######@###@####%%%%%%%%%%%%%%%#########@#####%%%",
"###############%%%%%%%%%%%%%%%###############%%%%%%%%%%%%%%%###############%%%%%%%%%%%%%%%###############%%%%%%%%%%%%%%%###############%%%%%%%%%%%%%%%##%%>OOOO===OO=O=OOOOOOOOOOOOOOOOOOOOOOOOOOOOOOOOOOOOOOOOOOOOOOOOOOOOOOOOOOOOOO===OOOOOO@%###############%%%%%%%%%%%%%%%###############%%%%%%%%%%%%%%%###############%%%%%%%%%%%%%%%###############%%%",
"%%%%%%%%%%%%%%%###############%%%%%%%%%%%%%%%###############%%%%%%%%%%%%%%%###############%%%%%%%%%%%%%%%###############%%%%%%%%%%%%%%%###############%%%&O==OOO=O=OO=OOOOO=O=O=OOOOOOOOOOOOOOOOOOOOOOOOOOOOOOOOOOOOOOOOOOOOOOOOOO=O==O=OOOOOO=#%%%%%%%%%%%%%%%###############%%%%%%%%%%%%%%%###############%%%%%%%%%%%%%%%###############%%%%%%%%%%%%%%%###",
"%%%%%%%%%%%%%%%###############%%%%%%%%%%%%%%%###############%%%%%%%%%%%%%%%###############%%%%%%%%%%%%%%%###############%%%%%%%%%%%%%%%###############%%*OOOO=>=OOOOOOOOOOOOO=OOOOOOOOOOOOOOOOOOOOOOOOOOOOOOOOOOOOOOOOOOOOOOOOOOOOOO==OO==OOOOO;%%%%%%%%%%%%%%%###############%%%%%%%%%%%%%%%###############%%%%%%%%%%%%%%%###############%%%%%%%%%%%%%%%###",
"%%%%%%%%%%%%%%%###############%%%%%%%%%%%%%%%###############%%%%%%%%%%%%%%%###############%%%%%%%%%%%%%%%###############%%%%%%%%%%%%%%%###############% OO====>>OOOOOOOOOOOOOOOOOOOOOOOOOOOOOOOOOOOOOOOOOOOOOOOOOOOOOOOOOOOOOOOOOO=O=>===>=OOOOO@%%%%%%%%%%%%%%###############%%%%%%%%%%%%%%%###############%%%%%%%%%%%%%%%###############%%%%%%%%%%%%%%%###",
"%%%%%%%%%%%%%%%###############%%%%%%%%%%%%%%%###############%%%%%%%%%%%%%%%###############%%%%%%%%%%%%%%%###############%%%%%%%%%%%%%%%##############% OO====OO==O=OOOOOOOOOO=OOOOOOOOOOOOOOOOOOOOOOOOOOOOOOOOOOOOOOOOOOOOOOOOOOOO>->==OOOO>OO=O=%%%%%%%%%%%%%%###############%%%%%%%%%%%%%%%###############%%%%%%%%%%%%%%%###############%%%%%%%%%%%%%%%###",
"%%%%%%%%%%%%%%%###############%%%%%%%%%%%%%%%###############%%%%%%%%%%%%%%%###############%%%%%%%%%%%%%%%###############%%%%%%%%%%%%%%%#############%#=OOOOOOOOO==OOOO=OOOOOOOOOOOOOOOOOOOOOOOOOOOOOOOOOOOOOOOOOOOOOOOOOOOOOOOOOOOOO=->O=OO>=OOOOX%%%%%%%%%%%%%###############%%%%%%%%%%%%%%%###############%%%%%%%%%%%%%%%###############%%%%%%%%%%%%%%%###",
"%%%%%%%%%%%%%%%####@###@###@##%%%%%%%%%%%%%%%####@###@###@##%%%%%%%%%%%%%%%####@###@###@##%%%%%%%%%%%%%%%####@###@###@##%%%%%%%%%%%%%%%####@###@####%;O==O======O=OOOOOOO=OOOOOOOO=OOOOOOOOOOOOOOOOOOOOOOOOOOOOOOOOOOOOOOOOOOOOOOOOOO=>===OO>===O>%%%%%%%%%%%%%####@###@###@##%%%%%%%%%%%%%%%####@###@###@##%%%%%%%%%%%%%%%####@###@###@##%%%%%%%%%%%%%%%###",
"%%%%%%%%%%%%%%%###############%%%%%%%%%%%%%%%###############%%%%%%%%%%%%%%%###############%%%%%%%%%%%%%%%###############%%%%%%%%%%%%%%%############%#=O==O==OO==OO==OOOOOOOOO=OOOOOOOOOOOOOOOOOOOOOOOOOOOOOOOOOOOOOOOOOOOOOOOOOOOO=OOOO=>=OOOOOO=O+%%%%%%%%%%%%###############%%%%%%%%%%%%%%%###############%%%%%%%%%%%%%%%###############%%%%%%%%%%%%%%%###",
"%%%%%%%%%%%%%%%###############%%%%%%%%%%%%%%%###############%%%%%%%%%%%%%%%###############%%%%%%%%%%%%%%%###############%%%%%%%%%%%%%%%###########%&OO=OOOOOOOO=OOO=OOOO=OOOOOOOOOOOOOOOOOOOOOOOOOOOOOOOOOOOOOOOOOOOOOOOOOOOOOOOOOOOO=>====OOOOOOO>%%%%%%%%%%%%###############%%%%%%%%%%%%%%%###############%%%%%%%%%%%%%%%###############%%%%%%%%%%%%%%%###",
"%%%%%%%%%%%%%%%###############%%%%%%%%%%%%%%%###############%%%%%%%%%%%%%%%###############%%%%%%%%%%%%%%%###############%%%%%%%%%%%%%%%##########%$OOO=OOO==OO=OOOOO=OOOOOOOOOOOOOOOOOOOOOOOOOOOOOOOOOOOOOOOOOOOOOOOOOOOOOOOOOOOOOO=O=<>=>===OOOOOO;%%%%%%%%%%%###############%%%%%%%%%%%%%%%###############%%%%%%%%%%%%%%%###############%%%%%%%%%%%%%%%###",
"%%%%%%%%%%%%%%%####@####@#####%%%%%%%%%%%%%%%####@####@#####%%%%%%%%%%%%%%%####@####@#####%%%%%%%%%%%%%%%####@####@#####%%%%%%%%%%%%%%%#########%%-OOOOO=OO==O=OO=OOOOOOOOOO=OOOOOOOOOOOOOOOOOOOOOOOOOOOOOOOOOOOOOOOOOOOOOOOOOOO=OOOO=><;=O===OOOOOOX%%%%%%%%%%###@#####@#####%%%%%%%%%%%%%%%####@####@#####%%%%%%%%%%%%%%%#@###@####@####%%%%%%%%%%%%%%%###",
"%%%%%%%%%%%%%%%###############%%%%%%%%%%%%%%%###############%%%%%%%%%%%%%%%###############%%%%%%%%%%%%%%%###############%%%%%%%%%%%%%%%###@######>OOOO=O===OOOOOOO=OO=OO==OOOOOOOOOOOOOOOOOOOOOOOOOOOOOOOOOOOOOOOOOOOOOOOOOOOOOOOOOO==OO>>>===OOOOOOO>;@%%%%%%%###############%%%%%%%%%%%%%%%###############%%%%%%%%%%%%%%%###############%%%%%%%%%%%%%%%###",
"%%%%%%%%%%%%%%%############@##%%%%%%%%%%%%%%%############@##%%%%%%%%%%%%%%%############@##%%%%%%%%%%%%%%%############@##%%%%%%%%%%%%%%%########% OOO==OOOOOO===O=OOOOOOOOOOOOOOOOOOOOOOOOOOOOOOOOOOOOOOOOOOOOOOOOOOOOOOOOOOOOOOOOO=O==>>=-->====OOOOOOOO>&X %%%###############%%%%%%%%%%%%%%%############@##%%%%%%%%%%%%%%%###############%%%%%%%%%%%%%%%###",
"%%%%%%%%%%%%%%%###############%%%%%%%%%%%%%%%###############%%%%%%%%%%%%%%%###############%%%%%%%%%%%%%%%###############%%%%%%%%%%%%%%%#######%@>===>=O===OOOO=O=OO=OO=OOOOO=OOOOOOOOOOOOOOOOOOOOOOOOOOOOOOOOOOOOOOOOOOOOOOOO=OO=OO==O=>=O>-=====OOOOOOOOOOO=; %%%%########@##%%%%%%%%%%%%%%%###############%%%%%%%%%%%%%%%###############%%%%%%%%%%%%%%%###",
"%%%%%%%%%%%%%%%##@####@#######%%%%%%%%%%%%%%%##@####@#######%%%%%%%%%%%%%%%##@####@#######%%%%%%%%%%%%%%%##@####@#######%%%%%%%%%%%%%%%#######%*OO=OOO==O>=O==O=OOOOOOOOO=OOOOOOOOOOOOOOOOOOOOOOOOOOOOOOOOOOOOOOOOOOOOOOOOOOO=O=OO=O=>==->>-->======OOOOOO>->=OO-*$#%%########%%%%%%%%%%%%%%%##@####@#######%%%%%%%%%%%%%%%########@###@##%%%%%%%%%%%%%%%###",
"%%%%%%%%%%%%%%%###############%%%%%%%%%%%%%%%###############%%%%%%%%%%%%%%%###############%%%%%%%%%%%%%%%###############%%%%%%%%%%%%%%%######%#-==OOOOOOOOOOOOOOOOOOOOOOOOOOOOOOOOOOOOOOOOOOOOOOOOOOOOOOOOOOOOOOOOOOOOOOOOOOO=OO=O===<;----->>>======OOOO>1<<1<-=OO=-X%%%#####%%%%%%%%%%%%%%%###############%%%%%%%%%%%%%%%###############%%%%%%%%%%%%%%%###",
"###############%%%%%%%%%%%%%%%###############%%%%%%%%%%%%%%%###############%%%%%%%%%%%%%%%###############%%%%%%%%%%%%%%%###############%%%%%% =OOO=O==OOOOO=OOOOOOOOOOO=OOOOOOOOOOOOOOOOOOOOOOOOOOOOOOOOOOOOOOOOOOOOOOOOOO=====OO>=>>>->>---==>>>==>===>>>>11<11<-=OOOO;%%%%%%###############%%%%%%%%%%%%%%%###############%%%%%%%%%%%%%%%###############%%%",
"###############%%%%%%%%%%%%%%%###############%%%%%%%%%%%%%%%###############%%%%%%%%%%%%%%%###############%%%%%%%%%%%%%%%###############%%%%%%>OOOO=====OO===O=O=OOO=OOOOOOOOOOOOOOOOOOOOOOOOOOOOOOOOOOOOOOOOOOOOOOOOOOOOOOOOO=OOO=>=>;--;-=>>>=>==>===><1=>,1<<<<<<<>OOOOX%%%%###############%%%%%%%%%%%%%%%###############%%%%%%%%%%%%%%%###############%%%",
"###############%%%%%%%%%%%%%%%###############%%%%%%%%%%%%%%%###############%%%%%%%%%%%%%%%###############%%%%%%%%%%%%%%%###############%%%%%+O===OO==OOO===OOOOO=OOOOOOOOOOOOOOOOOOOOOOOOOOOOOOOOO=O==OOOOOOOOOOOOOOOOOO======O=>=---->>>>=>->>>>==>==<&-=<,1<11<<--&&->OO&%%%###############%%%%%%%%%%%%%%%###############%%%%%%%%%%%%%%%###############%%%",
"###############%%%%%%%%%%%%%%%###############%%%%%%%%%%%%%%%###############%%%%%%%%%%%%%%%###############%%%%%%%%%%%%%%%###############%%%%%OOOO==OOO====OOOOOOOOOOOOOOOOOOOOOOOOOOOOOOOOOOOOOO>>==O==>&-OOOOOOOOOOOOOOO====>>->=>--->>>===>>>===>>===OOO>111<>-<<<<X;<&;>O;%%###############%%%%%%%%%%%%%%%###############%%%%%%%%%%%%%%%###############%%%",
"###############%%%%%%%%%%%%%%%###############%%%%%%%%%%%%%%%###############%%%%%%%%%%%%%%%###############%%%%%%%%%%%%%%%###############%%%%;O==OOOO=OOOOOOOO==OOOOOOOOOOOOOOOOOOOOOOOOOOOOOOOO->OOOOOOO>*+-OOOOOOOOOO=O===O=>>-==>>=>>=====O=======>=>O=-11<<<>-<---&-=>-#<O*%###############%%%%%%%%%%%%%%%###############%%%%%%%%%%%%%%%###############%%%",
"###@###@###@###%%%%%%%%%%%%%%%##@###@###@####%%%%%%%%%%%%%%%##@###@###@####%%%%%%%%%%%%%%%##@###@###@####%%%%%%%%%%%%%%%##@###@###@####%%%@OOOOOO=>OOOOOOOOOOOOO=OOOOOOOO=OOOOOOOOOOOOOOOOOOO*XOOOOOOOOOO&@<OOOOOOOO=O==O==>>==O>===OOOOOOOOOO=O=>=>>->-<---<<--<<<->>===-+<O %####@###@#####%%%%%%%%%%%%%%%##@###@###@####%%%%%%%%%%%%%%%##@###@###@####%%%",
"###############%%%%%%%%%%%%%%%###############%%%%%%%%%%%%%%%###############%%%%%%%%%%%%%%%###############%%%%%%%%%%%%%%%###############%%%=OOOO=OOOO=O=====OOOO=OOOOO=OOOOOOOOOOOOOOOOOOOOOO>##>OOOOOOOOOO<%=OOOOOOOOO====>>=>>=OOOOO=OOOOOOOOOOO=O========>=>>>>>->>>>>OO-+=>%##############%%%%%%%%%%%%%%%###############%%%%%%%%%%%%%%%###############%%%",
"###############%%%%%%%%%%%%%%%###############%%%%%%%%%%%%%%%###############%%%%%%%%%%%%%%%###############%%%%%%%%%%%%%%%###############%%-OO===OO=O=O=OOOOOOOOOOOOOOOOOOOOOOOOOOOOOOOOOOOOOOO&%&OOOOOOOOO=$%=OOOOO=OO==>==>==OOO=>>>>>====>>>>>=============>->>==>==>>==OO><O$%##########@##%%%%%%%%%%%%%%%###############%%%%%%%%%%%%%%%###############%%%",
"###############%%%%%%%%%%%%%%%###############%%%%%%%%%%%%%%%###############%%%%%%%%%%%%%%%###############%%%%%%%%%%%%%%%###############%;OOOOOOO==OOOOOOOO=O=OOOOOOOOOOOOOOOOOOOOOOOOOOOOOOOOO.#X=OOOOOO-%%.OOOO=OOO=====OOOOOO=<->>>>>==>==================>>>><<----->1<==<=;%#############%%%%%%%%%%%%%%%###############%%%%%%%%%%%%%%%###############%%%",
"######@########%%%%%%%%%%%%%%%#######@####@##%%%%%%%%%%%%%%%#######@####@##%%%%%%%%%%%%%%%#######@####@##%%%%%%%%%%%%%%%########@###### OOOOOOOOOOOOOOOOOOOOOOOOOO=OOOOOOOOOOOOOOOOOOOOOOOOOOO=$%#;>==><%%+=OOOOOO=O=OOOOOO>>---->-==>==>>===OOOOOOOOOOOOOOOOOOOO==>>>>>><<<->-%#############%%%%%%%%%%%%%%%#######@####@##%%%%%%%%%%%%%%%#######@####@##%%%",
"##@#########@##%%%%%%%%%%%%%%%####@##########%%%%%%%%%%%%%%%####@##########%%%%%%%%%%%%%%%####@##########%%%%%%%%%%%%%%%#####@########%#OOOOO=OOO=OO=>OO=OOO=OOOOOOOO=OOOOOOOOOOOOOOOOOOOOOOOOO=&$#%#%%.,;OOOOOO=OOOO===>--===>>==>->==>=>>=====OO=O=OOOOOOOOOOOOOOOOOO===-<->> #######@#####%%%%%%%%%%%%%%%####@##########%%%%%%%%%%%%%%%####@##########%%%",
"###############%%%%%%%%%%%%%%%###############%%%%%%%%%%%%%%%###############%%%%%%%%%%%%%%%###############%%%%%%%%%%%%%%%##############%@=OOOOOO=OOO=OOO=OOOOOOO=OOOOOOOOOOOOOOOOOOOOOOOOOOOOOOOOOO-&*$.-=OOOOOO=OOO===>>===O====>==>>=>>===>=>=OO=O==OO=OOOOOOOOOOOOOOOO==>>>>-##############%%%%%%%%%%%%%%%###############%%%%%%%%%%%%%%%###############%%%",
"########@######%%%%%%%%%%%%%%%###############%%%%%%%%%%%%%%%###############%%%%%%%%%%%%%%%###############%%%%%%%%%%%%%%%#############%*OOOOO=OOOOOOOOOOOOOOOOOOOOOOO=OO=OOOOOOOOOOOOOOOOOOOOOOOOOOOOOOOOOOOOOOOOOO=======OO=>>=>>=>=>>=>>=>>==>==OOO=====O=OO=OOO=O=O=O==>->><@%#############%%%%%%%%%%%%%%%###############%%%%%%%%%%%%%%%###############%%%",
"###############%%%%%%%%%%%%%%%#########@#####%%%%%%%%%%%%%%%#########@#####%%%%%%%%%%%%%%%#########@#####%%%%%%%%%%%%%%%##@###########OOO=O==OOOO=OO=OOOOOOOOOOOOOOOOOOOOOOOOOOOOOOOOOOOOOOOOOOOOOOOOOOOOOOOO=OO===O========O===O==>>==>===>=>>==O=OO=>===O=OOO=OO======>>>>.%%#####@########%%%%%%%%%%%%%%%#########@#####%%%%%%%%%%%%%%%#########@#####%%%",
"###############%%%%%%%%%%%%%%%###############%%%%%%%%%%%%%%%###############%%%%%%%%%%%%%%%###############%%%%%%%%%%%%%%%############%#OOOOOOOOO===OOO=O=O=O=OOOOOOOO=O=OOOOOOOOOOOOOOOOOOOOOOOOOOOOOOOOOOOOOOOOO=OO=====OO=O==O====>====>========OOOOOO>>============>>>>=O;%%###############%%%%%%%%%%%%%%%###############%%%%%%%%%%%%%%%###############%%%",
"%%%%%%%%%%%%%%%###############%%%%%%%%%%%%%%%###############%%%%%%%%%%%%%%%###############%%%%%%%%%%%%%%%###############%%%%%%%%%%%%%X=>O=OOOO==OOO=OOOOOOOOOOOOOOOOOOOO=OOOOOOOOOOOOOOOOOOOOOOOOOOOOOOOOOOOOOO==O==O=OO====O=O==================O=OOOOO>->>=>=>>>>>>>==>;+%##%%%%%%%%%%%%%%%###############%%%%%%%%%%%%%%%###############%%%%%%%%%%%%%%%###",
"%%%%%%%%%%%%%%%###############%%%%%%%%%%%%%%%###############%%%%%%%%%%%%%%%###############%%%%%%%%%%%%%%%###############%%%%%%%%%%%%.O=>OO====OOOO=OO=OOOOOOO=OOOOOOOO=OOOOOOOOOOOOOOOOOOOOOOOOOOOOOOOOOOOOOOOOO=OOO====OOOOO==================OOO=O=OOOO=>>->>>>>>==>-*%%%###%%%%%%%%%%%%%%%###############%%%%%%%%%%%%%%%###############%%%%%%%%%%%%%%%###",
"%%%%%%%%%%%%%%%###############%%%%%%%%%%%%%%%###############%%%%%%%%%%%%%%%###############%%%%%%%%%%%%%%%###############%%%%%%%%%%%%>OOOOOOO=OOOOO==OOOO=OOOOOOOO==O=OOO=O=OOOOOOOOOOOOOOOOOOOOOOOOOOOOOOOOOOOO=OO=O=OOOOOO=O=O=================O=OOOOOO=O=>>>>>>=><+#%%######%%%%%%%%%%%%%%%###############%%%%%%%%%%%%%%%###############%%%%%%%%%%%%%%%###",
"%%%%%%%%%%%%%%%###############%%%%%%%%%%%%%%%###############%%%%%%%%%%%%%%%###############%%%%%%%%%%%%%%%###############%%%%%%%%%%%%>O==OOOOOOOOO=OOOO=OOOOO=OOOO=OO==OOOOOOOOOOOOOOOOOOOOOOOOOOOOOOOOOOOOOOOOO=OOOOO=O=OO==O===O===========O===OO=O=O=O=====OO>;$%%%%########%%%%%%%%%%%%%%%###############%%%%%%%%%%%%%%%###############%%%%%%%%%%%%%%%###",
"%%%%%%%%%%%%%%%###############%%%%%%%%%%%%%%%###############%%%%%%%%%%%%%%%###############%%%%%%%%%%%%%%%###############%%%%%%%%%%%%>O=>====OOO==O==OOOO=OO=OOOOOOO=OOO=OOOOOOOOOOOOOOOOOOOOOOOOOOOOOOOOOOOOO=OOO=O==O===O=OO==O================OOO==O=O==>==1X %%############%%%%%%%%%%%%%%%###############%%%%%%%%%%%%%%%###############%%%%%%%%%%%%%%%###",
"%%%%%%%%%%%%%%%####@###@###@##%%%%%%%%%%%%%%%####@###@###@##%%%%%%%%%%%%%%%####@###@###@##%%%%%%%%%%%%%%%####@###@###@##%%%%%%%%%%%>O==OOO==O===O==OOO=OOOOOOOOOOO=OO=OOO=OOOOOOOOOOOOOOOOOOOOOOOOOOOOOOOOOOOOOOOOOOOO=OOOO==O=======O=====O=OO===OO=OO=O=O=$%%%##############%%%%%%%%%%%%%%%####@###@###@##%%%%%%%%%%%%%%%####@###@###@##%%%%%%%%%%%%%%%###",
"%%%%%%%%%%%%%%%###############%%%%%%%%%%%%%%%###############%%%%%%%%%%%%%%%###############%%%%%%%%%%%%%%%###############%%%%%%%%%%#OO==OOOOOO=OOOOOOOOOOOOOOOOO=OOOO==OO=OOOOOOOOOOOOOOOOOOOOOOOOOOOOOOOOOOOO=OOOOOOOOOOOO=OO=O=OO=O==O===O==OO==OOOOOOOOOO.%%%###############%%%%%%%%%%%%%%%###############%%%%%%%%%%%%%%%###############%%%%%%%%%%%%%%%###",
"%%%%%%%%%%%%%%%###############%%%%%%%%%%%%%%%###############%%%%%%%%%%%%%%%###############%%%%%%%%%%%%%%%###############%%%%%%%%%%#=O==O=O=OOOO=OOOOOO=OOOOOOOOOOOOOOO=OOOO=OOOOOOOOOOOOOOOOOOOOOOOOOOOOOOOOOOOOO=OO=O=OO=OO==OO===O=OO==OO=OOOOOOOOOOOOOO.%%%%###############%%%%%%%%%%%%%%%###############%%%%%%%%%%%%%%%###############%%%%%%%%%%%%%%%###",
"%%%%%%%%%%%%%%%###############%%%%%%%%%%%%%%%###############%%%%%%%%%%%%%%%###############%%%%%%%%%%%%%%%###############%%%%%%%%%%#OO=OOOO=O==O=OOOOOO=OOOO=O=OOO=OO=OOO=OOOOOOOOOOOOOOOOOOOOOOOOOOOOOOOOOO=OOOOOOOOOOO=OOOOOOO==OOO==OO=OOOOO=OOOOOOO=OO*%%%%%######@###@####%%%%%%%%%%%%%%%###############%%%%%%%%%%%%%%%###############%%%%%%%%%%%%%%%###",
"%%%%%%%%%%%%%%%#@###@####@####%%%%%%%%%%%%%%%#@###@####@####%%%%%%%%%%%%%%%#@###@####@####%%%%%%%%%%%%%%%###@###@#######%%%%%%%%%% OOOOO==OO=OOOOOO=O=OOOOOOOOOOOOOOO=O=OOOO=OOOOOOOOOOOOOOOOOOOOOOOOOOOOOOOOOO=OOOOOOOOOOOO=O=OOOO=OO=OOOOOOOOOOOOOOOOO;%%%%%%###############%%%%%%%%%%%%%%%#@###@####@####%%%%%%%%%%%%%%%#@###@####@####%%%%%%%%%%%%%%%###",
"%%%%%%%%%%%%%%%###############%%%%%%%%%%%%%%%###############%%%%%%%%%%%%%%%###############%%%%%%%%%%%%%%%##########@####%%%%%%%%%%%=OOOO==OOOOO=OOOOOOOOO=OOOO=O=OOOOOOOO=O=OO=O=OOOOOOOOOOOOOOOOOOOOOOOOOO=OOOOOO=OOOOOOO==OOOOO=O=OOOOOOOOOOOOOOOOOOO>%%%%%%%###############%%%%%%%%%%%%%%%###############%%%%%%%%%%%%%%%###############%%%%%%%%%%%%%%%###",
"%%%%%%%%%%%%%%%###############%%%%%%%%%%%%%%%###############%%%%%%%%%%%%%%%###############%%%%%%%%%%%%%%%###############%%%%%%%%%%&O=====OOOO=O=OO=OOO=OOO=O=OOOOOOO=OO=OOO=OOOOOOOOOOOOOOOOOOOOOOOOOO=OOOO=OOOO=OO=O=OOOOOOO=OOOOOOOOOOOOOOOOOOOOOOOO=%%%%%%%%###@###########%%%%%%%%%%%%%%%###############%%%%%%%%%%%%%%%###############%%%%%%%%%%%%%%%###",
"%%%%%%%%%%%%%%%###############%%%%%%%%%%%%%%%###############%%%%%%%%%%%%%%%###############%%%%%%%%%%%%%%%###############%%%%%%%%%%-OOOOOOOOO=OO=OOOO=OOOOOOOO=OO=O=OO=OOOOO=OOO=O=OO=OOOOOOOOOOOOOOOOOOOOOOOOOOOOOOOOOOOO=OOOOOOOOOOOOOOOOOOOOOOOOO=OO#%%%%%%%%########@######%%%%%%%%%%%%%%%###############%%%%%%%%%%%%%%%###############%%%%%%%%%%%%%%%###",
"%%%%%%%%%%%%%%%########@###@##%%%%%%%%%%%%%%%########@###@##%%%%%%%%%%%%%%%########@###@##%%%%%%%%%%%%%%%###############%%%%%%%%%%-OOO==O=OOOO==O=OOOOOO=OOOOOO=OOOO=OOOOOOOOO=OO=OOO=O=OOOOOO=OOOOOOOOO=OOOO=OOOOOOOOO=OOOOOOOOOOOOOOOOOOOOOOOOOOOOO+%%%%%%%%%###########@###%%%%%%%%%%%%%%%########@###@##%%%%%%%%%%%%%%%########@###@##%%%%%%%%%%%%%%%###",
"%%%%%%%%%%%%%%%###############%%%%%%%%%%%%%%%###############%%%%%%%%%%%%%%%###############%%%%%%%%%%%%%%%###############%%%%%%%%%%-O=O=OOO=====OO>=O=OOOO=OO=OOOO=OOOOOO>;o<=OOOOO=O=OOOO=O=OOOOO=OOOOOOOO=OOOOOO=O=OOOOOOOOOOOOOOOOOOOOOOOOOOOOOOOO;%%%%%%%%%%###############%%%%%%%%%%%%%%%###############%%%%%%%%%%%%%%%###############%%%%%%%%%%%%%%%###",
"###############%%%%%%%%%%%%%%%###############%%%%%%%%%%%%%%%###############%%%%%%%%%%%%%%%###############%%%%%%%%%%%%%%%########% OO>=OOOO==O=OO=>OOOOO=OO=OOO=O=O=OO=>>$%%%$o<>OOO=OO=O=OOOO=OOOO=OOOOOOOOOOOOOOOOO=OOOOOOOOOOOOOOOOOOOOOOOOOOOOOOO#%#########%%%%%%%%%%%%%%%###############%%%%%%%%%%%%%%%###############%%%%%%%%%%%%%%%###############%%%",
"###############%%%%%%%%%%%%%%%###############%%%%%%%%%%%%%%%###############%%%%%%%%%%%%%%%###############%%%%%%%%%%%%%%%########%-OOOOOO>==OO=O=OOO=O=OOOOO=OOOOOOOO-@# #@ @%%%#*-OOO=OO=O=OOOO=OOOO=OOOOOOOOOOOOOOOOOOOOOOOOOOOOOOOOOOOOOOOOOOOOOO+%##########%%%%%%%%%%%%%%%###############%%%%%%%%%%%%%%%###############%%%%%%%%%%%%%%%###############%%%",
"###############%%%%%%%%%%%%%%%###############%%%%%%%%%%%%%%%###############%%%%%%%%%%%%%%%###############%%%%%%%%%%%%%%%########%;OOOOO==OOO=OO=OO=OOOO=O=OOO=O=OO=-%%#@ @@ @ @#%%1>OO=O=OOO=OOO=OOOOOOOOO=OOOOOOOO=OOOOOOOOOOOOOOOOOOOOOOOOOOOOOO&%###########%%%%%%%%%%%%%%%###############%%%%%%%%%%%%%%%###############%%%%%%%%%%%%%%%###############%%%",
"###############%%%%%%%%%%%%%%%###############%%%%%%%%%%%%%%%###############%%%%%%%%%%%%%%%###############%%%%%%%%%%%%%%%########%>OO==OOOOO===OO==O==O=O=O=O=OOOO,###@ @@@@@@@@@@#%#1=OO=O==OOO=OO=O==OOOOOOOOOOOOOOOOOOOOOOOOOOOOOOOOOOOOOOOOOOO-%############%%%%%%%%%%%%%%%###############%%%%%%%%%%%%%%%###############%%%%%%%%%%%%%%%###############%%%",
"###############%%%%%%%%%%%%%%%###############%%%%%%%%%%%%%%%###############%%%%%%%%%%%%%%%###############%%%%%%%%%%%%%%%#######%XOOO===OO>=O=OO==OO==O=O==O=OOOO,%#@@@@@@@@@@@@@@@#%%$-OO=O=OOO=OO=OOOOOOOOOOOOOOOOOOOOOOOOOOOOOOOOOOOOOOOOOOOOO=#%############%%%%%%%%%%%%%%%###############%%%%%%%%%%%%%%%###############%%%%%%%%%%%%%%%###############%%%",
"###@###@###@###%%%%%%%%%%%%%%%##@###@###@####%%%%%%%%%%%%%%%##@###@###@####%%%%%%%%%%%%%%%##@###@###@####%%%%%%%%%%%%%%%#######%-OO=OO=O==OOO==OO==OO=O=OO==O=><%#@@@@@@@@@@@@@@@@@@@%%*=OOO=O=OOOO=O=OOOOOOO=OOOOOOOOOOOOOOOOOOOOOOOOOOOOOOOOOO %########@####%%%%%%%%%%%%%%%##@###@###@####%%%%%%%%%%%%%%%##@###@###@####%%%%%%%%%%%%%%%##@###@###@####%%%",
"###############%%%%%%%%%%%%%%%###############%%%%%%%%%%%%%%%###############%%%%%%%%%%%%%%%###############%%%%%%%%%%%%%%%######%@OOO=OOOOOO===OO===O=O=O=O==OO>#%#@@@@@@@@@@@@@@@@@ @@@#%#&OO=OOO=O=OOOO=OOOOOOOOOOOOOOOOOOOOOOOOOOOOOOOOOOOOOOO$%##############%%%%%%%%%%%%%%%###############%%%%%%%%%%%%%%%###############%%%%%%%%%%%%%%%###############%%%",
"###############%%%%%%%%%%%%%%%###############%%%%%%%%%%%%%%%###############%%%%%%%%%%%%%%%###############%%%%%%%%%%%%%%%######%;OOOOO==O===OOO=>=OO===O=O=O=o@%@@@@@@@@@@@@@@@@@@@@@@@@@%%;OO====O=OOOOOOOOOOOOOOOOOOOOOOOOOOOOOOOOOOOOOOOOOOO;%#######@#######%%%%%%%%%%%%%%%###############%%%%%%%%%%%%%%%###############%%%%%%%%%%%%%%%###############%%%",
"###############%%%%%%%%%%%%%%%###############%%%%%%%%%%%%%%%###############%%%%%%%%%%%%%%%###############%%%%%%%%%%%%%%%#####%XOOO=OO=====O==>=OOO==O=====O&%#@@@@@#@@#@@@@@@@@@@@#@@@@@ %%<OOO=OO=OO=OOOOO=OOOOOOOOOOOOOOOOOOOOOOOOOOOOOOOOO-%%###############%%%%%%%%%%%%%%%###############%%%%%%%%%%%%%%%###############%%%%%%%%%%%%%%%###############%%%",
"######@########%%%%%%%%%%%%%%%#######@####@##%%%%%%%%%%%%%%%#######@####@##%%%%%%%%%%%%%%%######@####@###%%%%%%%%%%%%%%%####%XOOO==O=OOOOO====OO===OO===OO>%#@@@@#@@@#@@@@@@@@@@#@@@@@@@@ %%>O=OOO=O=OO=OOOOOOOOOOOOOOOOOOOOOOOOOOOOOOOOOOOO=%%%############@##%%%%%%%%%%%%%%%#######@####@##%%%%%%%%%%%%%%%#######@####@##%%%%%%%%%%%%%%%#######@####@##%%%",
"##@#########@##%%%%%%%%%%%%%%%####@##########%%%%%%%%%%%%%%%####@##########%%%%%%%%%%%%%%%##@############%%%%%%%%%%%%%%%###%X=OOOOOOOOOO===OO====O====OO><+%@@@@@@@@@@@#@@@@@@@@@@@@@@@@@@ %.=O=O==OOOOOOOOOOOOOOOOOOOOOOOOOOOOOOOOOOOOOOOOO#%%%###############%%%%%%%%%%%%%%%####@##########%%%%%%%%%%%%%%%####@##########%%%%%%%%%%%%%%%####@##########%%%",
"###############%%%%%%%%%%%%%%%###############%%%%%%%%%%%%%%%###############%%%%%%%%%%%%%%%###############%%%%%%%%%%%%%%%##%XOO==OOOOOO===OOOO=O===O=OOO>$%#@@@@#@@#@@@@@@@@@@@@@@@@@@@@@@@@ %oOOO==O=OOOOOOOOOOOOOOOOOOOOOOOOOOOOOOOOOOOOOO&%%%%####@##########%%%%%%%%%%%%%%%###############%%%%%%%%%%%%%%%###############%%%%%%%%%%%%%%%###############%%%",
"########@######%%%%%%%%%%%%%%%###############%%%%%%%%%%%%%%%###############%%%%%%%%%%%%%%%###############%%%%%%%%%%%%%%%#%$=OOOOO=OOO=O=OOO===O=====O>.#%#@@@#@@@@@@#@#@@@@@@@@@@@@@@@@@@@@@#%>O=OOOOOO=OOOOOOOOOOOOOOOOOOOOOOOOOOOOOOOOOO>%%%%%#########@#####%%%%%%%%%%%%%%%###############%%%%%%%%%%%%%%%###############%%%%%%%%%%%%%%%###############%%%",
"###############%%%%%%%%%%%%%%%#########@#####%%%%%%%%%%%%%%%#########@#####%%%%%%%%%%%%%%%######@###@####%%%%%%%%%%%%%%%%#=O==OOOO=OOOOO==>===O===O=<%%#@@@#@@@#@@#@@@@@@@@@@@@@@@@@@@@@@@@@@%&OOO=O=OOOOOOOOOOOOOOOOOOOOOOOOOOOOOOOOOOOOO %%%%%###############%%%%%%%%%%%%%%%#########@#####%%%%%%%%%%%%%%%#########@#####%%%%%%%%%%%%%%%#########@#####%%%",
"###############%%%%%%%%%%%%%%%###############%%%%%%%%%%%%%%%###############%%%%%%%%%%%%%%%###############%%%%%%%%%%%%%%%#=OO====OOOOOO=O======O===O=@%@@@@@@@#@@#@@@#@@#@#@@@@@@@ @@@ @@@@@@ #%;OO=OOOO=OOOOOOOOOOOOOOOOOOOOOOOOOOOOOOOOO&%%%%%%###############%%%%%%%%%%%%%%%###############%%%%%%%%%%%%%%%###############%%%%%%%%%%%%%%%###############%%%",
"%%%%%%%%%%%%%%%###############%%%%%%%%%%%%%%%###############%%%%%%%%%%%%%%%###############%%%%%%%%%%%%%%%##############% OOO>OO=O=OO=O======O====OO1%#@@#@#@@@@@@@@@@@#@@@@@@@@@@@@ @ @@@@@ @@@%-OOOO=OOOOOOOOOOOOOOOOOOOOOOOOOOOOOOOOOO=%%#####%%%%%%%%%%%%%%%###############%%%%%%%%%%%%%%%###############%%%%%%%%%%%%%%%###############%%%%%%%%%%%%%%%###",
"%%%%%%%%%%%%%%%###############%%%%%%%%%%%%%%%###############%%%%%%%%%%%%%%%###############%%%%%%%%%%%%%%%#############%#;O===OOOOOOO==O==>=O>>==><1%#@#@@@@#@#@#@@#@#@@@@#@#@#@@@@@@@@@@@@ @@ $%.OO=OOOOOOOOOOOOOOOOOOOOOOOOOOOOOOOOOOO=#%######%%%%%%%%%%%%%%%###############%%%%%%%%%%%%%%%###############%%%%%%%%%%%%%%%###############%%%%%%%%%%%%%%%###",
"%%%%%%%%%%%%%%%###############%%%%%%%%%%%%%%%###############%%%%%%%%%%%%%%%###############%%%%%%%%%%%%%%%############%;OO===OO=OOO=OOO====O=>==O>%%#@# @#@@@@@@@@#@@@@#@#@@@@@@@@@@@ @@@@@@@   @@=OOOOO=OOOOOOOOOOOOOOOOOOOOOOOOOOOOOOO %#######%%%%%%%%%%%%%%%###############%%%%%%%%%%%%%%%###############%%%%%%%%%%%%%%%###############%%%%%%%%%%%%%%%###",
"%%%%%%%%%%%%%%%###############%%%%%%%%%%%%%%%###############%%%%%%%%%%%%%%%###############%%%%%%%%%%%%%%%###########%XOOOOOO==OO=OO=======O>=O==o%@@@@@#@@#@#@@#@@@@#@@@@@#@@#@@@@@@@@ @ @  @@  #.>OO=OOOOOOOOOOOOOOOOOOOOOOOOOOOOOOOO$%########%%%%%%%%%%%%%%%###############%%%%%%%%%%%%%%%###############%%%%%%%%%%%%%%%###############%%%%%%%%%%%%%%%###",
"%%%%%%%%%%%%%%%###############%%%%%%%%%%%%%%%###############%%%%%%%%%%%%%%%###############%%%%%%%%%%%%%%%##########%#O=>==O=-=OOOO=O==O=======O<%#@@@@@@@@@@@@#@@#@@@@#@@@@@#@@@@@@@@@@ @@ @@  @@% =OOOOO=OOOOOOOOOOOOOOOOOOOOOOOOOOO+%#########%%%%%%%%%%%%%%%###############%%%%%%%%%%%%%%%###############%%%%%%%%%%%%%%%###############%%%%%%%%%%%%%%%###",
"%%%%%%%%%%%%%%%####@###@###@##%%%%%%%%%%%%%%%####@###@###@##%%%%%%%%%%%%%%%####@###@###@##%%%%%%%%%%%%%%%###@#####%#;O==>=>=OOOOOO=O===O===>O>1%#@@@@@@@@@@@#@@@@@#@@#@@#@#@@@@#@#@@@@@@ @@  @  $$@o=OO=OOOOOOOOOOOOOOOOOOOOOOOOOOOO$%##########%%%%%%%%%%%%%%%####@###@###@##%%%%%%%%%%%%%%%####@###@###@##%%%%%%%%%%%%%%%####@###@###@##%%%%%%%%%%%%%%%###",
"%%%%%%%%%%%%%%%###############%%%%%%%%%%%%%%%###############%%%%%%%%%%%%%%%###############%%%%%%%%%%%%%%%##########>OOOOOOOOOOO=O=OO=OO==O=>=.%#@@@@#@@#@@#@@@@#@@@@@@@#@@@@#@@@@#@@@@@@@    @  $++#*OOOOOOOOOOOOOOOOOOOOOOOOOOOOOO$%###########%%%%%%%%%%%%%%%###############%%%%%%%%%%%%%%%###############%%%%%%%%%%%%%%%###############%%%%%%%%%%%%%%%###",
"%%%%%%%%%%%%%%%###############%%%%%%%%%%%%%%%###############%%%%%%%%%%%%%%%###############%%%%%%%%%%%%%%%########%+OOOOOOOO==OOOOOOOOOO==->O>#%@@@@@@@@@@@@@@@@@@@@@#@@@@@#@@@@#@@@#@@@@@   @ $ $ $  o>OOOOOOOOOOOOOOOOOOOOOOOOOO>@%#########@##%%%%%%%%%%%%%%%###############%%%%%%%%%%%%%%%###############%%%%%%%%%%%%%%%###############%%%%%%%%%%%%%%%###",
"%%%%%%%%%%%%%%%###############%%%%%%%%%%%%%%%###############%%%%%%%%%%%%%%%###############%%%%%%%%%%%%%%%########%;O=OOOOOO=OO=OO=O======>O=.%@@@@@@#@@@@@@@#@@@@@@@@@@@@@@@@#@@@#@@@@@@   @ $$$$$++X$.;=OO=OOOOOOOOOOOOOOOOOOOO;%%#############%%%%%%%%%%%%%%%###############%%%%%%%%%%%%%%%###############%%%%%%%%%%%%%%%###############%%%%%%%%%%%%%%%###",
"%%%%%%%%%%%%%%%#@###@####@####%%%%%%%%%%%%%%%#@###@####@####%%%%%%%%%%%%%%%####@####@#####%%%%%%%%%%%%%%%########%=O=>>===OOOOOO=OOO====>O>+%#@@@@@@@@@#@@#@@@@@@@@@@@@@@@#@@@@@@@@@@@@@ @@@ $$$++X.+X+.;=OOOOOOOOOOOOOOOOOOOOO*%%##############%%%%%%%%%%%%%%%#@###@####@####%%%%%%%%%%%%%%%#@###@####@####%%%%%%%%%%%%%%%#@###@####@####%%%%%%%%%%%%%%%###",
"%%%%%%%%%%%%%%%###############%%%%%%%%%%%%%%%###############%%%%%%%%%%%%%%%###############%%%%%%%%%%%%%%%#######%&OOO==OOOOO=O=O=O=O====>>#%@@@@@@@@@@@@@@@@@@@@@@@@@@@@@@@@@@@@@@#@@@@@@@ @$$ $.X+X.XXX+&>OOOOOOOOOOOOOOOOOOO+%%########@######%%%%%%%%%%%%%%%###############%%%%%%%%%%%%%%%###############%%%%%%%%%%%%%%%###############%%%%%%%%%%%%%%%###",
"%%%%%%%%%%%%%%%###############%%%%%%%%%%%%%%%###############%%%%%%%%%%%%%%%############@##%%%%%%%%%%%%%%%######%XOOOOOOOOOO=>=OOOO=O==>=>.%@@@@@@@@#@@@@@@@@@@@@@@@@@@@@@@@@@@@@@@@@@@@@ @ @ $ ++.XXXXXXX++&>OOOOOOOOOOOOOOO>#%%%###############%%%%%%%%%%%%%%%###############%%%%%%%%%%%%%%%###############%%%%%%%%%%%%%%%###############%%%%%%%%%%%%%%%###",
"%%%%%%%%%%%%%%%###############%%%%%%%%%%%%%%%###############%%%%%%%%%%%%%%%###############%%%%%%%%%%%%%%%######%=OOO=O=>====OOOO=O===>>O&%@@@@@@@@@@@@@@@@@@@@@@@@@@@@@@@@@@@@@@#@@@@@@@@@@@   +++XXXX*X:XX++;=OO=OOOOO=OOOO%%%%%############@##%%%%%%%%%%%%%%%###############%%%%%%%%%%%%%%%###############%%%%%%%%%%%%%%%###############%%%%%%%%%%%%%%%###",
"%%%%%%%%%%%%%%%########@###@##%%%%%%%%%%%%%%%########@###@##%%%%%%%%%%%%%%%##@####@#######%%%%%%%%%%%%%%%#####%&O=O===O>==OOOO=OO==>>=O-%#@ @@@@@@@@@@@@@@@@@@@@@@@@@@@@@@@@@@@@@@@@@@@@@@ @ @ +$+XXX*XX***XX$<OOOOOOOOOOO=;%%%%%#####@#########%%%%%%%%%%%%%%%########@###@##%%%%%%%%%%%%%%%########@###@##%%%%%%%%%%%%%%%########@###@##%%%%%%%%%%%%%%%###",
"%%%%%%%%%%%%%%%###############%%%%%%%%%%%%%%%###############%%%%%%%%%%%%%%%###############%%%%%%%%%%%%%%%####%;OO==O==OOOOO=O=O=======<@#@@@@@@@@@@@@@@@@@@@@@@@@@@@@@@@@@@@@@@@@@@@@@@@@@    $$$XXX***X*XXXXX+;=OOOOOO=;$# #%%%%###############%%%%%%%%%%%%%%%###############%%%%%%%%%%%%%%%###############%%%%%%%%%%%%%%%###############%%%%%%%%%%%%%%%###",
"###############%%%%%%%%%%%%%%%###############%%%%%%%%%%%%%%%###############%%%%%%%%%%%%%%%###############%%%%%>OOO==OOO==>>=======>>=-%%@@@@@@@@@@@@@@@@@@@@@@@@@@@@@@@@@@@@@@@@@@@@@@@@  @   +++.+***:**XXXXX+$+&;--;.@#@++&$%##%%%%%%%%%%%%%%%###############%%%%%%%%%%%%%%%###############%%%%%%%%%%%%%%%###############%%%%%%%%%%%%%%%###############%%%",
"###############%%%%%%%%%%%%%%%###############%%%%%%%%%%%%%%%###############%%%%%%%%%%%%%%%###############%%%%&O=OO====>=OO========>=> %@ @@@@@@@@@@@@@@@@@@@@@@@@@@@@@@@@@@@@@@@@@@@@@@@ @@ $++++X***&**:XXXX+XX$$@@@@#@$+X@--%##%%%%%%%%%%%%%%%###############%%%%%%%%%%%%%%%###############%%%%%%%%%%%%%%%###############%%%%%%%%%%%%%%%###############%%%",
"###############%%%%%%%%%%%%%%%###############%%%%%%%%%%%%%%%###############%%%%%%%%%%%%%%%###############%%%>OO=O===OO===>=O=====>=> %  @@@@@@@@@@@@@@@@@@@@@@@@@@@@@@@@@@@@@@ @@@@@ @@@@@  +.$+XX*&*&&**X*X+XXX+X++$+++++X ;>%##%%%%%%%%%%%%%%%###############%%%%%%%%%%%%%%%###############%%%%%%%%%%%%%%%###############%%%%%%%%%%%%%%%###############%%%",
"###############%%%%%%%%%%%%%%%###############%%%%%%%%%%%%%%%###############%%%%%%%%%%%%%%%###############%%%OOO==>-=OOO==>=O====>==$%@@@@@@@@@@@@@@@@@@@@@@@@@@@@@@@@@@@@@@@@ @@@@@@@@ @@   $+ XX.*&&&&:*:*XXXX++X+X$$++XXX$XO$%#%%%%%%%%%%%%%%%###############%%%%%%%%%%%%%%%###############%%%%%%%%%%%%%%%###############%%%%%%%%%%%%%%%###############%%%",
"###############%%%%%%%%%%%%%%%###############%%%%%%%%%%%%%%%###############%%%%%%%%%%%%%%%###############%%;O=O===O====O=O=====>=>o%@ @@@@@@@@@@@@@@@@@@@@@@@@@@@@@@@@@ @@@ @@ @@@ @@  @@ $ ++$XX+&:*&&**&*:*XXXXX++++$X$+XX =>%#%%%%%%%%%%%%%%%###############%%%%%%%%%%%%%%%###############%%%%%%%%%%%%%%%###############%%%%%%%%%%%%%%%###############%%%",
"###@###@###@###%%%%%%%%%%%%%%%##@###@###@####%%%%%%%%%%%%%%%##@###@###@####%%%%%%%%%%%%%%%##@###@###@####%*OOOO=====O==OO====>>O=o%@ @@@@@@@@@@@@@@@@@@@@ @@@@@@@@@@@@@@@@@@@@ @@@ @@  @ $ $X++*XX&&X*:&:&:**XXXX+XX++X$XXXX$-O*%%%%%%%%%%%%%%%%###@###@###@###%%%%%%%%%%%%%%%##@###@###@####%%%%%%%%%%%%%%%##@###@###@####%%%%%%%%%%%%%%%##@###@###@####%%%",
"###############%%%%%%%%%%%%%%%###############%%%%%%%%%%%%%%%###############%%%%%%%%%%%%%%%###############%OO=====OOOOOO========-+%@ @@@@@@@@@@@@@@@@@@@@@@@@@@@ @@@ @@@@@@@ @@@ @@ @@@@  $$+.$XXX*&*X*&&&&**:X*XXX+XX+X++XX:X:OO&%%%%%%%%%%%%%%%###############%%%%%%%%%%%%%%%###############%%%%%%%%%%%%%%%###############%%%%%%%%%%%%%%%###############%%%",
"###############%%%%%%%%%%%%%%%###############%%%%%%%%%%%%%%%###############%%%%%%%%%%%%%%%##############%#O===O=OOO=OOO=====OO- %@ @@@@@@@@@@@@@@@@@@@@@@@@@@@@@@@@@@@@ @ @@ @@ @@ @  @   +++$XX**XX&&&:*:*:XX:XXXX+X+XXXXXX::2OO+%%%%%%%%%%%%%%###############%%%%%%%%%%%%%%%###############%%%%%%%%%%%%%%%###############%%%%%%%%%%%%%%%###############%%%",
"###############%%%%%%%%%%%%%%%###############%%%%%%%%%%%%%%%###############%%%%%%%%%%%%%%%##############%;O=OOOOOO=OOO====O=>o%#@ @@@ @@@@@@@@@@@@@@@@@@@@@@@@@@@@@@@@@@@@ @@@@ @@@      $+$+XXX*XX*&&:&*:***:XXXXXXXXXXXXX:::2>O=%%%%%%%%%%%%%%###############%%%%%%%%%%%%%%%###############%%%%%%%%%%%%%%%###############%%%%%%%%%%%%%%%###############%%%",
"######@########%%%%%%%%%%%%%%%#######@####@##%%%%%%%%%%%%%%%#######@####@##%%%%%%%%%%%%%%%#############%@OOOOOO=OOO=O=OOOO-$@##   @@ @@@@@@@@@@@@@@@@@@@@@@@@@@@@@@@@@@@ @@@@@ @ @@   @  ++$+X*****:&&&*:*:*:XX:XXXXXXX:XX:::::2=O;%%%%%%%%%%%%%####@#####@####%%%%%%%%%%%%%%%#######@####@##%%%%%%%%%%%%%%%#######@####@##%%%%%%%%%%%%%%%#######@####@##%%%",
"##@#########@##%%%%%%%%%%%%%%%####@##########%%%%%%%%%%%%%%%####@##########%%%%%%%%%%%%%%%######@#####%$>OOOO=OOO=OOOO==>1#%@@  @@@@@@@@@@@#@@@@@@@@@@@@@@@@@@@@@@@@@@@@@@ @@ @@@    @ $+ +X+XXX:*:*&&&:*&&:*:XXX:XX:XXXX:X:::222OOX%%%%%%%%%%%%###############%%%%%%%%%%%%%%%####@##########%%%%%%%%%%%%%%%####@##########%%%%%%%%%%%%%%%####@##########%%%",
"###############%%%%%%%%%%%%%%%###############%%%%%%%%%%%%%%%###############%%%%%%%%%%%%%%%###@######%%*OOOOO=O=OOOO><*o.@%#@@   @ @@@@@@@@@@@@@#@@#@@#@@@@@@@@@@@@@@@@@@ @@@@ @@ @ $   $++.XX**X&*&&:&:&&:&:*:*::XXX:X:X::::::222=OO+%%%%%%%%%%%###############%%%%%%%%%%%%%%%###############%%%%%%%%%%%%%%%###############%%%%%%%%%%%%%%%###############%%%",
"########@######%%%%%%%%%%%%%%%###############%%%%%%%%%%%%%%%###############%%%%%%%%%%%%%%%########%%X=OOOO=O=OOOO>* #%###@ @   @@@@@@@@@@@@@@@@@@@@@@@@#@@#@@@#@@@@@@@@@@ @@ @ @  $  $$+XXX*X:*:&:&:&&&&:&:*:*:*::X:X:XX::::::2222OO=%%%%%%%%%%%########@######%%%%%%%%%%%%%%%###############%%%%%%%%%%%%%%%###############%%%%%%%%%%%%%%%###############%%%",
"###############%%%%%%%%%%%%%%%#########@#####%%%%%%%%%%%%%%%#########@#####%%%%%%%%%%%%%%%########%;OOO==O==OO=-&@%#@@      @@ @@@@@@@@@@@@@@@@@@@#@@@@@@@@@@@@@@#@@@@@@@@   @  @ $ $++XXX+*&X*&*&&&:&&&&:&:*:*:XX:XXX:::::::22222>OO>%%%%%%%%%%##@#########@##%%%%%%%%%%%%%%%#########@#####%%%%%%%%%%%%%%%#########@#####%%%%%%%%%%%%%%%#########@#####%%%",
"###############%%%%%%%%%%%%%%%###############%%%%%%%%%%%%%%%###############%%%%%%%%%%%%%%%######%%;OOO=====O>;$#%#@ @ @@@  @@@@@@@@@@@@@@@@@#@#@#@@@@@@@@@@#@@@#@@@@@@@@@ @@@  @  $ +.+XXXX:&*&&:*&&&&:&&:&:**:*X:X:X:::::::::22222-OO*%%%%%%%%%###############%%%%%%%%%%%%%%%###############%%%%%%%%%%%%%%%###############%%%%%%%%%%%%%%%###############%%%",
"%%%%%%%%%%%%%%%###############%%%%%%%%%%%%%%%###############%%%%%%%%%%%%%%%###############%%%%%%%&O======OO>.%%#@  @ @  @@ @@@@@@@@@@@@@@#@@@@@@@@@@#@@#@@@@@#@@@@@@@@@@@  @  @ $$$$XXXX+.X&**&&*&&&:&&&:&**:*:XX:X::::::::2222222222OO@%#######%%%%%%%%%%%%%%%###############%%%%%%%%%%%%%%%###############%%%%%%%%%%%%%%%###############%%%%%%%%%%%%%%%###",
"%%%%%%%%%%%%%%%###############%%%%%%%%%%%%%%%###############%%%%%%%%%%%%%%%###############%%%%%%*O====>===1@%@    @    @ @ @@@@@@@@@@@@@@@@@@@@@@#@@@@@@@#@@@@@@@@@@@@@ @ @ @ @$$$$+XX++X.*&&*&&&:&&&:&&:&**:*:X:::::::::::::222222222O>%#######%%%%%%%%%%%%%%%###############%%%%%%%%%%%%%%%###############%%%%%%%%%%%%%%%###############%%%%%%%%%%%%%%%###",
"%%%%%%%%%%%%%%%###############%%%%%%%%%%%%%%%###############%%%%%%%%%%%%%%%###############%%%%%&O===>===>*##@@@@@@  @ @@@@@@@@@@@@@@@@#@@@#@@#@@@@@@#@#@@@@@@@#@@@@@@@ @  @@   ++$$+X. +XX*&&*&&*&&:&&&:&*:::::*::::::::::222222222222>OX%######%%%%%%%%%%%%%%%###############%%%%%%%%%%%%%%%###############%%%%%%%%%%%%%%%###############%%%%%%%%%%%%%%%###",
"%%%%%%%%%%%%%%%###############%%%%%%%%%%%%%%%###############%%%%%%%%%%%%%%%###############%%%%XOO>>=->>< %@@@ @ @ @@ @@@@@@@@@@@@@@@@@@@@@@@@@@@@@@@@@@@@@@@@@@@@@@@@ @@@   $  ++ $++++XXX*&&*X**&&&&;&&&:&&&*::::::::::::2:22222222222O=#%#####%%%%%%%%%%%%%%%###############%%%%%%%%%%%%%%%###############%%%%%%%%%%%%%%%###############%%%%%%%%%%%%%%%###",
"%%%%%%%%%%%%%%%###############%%%%%%%%%%%%%%%###############%%%%%%%%%%%%%%%###############%%%$OO--==>><$@@@@ @@@@ @ @@@@ @@ @@@@@@@@#@@#@@@@@@#@@#@@@#@@@@#@@@@@@@@@ @         $  +$++XX*X:*XXX:&:&:&&:&:&::::*::*:::::::2:22222222222:2O*%#####%%%%%%%%%%%%%%%###############%%%%%%%%%%%%%%%###############%%%%%%%%%%%%%%%###############%%%%%%%%%%%%%%%###",
"%%%%%%%%%%%%%%%####@###@###@##%%%%%%%%%%%%%%%####@###@###@##%%%%%%%%%%%%%%%###@###@###@###%%%=O>>>>>=-.#@ @@@@ @@@@@@@@@@@@@@@@@@@#@@@@@@#@@#@@@@@@@@@@@@@@@@@@@@@@  @         $  +$X +*****XX**&&&:&&&:&&&&&::*:::::::::2:2222222222222O=%#####%%%%%%%%%%%%%%%####@###@###@##%%%%%%%%%%%%%%%####@###@###@##%%%%%%%%%%%%%%%####@###@###@##%%%%%%%%%%%%%%%###",
"%%%%%%%%%%%%%%%###############%%%%%%%%%%%%%%%###############%%%%%%%%%%%%%%%###############%%XO>;--&&;$#@@@@@@@@@@@@@@@@@@@@@@@@@@@@@@@@@@@@@@@@#@@@@@@#@@@@@@@@@  @  @  @   @  +$$$+X+X*XX*:X+&:*:&:&&&::&:::&:::::::::22:22222222222222>O %####%%%%%%%%%%%%%%%###############%%%%%%%%%%%%%%%###############%%%%%%%%%%%%%%%###############%%%%%%%%%%%%%%%###",
"%%%%%%%%%%%%%%%###############%%%%%%%%%%%%%%%###############%%%%%%%%%%%%%%%###############%%>O>>>-&+ #@@@@@@@@@@@@@@@@@@@@@@@@@@@@#@#@@#@@@@@@@@@@@#@@@@@#@@@@@ @     @ @@     +$$+.XXX+XX&*$X&*X*&&:&:&&:&:*::&:::::2::222222222222222:2O>%####%%%%%%%%%%%%%%%###############%%%%%%%%%%%%%%%###############%%%%%%%%%%%%%%%###############%%%%%%%%%%%%%%%###",
"%%%%%%%%%%%%%%%###############%%%%%%%%%%%%%%%###############%%%%%%%%%%%%%%%###############%@O=>>-*+##@@@@@@@@@@@@@@@@@@@@@@@@@#@@@@@@@@@@#@@@@@@@@@@@@@@@@@@@    @ @@@  @  @ $  $++XXXXXXX&.@X*X*&&:&&:&:&::&::::::::2:22222222222222222:>OX%###%%%%%%%%%%%%%%%###############%%%%%%%%%%%%%%%###############%%%%%%%%%%%%%%%###############%%%%%%%%%%%%%%%###",
"%%%%%%%%%%%%%%%#@###@####@####%%%%%%%%%%%%%%%#@###@####@####%%%%%%%%%%%%%%%#####@########%#=O>>=-+#@@@@@@@@@@@@@@@@@@@@@@@@@@@@@@#@@@@#@@@@@@@@@@@@@@@@@@@ @     @ @@@ @@  @ ++  ++XXXXXXX*+.**X&&&*&&*:&:*::&:&:&:2:2:22222222222222222:2O>%###%%%%%%%%%%%%%%%####@####@#####%%%%%%%%%%%%%%%#@###@####@####%%%%%%%%%%%%%%%#@###@####@####%%%%%%%%%%%%%%%###",
"%%%%%%%%%%%%%%%###############%%%%%%%%%%%%%%%###############%%%%%%%%%%%%%%%#########@###%@=O==>>X#@@@@@@@@@@@@@@@@@@#@@#@@#@@#@@@@@@@@@@@@@@@@@@@@@@@@@@@@@ @@  @@@ @ @@  @ $$$  +X+*XXXX**X*:X*&:&:&:&&:&:&&::::2:;:22222222222222222222:=O#%##%%%%%%%%%%%%%%%###############%%%%%%%%%%%%%%%###############%%%%%%%%%%%%%%%###############%%%%%%%%%%%%%%%###",
"%%%%%%%%%%%%%%%###############%%%%%%%%%%%%%%%###############%%%%%%%%%%%%%%%#############%>O==>-+%@@#@@@@@@@@@@@@@@@@@@@@@@@@@@@@@@#@@#@@@#@@@@@@@@@@@@@@  @ @ @ @ @@ @  $  $+ @$+XXX*XX**:XX*&**&&&&&&&:*&&:&&:&:&2:2:222222222222222222::2O-%##%%%%%%%%%%%%%%%############@##%%%%%%%%%%%%%%%###############%%%%%%%%%%%%%%%###############%%%%%%%%%%%%%%%###",
"%%%%%%%%%%%%%%%###############%%%%%%%%%%%%%%%###############%%%%%%%%%%%%%%%############%;O==>=&%@@@@@@@@@@@@@@@@@@@@#@@@#@@@@@#@@@@@@@@#@@@@@@@@@@@@@@@ @@ @  @@  @       $+$ +$+X*X***&*XXX*&*:&:&:&:&:&&:*&&:&:2&2222222222-22222222222::>OX%#%%%%%%%%%%%%%%%###############%%%%%%%%%%%%%%%###############%%%%%%%%%%%%%%%###############%%%%%%%%%%%%%%%###",
"%%%%%%%%%%%%%%%########@###@##%%%%%%%%%%%%%%%########@###@##%%%%%%%%%%%%%%%###@#######%$OO====.%@@@@@@@@@@@@@@@@@@@@@@@@@@@@#@@@@@@@@@@@@@@@@@@@@@@ @ @ @@  @   @  @   $  $$ +X++X*X*X**&*XX*&**&*&&*&&:&:&:&:&&::2;2222222-22222222222:2::2OO#%%%%%%%%%%%%%%%%##@####@#######%%%%%%%%%%%%%%%########@###@##%%%%%%%%%%%%%%%########@###@##%%%%%%%%%%%%%%%###",
"%%%%%%%%%%%%%%%###############%%%%%%%%%%%%%%%###############%%%%%%%%%%%%%%%###########%;O====*%@@@@@@@@@@@@@@@@@@#@@@#@@@@#@@@@@#@@#@@@#@@@@@@@@@@@@ @ @@      @   @     $$$$+X+.X**XXX**&XX&*:*:&:&:&:&&:*&2&;2&2;2;2222-22222222222222:2::=O;%%%%%%%%%%%%%%%%###############%%%%%%%%%%%%%%%###############%%%%%%%%%%%%%%%###############%%%%%%%%%%%%%%%###",
"###############%%%%%%%%%%%%%%%###############%%%%%%%%%%%%%%%###############%%%%%%%%%%%%-O===<##@#@#@@@#@@#@@@@@@@@@@@@@#@@@@@@@@@@@@@@@@@@@@@@ @@ @ @ @    @ @  @    $$$$+$++..XXXX*X**XX*XX**:***&:*:&&&&:&;&;;;:;2222-222-2222222222:22:::>O>%###############%%%%%%%%%%%%%%%###############%%%%%%%%%%%%%%%###############%%%%%%%%%%%%%%%###############%%%",
"###############%%%%%%%%%%%%%%%###############%%%%%%%%%%%%%%%###############%%%%%%%%%%%%=O==>+#@@@@@@#@@@@@@@@@#@@@#@@@@@@@@@#@@#@@@@#@@@@@@@@ @@ @   @             @  $$++$+.X.X.XXXX***XXX***:*:&:&&&:&&&&&2;:;2;2;;2;22222222222222:2:2:::2O=%%##############%%%%%%%%%%%%%%%###############%%%%%%%%%%%%%%%###############%%%%%%%%%%%%%%%###############%%%",
"###############%%%%%%%%%%%%%%%###############%%%%%%%%%%%%%%%###############%%%%%%%%%%%#O===;#@@@@@@@@@@@#@@@#@@@@@@@#@@@@@#@@@@@@@#@@@@@@@@@@@ @@  @@          @     $++++$+++XX.XX*X.X*XX*:*X*:*&**&:*:&&;;;&2;;;;2;2;22-22-2222222:2:2:::::OO+%##############%%%%%%%%%%%%%%%###############%%%%%%%%%%%%%%%###############%%%%%%%%%%%%%%%###############%%%",
"###############%%%%%%%%%%%%%%%###############%%%%%%%%%%%%%%%###############%%%%%%%%%%%*O==>X#@@@@@#@@#@@@@#@@@@@#@@@@@#@@@@@@@#@@@@@@#@@@ @  @@ @                 $ $+++X++X..XXXXX*X.X*X*X**:*&:&&:&&&:&;;2;;;2;2;2;;2;22222222222222:::2:::=O-%##############%%%%%%%%%%%%%%%###############%%%%%%%%%%%%%%%###############%%%%%%%%%%%%%%%###############%%%",
"###############%%%%%%%%%%%%%%%###############%%%%%%%%%%%%%%%###############%%%%%%%%%%%=O=>-+@ @@@@@@@@@@@@@@@@@@@@@@@@@@#@#@@@@@@@#@@@@@@@@@@@ @ @  @   @$   $   $$$$++++++.XXXX..XXXXXX**X******:&&&&&&;;;;;;;2;;2;22;2-2;2-2222222:2::::::$>OO#%#############%%%%%%%%%%%%%%%###############%%%%%%%%%%%%%%%###############%%%%%%%%%%%%%%%###############%%%",
"###@###@###@###%%%%%%%%%%%%%%%##@###@###@####%%%%%%%%%%%%%%%##@###@###@####%%%%%%%%%%#OO==;#@ @@@@@@@@@#@@@@@#@@@@#@@#@@@@@@@@@@@@@@@@@@@@@ @ @ @            $$  $$$++++X+XXXX+XXXXX*******:***:*&&&&;;&;;;2;2;;2;;2;2;22;22222222222:2:::::$;OO&%####@###@####%%%%%%%%%%%%%%%##@###@###@####%%%%%%%%%%%%%%%##@###@###@####%%%%%%%%%%%%%%%##@###@###@####%%%",
"###############%%%%%%%%%%%%%%%###############%%%%%%%%%%%%%%%###############%%%%%%%%%%;O===;@@@@@@#@@@#@@@@#@@@@@#@@@@@@@@@@@@@@@@@@@@@@@@@@@@@    @      $   $$  $++++X.X..XXX.XXXX*X***X******&&&&&;;;;&;;;;;;2;;2;2;2;2;2;2;22222222::2:::::OO=#%############%%%%%%%%%%%%%%%###############%%%%%%%%%%%%%%%###############%%%%%%%%%%%%%%%###############%%%",
"###############%%%%%%%%%%%%%%%###############%%%%%%%%%%%%%%%###############%%%%%%%%%#OO=O-.@ @@@@@@@@@@@@@@@@@@@@@@@@@@@@@#@@#@@@#@@@@@@@@ @  @@        @$   $$  $++++.X.+XXX.XXXXX*X******&*:&&&&&;;;;;;;;;2;;;2;;2;2;2;2;2;2222::2:2::::::X:OOO&%############%%%%%%%%%%%%%%%###############%%%%%%%%%%%%%%%###############%%%%%%%%%%%%%%%###############%%%",
"###############%%%%%%%%%%%%%%%###############%%%%%%%%%%%%%%%###############%%%%%%%%%-O=O>X  @@@@@@@@@@@#@@@#@@#@@@@@@@@@@@@@@@@@@@@@@@@@@ @@@ @ @  @      $  $$$$++++++X.+.X.XXX.X*X******&**&&&&;&;;;;;;;;;;;2;;;2;;;2;2;2;222222:22::::::::+=OOO#%###########%%%%%%%%%%%%%%%###############%%%%%%%%%%%%%%%###############%%%%%%%%%%%%%%%###############%%%",
"######@########%%%%%%%%%%%%%%%#######@####@##%%%%%%%%%%%%%%%#######@###@###%%%%%%%%XOO==-X  @@@@@@@@@#@@@@@@@@@@@@#@@@#@@@@@@@@@@@@@@@@@ @@         @ $$$$  $$ $+$+X+++..++X+XXXXXX********&&&&&;&;;;;;;;;;2;;;;2;;2;2;2;2;2;2;22:22:::2:::::+>OOO;%###########%%%%%%%%%%%%%%%#######@####@##%%%%%%%%%%%%%%%#######@####@##%%%%%%%%%%%%%%%#######@####@##%%%",
"##@#########@##%%%%%%%%%%%%%%%####@##########%%%%%%%%%%%%%%%####@##########%%%%%%%+OOO=O=:@@@ @@@@@#@@@@@@#@@@@@@@@@@@@@@@@@@@@@@@@@@@@@ @@ @ @  @     $$$ $$$$+++++.+++X..XX.XX.Xo*X****&*&&&;&;;;;;;;2;;;;;;;;;;2;;;;2;2;2;2;22:2:2:::::::XX>OOOO$%#######@##%%%%%%%%%%%%%%%####@##########%%%%%%%%%%%%%%%####@##########%%%%%%%%%%%%%%%####@##########%%%",
"###############%%%%%%%%%%%%%%%###############%%%%%%%%%%%%%%%###############%%%%%%#OO====>+   @@@@@@@@@@@@@@@@@@@@@@@@@@@@@@@@@@@@@@@@@@ @ @ @        $ $$$  $$$++$+X.+++..XX.XXoX******&*&*&&&1&;;;;&;;;;&;;;2;;;2;;2;2;2;2;2;2:2:2:::::::::X$;OOOO-%##########%%%%%%%%%%%%%%%###############%%%%%%%%%%%%%%%###############%%%%%%%%%%%%%%%###############%%%",
"########@######%%%%%%%%%%%%%%%###############%%%%%%%%%%%%%%%###############%%%%%%>O===O=;#$$ @@@@@@@@@@#@@#@@@@#@@@@@@@@@@@@@@@@@@@@@@@@ @ @   @       $$$  $+++++++++++.X.X.XoX*X****&*&&&&&&&;1&;&&&;&;2;;;;;;;;;;;;;2;;2;2;22:2:2::::::::: :=OOOO@%#########%%%%%%%%%%%%%%%###############%%%%%%%%%%%%%%%###############%%%%%%%%%%%%%%%###############%%%",
"###############%%%%%%%%%%%%%%%#########@#####%%%%%%%%%%%%%%%###############%%%%%&O=OO=O=* $  @ @@@@@@@@@@@@@@@@@@@#@@#@@@@@@@@@@#@@@@@@ @   @         $ $$  +++.++++X..+.XXo*oX*o***&*&&&1&&&&&&&&&&&&&;;&;;;;;;2;2;2;2;;2&2;:::2:2:2::::::::$:=OOOO;%#########%%%%%%%%%%%%%%%#########@#####%%%%%%%%%%%%%%%#########@#####%%%%%%%%%%%%%%%#########@#####%%%",
"###############%%%%%%%%%%%%%%%###############%%%%%%%%%%%%%%%###############%%%% O==O=O=>X$  @  @@@@@@@#@@@@#@@@@@@@@@@@@@@@@@@@@@@@@@@@@@@@           $+$  $+..+$++++X.X..Xo*o******&*&&&&1&&&&&&&&&&&;&&;;;&;;;;;;;;;;;2;2:22&::::::::::::::$;OOOOOO#%########%%%%%%%%%%%%%%%###############%%%%%%%%%%%%%%%###############%%%%%%%%%%%%%%%###############%%%",
"%%%%%%%%%%%%%%%###############%%%%%%%%%%%%%%%###############%%%%%%%%%%%%%%%##%%=O=O==O=-X@ $  @  @@@@@@@#@@@@@@@@@@@@@@@@@#@@@@@@@@@@@@@@  @        $ $+$ $$+++++++.....Xo*oX*o**&&&&&1&&&&&1&&&*&&&&;;&;;;&&;;;&;;2;;2&:;2:2&2:2:2:::::::XX:$:OOOOOO-%%%%%%%%%###############%%%%%%%%%%%%%%%###############%%%%%%%%%%%%%%%###############%%%%%%%%%%%%%%%###",
"%%%%%%%%%%%%%%%###############%%%%%%%%%%%%%%%###############%%%%%%%%%%%%%%%##%&OO====O=>X#+$  @   @@@@@@@@@@@@@@@@@@@@@@@@@@@@@@@@@@@@@@ @@       $ $ $+$$$++..+....XXXoXoXo*****,*&,&&&&1*&&&&&*&&&&&;;;&;;&&;;&;&;&&;2:&;:2&::2::::::::::X:+X=OOOOOO;%%%%%%%%###############%%%%%%%%%%%%%%%###############%%%%%%%%%%%%%%%###############%%%%%%%%%%%%%%%###",
"%%%%%%%%%%%%%%%###############%%%%%%%%%%%%%%%###############%%%%%%%%%%%%%%%#%#=O===O=O=; $X$ @ @@@@@@@@@@@@@@@@@@@@@@@@@@@@@@@@@@@@@@@@@@  @     $ $$$++$$$+.+...+..oooXo*o**,***&&&&&1*&&&&&*&&&*&&&&&&&;&;;&;;;;&;2;2&2;2:2;2:::::::::::X::X+=OOOOOOO+%%%%%%%###############%%%%%%%%%%%%%%%###############%%%%%%%%%%%%%%%###############%%%%%%%%%%%%%%%###",
"%%%%%%%%%%%%%%%###############%%%%%%%%%%%%%%%###############%%%%%%%%%%%%%%%#%;O======O=&$++ @@  @@@@@@#@@@@@@@@@@@@@@@@@@@@@@@@@@@@@@@@@@@ @   $  $$+$$++$$+...+...XoXoo*o**o*,&*,&1*&***&*&1&**&&&&&;1&&;&&;;&;;2;&;&;&:;&:22:2::2::::::X:XXXX>OOOOOOO-%%%%%%%###############%%%%%%%%%%%%%%%###############%%%%%%%%%%%%%%%###############%%%%%%%%%%%%%%%###",
"%%%%%%%%%%%%%%%###############%%%%%%%%%%%%%%%###############%%%%%%%%%%%%%%%##===OOO===-&$$$ @ @ @@@@@@@@@@@@#@@@@@@@@@@@@@@@@@@@@@@@@@@@@ @      $$+$$+++$$+.o+...oooo*ooo*,**&***&&*o***&**&&&**&&&;&&&;&&&;&&;&;;&;;;2&;&:&:;:::::::::X:X:XX+-OOOOOOO>%%%%%%%###############%%%%%%%%%%%%%%%###############%%%%%%%%%%%%%%%###############%%%%%%%%%%%%%%%###",
"%%%%%%%%%%%%%%%####@###@###@##%%%%%%%%%%%%%%%####@###@###@##%%%%%%%%%%%%%%%%X==OO====O=*@+$  @ @@ @ @@@@@#@@@@@@@@@@@#@@@@@@@@@@@@@@@@@ @  @      $+$$$+++$..o.o.Xoooo*o*o****,&,*,**oX*&&****&**&&&&&;&&;;;&;&&;;&2;&;;:;2;;:::2::::::::X:XX:$;=OOOOOO>%%%%%%%####@###@###@##%%%%%%%%%%%%%%%####@###@###@##%%%%%%%%%%%%%%%####@###@###@##%%%%%%%%%%%%%%%###",
"%%%%%%%%%%%%%%%###############%%%%%%%%%%%%%%%###############%%%%%%%%%%%%%%%%-O=====O==>+@+$  @ @@@ @@@@@@@@@@@@@@#@@@@@@@@@#@@@@@@@@@@@@@ @@ @    $+ $+..++.oooooooo**,***,&1****&***oo****&*&&*&&&1&&&&;&;&;&;&&&;;&&;;&;&:2::2::::::::X::X:X$:=OOOOOO-%%%%%%%###############%%%%%%%%%%%%%%%###############%%%%%%%%%%%%%%%###############%%%%%%%%%%%%%%%###",
"%%%%%%%%%%%%%%%###############%%%%%%%%%%%%%%%###############%%%%%%%%%%%%%%%#OO=O==O=>=;#$+     @@ @@@@@@@@@@@@@@@@@@@@@@@@@@@@@@@@@@@@@ @ @ @ $  $$$ $+..++.ooooooo*oo**,&,**,*,*,o*oo***&,&***&&**&&&&;;&&;;&&;&&&;;&;2&:;;&::&::::::::XX:XX:+X=OOOOOO;%%%%%%%###############%%%%%%%%%%%%%%%###############%%%%%%%%%%%%%%%###############%%%%%%%%%%%%%%%###",
"%%%%%%%%%%%%%%%###############%%%%%%%%%%%%%%%###############%%%%%%%%%%%%%%%.O===OO==O> #++$  @@ @ @@@@@@@@@@@@@@@@@@@@@@@@@@@@@@@#@#@@@@@@ @    @ $  $+..$+.ooooo.o,o,*,*,*,*o*oo**o***,o*&&***&&&*&1&&;&&;;&&;;;&&&&:;&&;2&:&:2:::::::X:X:X:X$X=OOOOOO&%%%%%%%###############%%%%%%%%%%%%%%%###############%%%%%%%%%%%%%%%###############%%%%%%%%%%%%%%%###",
"%%%%%%%%%%%%%%%#@###@####@####%%%%%%%%%%%%%%%#@###@####@####%%%%%%%%%%%%%%%;O========;# ++$  @@  @@@@@@@@@@@@@@@@@@@@@@@@@@@@@@@@@@@@  @@@@ @  @@ $ @$+++ +.oooo..oo*o*,,*,*,o*oo**oo&&o.**&&&*&&&*&&&&;&&;;;&;;&;&;;&;;&&;&:&:::::::::::XX:XX:$-OOOOOOX%%%%%%%###@#####@#####%%%%%%%%%%%%%%%#@###@####@####%%%%%%%%%%%%%%%#@###@####@####%%%%%%%%%%%%%%%###",
"%%%%%%%%%%%%%%%###############%%%%%%%%%%%%%%%###############%%%%%%%%%%%%%%%>O=O====O>&$ $+  @@ @@ @ @@@@@@@@@@@@@@@@@@@@@@@@@@@@@@@@@@@ @@ @   @@ $  $+++$$.ooo.ooo,oo,*oo,*oo*oooooo*,oo***1&*&;&&1&1&1;;;&&&;&&;&;;&;;;&::&::::::::::X::X:X:X$X>OOOOO+%%%%%%%###############%%%%%%%%%%%%%%%###############%%%%%%%%%%%%%%%###############%%%%%%%%%%%%%%%###",
"%%%%%%%%%%%%%%%###############%%%%%%%%%%%%%%%###############%%%%%%%%%%%%%%%>O=O=====;X+ $$   @ @@@ @@@@@@@@@@@@@@@@@@@@@#@@@@@@@@@@@@@@@@@ @  @@  $  $$++$ .oo+.oooooooooo*,oo*,o*o*,****,&*&1**&;&&&&;&&;&;&&&;&&;;;;:&:;&::&:2::::::::X:X:XX:X+-OOOOO@%%%%%%%############@##%%%%%%%%%%%%%%%###############%%%%%%%%%%%%%%%###############%%%%%%%%%%%%%%%###",
"%%%%%%%%%%%%%%%###############%%%%%%%%%%%%%%%###############%%%%%%%%%%%%%%%>O==O=OO>&+  $+$ @  @ @@@@@@@@@@@@@#@@@@@@@@@@@@@@@@@#@@@@@@ @ @ @@@@ $     ++$ +oo++.oo..oo,ooo&ooo,*oo,*o**&;&o*&&*&1&&1;&1&&&;&&&;&;&;;;&;&;:&:&:::::::::X::XX::XXX2OOOOO%%%%%%%%######@########%%%%%%%%%%%%%%%###############%%%%%%%%%%%%%%%###############%%%%%%%%%%%%%%%###",
"%%%%%%%%%%%%%%%########@###@##%%%%%%%%%%%%%%%########@###@##%%%%%%%%%%%%%%%-O=OOO===;+ $+   @  @  @ @@@@@@@@@@@@@@@@@@@@@@@@@@@@@@@@@@@@@@@@ @@@  $   $+$ $+..+......ooooo*,ooo*,,o,**,*,;&o*&1&*&;&&;&&;;&;&&&;;&;&;;&2&&2&:&::::::::::::X:X:::X-OOOOO.%%%%%%%###############%%%%%%%%%%%%%%%########@###@##%%%%%%%%%%%%%%%########@###@##%%%%%%%%%%%%%%%###",
"%%%%%%%%%%%%%%%###############%%%%%%%%%%%%%%%###############%%%%%%%%%%%%%%%;O======>*@ $+     @@ @@@@@@@@@#@@@@@@@@#@@@@@@@@#@@@@@@@@@@@ @ @ @@       +$  $++$+......ooo.oo,*oo,**,**&*o*&1**&;&**;&&1&1;&;&&&&&;;&&&;;;&&;:&&::2:::::::X::::::X$-OOOOO-%%%%%%%###############%%%%%%%%%%%%%%%###############%%%%%%%%%%%%%%%###############%%%%%%%%%%%%%%%###",
"###############%%%%%%%%%%%%%%%###############%%%%%%%%%%%%%%%##############%*O=====O- #$   $ @@ @ @@@@@@@@@@@@@@@@@@@@@@@@@@@@@@@@@@@@@@@ @@@@ @    @ $$  $++$$$..+...oo+.ooo,o.o,**,*&*oo&&***1&oo&&*&&&1;&;&&&&&;;&;&;;;&:&:;::::2::::::::X::::$;OOOOOO$%#####%%%%%%%%%%%%%%%###############%%%%%%%%%%%%%%%###############%%%%%%%%%%%%%%%###############%%%",
"###############%%%%%%%%%%%%%%%###############%%%%%%%%%%%%%%%##############%XO=OOO==;@@$$ $   @@ @ @ @@@@@@@@@@@@@@@@@@@@@@@@@@@@@@@@@@@@@@@@  @      $    $$   .+$+.+o. +oooo.+o,*o*o*,**&1***;&*o*&&&&&&;&;&&&*&;&;;&;&2;&:&;::::::::::X::::::: X=OOOOO>%#####%%%%%%%%%%%%%%%###############%%%%%%%%%%%%%%%###############%%%%%%%%%%%%%%%###############%%%",
"###############%%%%%%%%%%%%%%%###############%%%%%%%%%%%%%%%##############%$O=====>*@ $$$    @ @ @@@@@@@@@@@#@@@@@@@@@@@@@@@@@@@@@@@@@ @@@ @ @              $ $.+ .+$o. $ooo,+$o,o*o.*,ooo&&*,&;***&;&**&;;;&;&&&&;;&;&&;;;:&;2:::2::::::::::::::$-OOOOOO&%####%%%%%%%%%%%%%%%###############%%%%%%%%%%%%%%%###############%%%%%%%%%%%%%%%###############%%%",
"###############%%%%%%%%%%%%%%%###############%%%%%%%%%%%%%%%##############%#O====O>X@$$$$@   @@@ @@@@@@@#@@@@@@@@@@@@@@@@@@@@@@@@@@@@@@@@@@ @    @         $ @$.$$.+$oo$$o..o+@.ooo.+oo*,o*&*o&1&**&;&**&;;;&&;&&&;;;;&;;&::&;2:2:::::::X:::::::X@;OOOOOOO %###%%%%%%%%%%%%%%%###############%%%%%%%%%%%%%%%###############%%%%%%%%%%%%%%%###############%%%",
"###############%%%%%%%%%%%%%%%###############%%%%%%%%%%%%%%%###############%OOO=O=-+ $$$ @   @@@ @@@@@@@@@@@@@@@@@@@@@@@#@@@@@@@@@ @@@@@@@@@ @   @  @         $.$$.$ oo$+o+.o+ .o,o..ooo*o*&*o*&1&*&&;&*&;;;;;;&&&;&;;:;&2;;:;:::&2:::::::::::::: ;OOOOOOO=%%##%%%%%%%%%%%%%%%###############%%%%%%%%%%%%%%%###############%%%%%%%%%%%%%%%###############%%%",
"###@###@###@###%%%%%%%%%%%%%%%##@###@###@####%%%%%%%%%%%%%%%###@###@#######%=O==O=;@  $$@    @@ @@@@@@@@@@@@@@@@@#@@@@@@@@@@@@@@@#@ @@@ @ @@    @   @ @      $$$  .$$o. .. .o+$+oo..oo*ooo*&*o**&1&&&;&&&&;;;;;&;&;;&;;;&&&:;2:2::;::::::::::::::$:OOOOOOOO;%##%%%%%%%%%%%%%%%##@###@###@####%%%%%%%%%%%%%%%##@###@###@####%%%%%%%%%%%%%%%##@###@###@####%%%",
"###############%%%%%%%%%%%%%%%###############%%%%%%%%%%%%%%%###############%>O==O=*@  $$@   @@ @@ @@@@@@@@@@@@@@@@@@@@@@@@@@@@@@@@ @@@@   @@   @@@      +    $$$ $.$.o+@.o$+.++..oooooo*oo,&&**,&&;&1&&&1&1&;;;;&;;;;;;;2;;:;&::;:::2::::::X::::::X=OOOOOOOOX%#%%%%%%%%%%%%%%%###############%%%%%%%%%%%%%%%###############%%%%%%%%%%%%%%%###############%%%",
"###############%%%%%%%%%%%%%%%###############%%%%%%%%%%%%%%%###############%-O===>+@$$$ @    @ @ @@@@@@@@@@@@@@@@@@@@@@@@@@@@@@@@@@@@@  @@@           @$$    $+$ $$ .o$@+.++.++...oo.oooooo&&oo&&1&;&&&&;&;;;;;;&;;;;;;;;;:;;&::;:&2:::::::::::::XX>OOOOOOOOO#%%%%%%%%%%%%%%%%###############%%%%%%%%%%%%%%%###############%%%%%%%%%%%%%%%###############%%%",
"###############%%%%%%%%%%%%%%%###############%%%%%%%%%%%%%%%##########@####%;O==O>@@ $$ @  @   @@@@@@@@@@@@#@@@@@@@@@@@@@@@@@@@@@@@@@ @ @@@   @ @ @    $$    $+$    ..$ $.+$.$$.o..o..o*o.o*;*.&&&&1&&1;;;&;1;;;&&;;;;;;;;;:;;::2::::2::::::::::::X>OOOOOOOOO>%%%%%%%%%%%%%%%%###############%%%%%%%%%%%%%%%###############%%%%%%%%%%%%%%%###############%%%",
"######@########%%%%%%%%%%%%%%%#######@####@##%%%%%%%%%%%%%%%####@##########%.O===-@$         @@@@@@@@@@@@@@@@@@@@@@@@@@@@@#@@@@@ @@@@  @@@      @    @ $ @$  $+$   @+.$$+.$$.$$.o+.o..o*o.o*;*.*&1&&&;&&&;1;;;;;;&&;;;2;;;2&:;&:&2&:::::::::::::::+-OOOOOOOOOO-%%%%%%%%%%%%%%%#######@####@##%%%%%%%%%%%%%%%#######@####@##%%%%%%%%%%%%%%%#######@####@##%%%",
"##@#########@##%%%%%%%%%%%%%%%####@##########%%%%%%%%%%%%%%%###############%#OOO=& $@       @@ @@ @@ @@@@@@@@@@@@@@@@@#@@@@@ @@@@@@@ @@@@@    @ @ @    $ @$$$$$$ $ @$++++.$+. $..+.oo.o*o+.*;&o*&&&&1&;&&;;&;&;;;&;;2;;;;;;;;:2:2&2&::::::::::::::X;OOOOOOOOOOO$%%%%%%%%%%%%%%####@##########%%%%%%%%%%%%%%%####@##########%%%%%%%%%%%%%%%####@##########%%%",
"###############%%%%%%%%%%%%%%%###############%%%%%%%%%%%%%%%###############%%=OO=X@$ $ @    @@@@@@ @@@@@@@@@@@@#@@@#@@@@@@@@@@@@@ @  @@@@   @ @     @       $$ $$$$ $+.++.+..$ ..$+oo+.**+.*&&*&1&1&;&1&&;;;;&&;;;;;;;;2;;2;::;::2&2:::2::::::::::X;OOOOOOOOOOOO#%%%%%%%%%%%%%###############%%%%%%%%%%%%%%%###############%%%%%%%%%%%%%%%###############%%%",
"########@######%%%%%%%%%%%%%%%###############%%%%%%%%%%%%%%%########@######%%OO=-@$$        @ @@@ @@@@ @@@@@@@@@@@@@@@@@@@@@ @@ @ @ @@@@  @  @@  @   @ $  $ $$ $$$$ $+..$+..++$..$+oo..*o.o*&&*&&&&&1&;&1&&;;&&;;;2;;;;&;;;;;:;;:::;::::::::::::::X:OOOOOOOOOOOO>%%%%%%%%%%%%%###############%%%%%%%%%%%%%%%###############%%%%%%%%%%%%%%%###############%%%",
"###############%%%%%%%%%%%%%%%#########@#####%%%%%%%%%%%%%%%##@############%@OO=&@+ $       @ @@@ @@@ @@@@@@@@@@@@@@@@@@@@@@@@@@@ @@@@@   @ @@@          $    $$$+$ $+..$$..$+++o$ .oo.oooo*,&*&1&&1&&&;&*&;;&&;&;;;;2;;;2&2&2&;:2:2::2::::::::::::X=OOOOOOOOOOOO&%%%%%%%%%%%%#########@#####%%%%%%%%%%%%%%%#########@#####%%%%%%%%%%%%%%%#########@#####%%%",
"###############%%%%%%%%%%%%%%%###############%%%%%%%%%%%%%%%###############%XOOO; $ $     @ @ @@ @@@@@@@@@@@@@@@@@@@@@@@@@@@@@@ @@@@@@@   @@@@@    $ @ $ $$$  $$$++$$$.. $.+$+.+.$ .o*.ooo,**1&&&1*&&1&;&*&;;&&;&;;;;;;;;;2&;2&2::&:2::::2::::::::::=OOOOOOOOOOOOO %%%%%%%%%%%###############%%%%%%%%%%%%%%%###############%%%%%%%%%%%%%%%###############%%%",
"%%%%%%%%%%%%%%%###############%%%%%%%%%%%%%%%###############%%%%%%%%%%%%%%%%;OOO* X$$@    @   @@@@@@ @@@@@@@@@@@@@@@@@@@@@@@@@@@@@@@@   @@ @@@   @   @ $ $$ $$$$$+.+$$..  .+$+.+.$ +ooooo**,*&*1&&&1&&&&;&&&;&;;&;;;;;2&;;;:;2&2&:2:&:2::::::::::::X>OOOOOOOOOOOOOO#%#########%%%%%%%%%%%%%%%###############%%%%%%%%%%%%%%%###############%%%%%%%%%%%%%%%###",
"%%%%%%%%%%%%%%%###############%%%%%%%%%%%%%%%###############%%%%%%%%%%%%%%%%=OO=+ X  @    @@@ @@ @@@@@@@ @@@@@@@@@@@@@@@@@@@@ @@@@@@@  @@ @ @@@      @ $    $+$$$...+$.+  ++$++..+$+oo*ooo,&*,**&;&&*&&&&&&&;;&&&&;;;;;;;;2&;;:;&:::2::::::::::::::X>OO===OOOOOOOOO-%%########%%%%%%%%%%%%%%%###############%%%%%%%%%%%%%%%###############%%%%%%%%%%%%%%%###",
"%%%%%%%%%%%%%%%###############%%%%%%%%%%%%%%%###############%%%%%%%%%%%%%%%XOOO>@$+ @     @ @ @@ @@ @@@@@@@@@@@@@@@@@@@@@@@@@@@@@@@@ @  @@ @@   @   @  $    ++$ $...+$+.$ $++.o+.+.ooooo*o*,*&**&1&&,&1&;&&&;&&&;&&;;;;;;;;:&;&:2;::;:::::2::::::::X;OO=>>=OOOOOOOOO;%########%%%%%%%%%%%%%%%###############%%%%%%%%%%%%%%%###############%%%%%%%%%%%%%%%###",
"%%%%%%%%%%%%%%%###############%%%%%%%%%%%%%%%###############%%%%%%%%%%%%%%%=OOO>$$+ @    @     @@@@ @@@@@@@@@@@@@@@@@@@@@ @@@@@@@@@@  @@@@ @           $    +.  $.o++$$+$ $++......oooooo,o*&,*,*&1&&1&&&;&&;;;&&;&&;;;2;;:;&2&::;::;:::2:::::X:::::&O===>=OOOOOOOOOO$%#######%%%%%%%%%%%%%%%###############%%%%%%%%%%%%%%%###############%%%%%%%%%%%%%%%###",
"%%%%%%%%%%%%%%%###############%%%%%%%%%%%%%%%###############%%%%%%%%%%%%%%+OOOO>X$+$@      @   @@@ @@ @ @ @@@@@@@@@@@@@  @@@@@@ @@   @  @  @  @  $    $$$ @$++  +..+$ $+$ $.+....+oo*ooooo*,*&&**&&&&1;&&;&&;;;&&;&&;;;&;;2&;;::2;::&:::2:::::::::::X=O====>==OOOOOOOO#%######%%%%%%%%%%%%%%%###############%%%%%%%%%%%%%%%###############%%%%%%%%%%%%%%%###",
"%%%%%%%%%%%%%%%####@###@###@##%%%%%%%%%%%%%%%####@###@###@##%%%%%%%%%%%%%%-OOOO=+ +  $    @@  @@@  @@@@@@@@@ @@@@@@@@@ @ @ @@@ @@@@ @ @ @  @         $ $$ @$+$ $+.+.$ $+$ +...oo.$.o**oo*o**,*1*,&&*&;&&&&&&;;;*:&;&&;;;;;:;;;&2:&::&22::::::::::::::>O====>>==OOOOOOO-%######%%%%%%%%%%%%%%%####@###@###@##%%%%%%%%%%%%%%%####@###@###@##%%%%%%%%%%%%%%%###",
"%%%%%%%%%%%%%%%###############%%%%%%%%%%%%%%%###############%%%%%%%%%%%%%@OOOOO-@$$@      @ $ @   @@@ @@ @ @@@@ @ @@@@@@ @@@ @ @@@@@@    @   @  $   $+$$$  $+$$++$+.  $$$$+o..oo+ .o**ooo*1**&1&**&*&1;&&1&&&;;&*&;&&;;;&;&&;&::2&2:2:::2::::::::::::-OO===>>>>=OOOOOOOX%#####%%%%%%%%%%%%%%%###############%%%%%%%%%%%%%%%###############%%%%%%%%%%%%%%%###",
"%%%%%%%%%%%%%%%###############%%%%%%%%%%%%%%%###############%%%%%%%%%%%%%;OOOOO-$$  $    @     @  @@@ @ @@@ @ @@@@@@ @ @ @@ @@ @@ @ @@   @ @   $    $+$$$ $+$$$.++.+$ $$$$.o...o+ .o*&*.o**,o&1;*o&**&&1&&&&1&;&&:&;&;;&;&2&&2&&::&::;:::2:::::::::::-OO====>=>>=OOOOOOO#%####%%%%%%%%%%%%%%%###############%%%%%%%%%%%%%%%###############%%%%%%%%%%%%%%%###",
"%%%%%%%%%%%%%%%###############%%%%%%%%%%%%%%%###############%%%%%%%%%%%%%OOOOOO;$$   @       @ @ @@ @@@@@ @@ @  @ @@@@ @ @@@  @ @@ @@     @   $$  $$$$$$$$+++++.++.++$ $$+.,...o+$.o,,*+.o****&&*o&&&&1&&;;&&&;;&&&&;&;;;:&:;&::&2&2&::::::::::::::::;OO===>==>>>=OOOOOO>%%###%%%%%%%%%%%%%%%###############%%%%%%%%%%%%%%%###############%%%%%%%%%%%%%%%###",
"%%%%%%%%%%%%%%%#@###@####@####%%%%%%%%%%%%%%%###@###@#######%%%%%%%%%%%%&OOOOO=&$$ $ @         @ @ @ @@ @@ @ @@@ @@@@ @ @@@ @  @@ @  @        $$  $ $$$  $..$+.++++++$$+$$oo.....+.oo**.+o*,o*&1*o*&,&&&&&1;&&&;&&&&&;&;&;2&;;;:&:;&&:2::;:::::::::2:&=OO===>==>>>=OOOOOO&%###%%%%%%%%%%%%%%%#@###@####@####%%%%%%%%%%%%%%%#@###@####@####%%%%%%%%%%%%%%%###",
"%%%%%%%%%%%%%%%###############%%%%%%%%%%%%%%%##########@####%%%%%%%%%%%%=OOOOO=&$  $ @ @     @  @ @@@@ @@@@ @ @ @ @@ @ @@ @  @@    @@        $$$ $$$$$ $$$..$$+..+++$ ++ $.oo....oooo,*o..***o*&*o*&&&*1;&;;&&1&&;&:;;;&;&:&;&:&&&;&:::::2:::::::::::*>OO=====>=>->OOOOOOOX%##%%%%%%%%%%%%%%%###############%%%%%%%%%%%%%%%###############%%%%%%%%%%%%%%%###",
"%%%%%%%%%%%%%%%###############%%%%%%%%%%%%%%%###############%%%%%%%%%%%+OOOOO=>&$  $   @    @   @ @@ @@ @@ @ @ @ @ @@ @@@@  @  @ @        @  $+$ $$  $$$$+o.  +.o+$+  ..$$.oo....ooooo*o..o*,**,**&&&*&;;1&&&&&&&&;&&&;&;&:&;;::;:;:;:&::::::::::::2::>OOO======>->=OOOOOOO@%#%%%%%%%%%%%%%%%###############%%%%%%%%%%%%%%%###############%%%%%%%%%%%%%%%###",
"%%%%%%%%%%%%%%%###############%%%%%%%%%%%%%%%###############%%%%%%%%%%%>OOOOO=-X    @       @  @ @ @@@ @@ @@ @ @ @@@@  @@@  @  @           @ $+$$++  $$ $+o.@$$.o.$$$$..$$+.oo..+o*ooo**o.o***&&,*1&&**&;&;;&&&&;;&&&;&;;&:;;&::&:&:::2::::::::::2:::&;OOO=====>>=>>=OOOOOO-%%%%%%%%%%%%%%%%%###############%%%%%%%%%%%%%%%###############%%%%%%%%%%%%%%%###",
"%%%%%%%%%%%%%%%########@###@##%%%%%%%%%%%%%%%###############%%%%%%%%%%$OOOOOO=-+$$@    @    @  @  @@ @ @@@ @ @ @ @  @ @@ @ @    @           $++$$$$  $ $+..+ $$+o.$$ +oo.$$.oo.+$o,*ooo**oo,*,**oo&&&&*&;&&1&&1&&&&&&&;&;&&:;;&::&&:;:&:::::::::::::::;=OOO======>>>=OOOOOOO;%%%%%%%%%%%%%%%%########@###@##%%%%%%%%%%%%%%%########@###@##%%%%%%%%%%%%%%%###",
"%%%%%%%%%%%%%%%###############%%%%%%%%%%%%%%%###############%%%%%%%%%%-OOOOO==-$$$  @  @  @      @@@ @ @@  @ @  @@ @ @  @ @    @        @   $+$$$$$ $$$$++.+$ $.o.$$ +.oo+$+ooo+ .o**..**oo***&,o**1&&1&&1&&&1;&&&&;&;&;&&&;;&&:&2:&::&:::::::::::2::&;-OOO======>>=>=OOOOOOOX%%%%%%%%%%%%%%%###############%%%%%%%%%%%%%%%###############%%%%%%%%%%%%%%%###",
"###############%%%%%%%%%%%%%%%###############%%%%%%%%%%%%%%%########% OOOOOOO=&@+$  @ @@       @ @ @@@ @@ @ @ @ @ @@@ @  @                  $+$   $ $ $+.+..$  ...$$$+.oo.++ooo.@+o**o.o**o*,***o*&&&&&*;&&&&;&&&&:&&;;&;:;:;&&:&&:&:&2:&:::::::::2:::;;OOOOO==========OOOOOOO@%#############%%%%%%%%%%%%%%%###############%%%%%%%%%%%%%%%###############%%%",
"###############%%%%%%%%%%%%%%%###############%%%%%%%%%%%%%%%########%;OOOOOOO=*@+$   $@   @  @  @ @@ @ @ @@@    @@ @ @  @ @   @      $     $$+$   $$$ $+.+..+  +.o$$$+.ooo.+.ooo$+o*,ooo**o***,*o**&&1&&1&&*&&&&&&&&;&&&;&;&2&&:;:;:&:::::::::::::::::;;=OOO====O===>===OOOOOO>%%############%%%%%%%%%%%%%%%###############%%%%%%%%%%%%%%%###############%%%",
"###############%%%%%%%%%%%%%%%###############%%%%%%%%%%%%%%%#######%#OOOOOOOO=*@+  @  @ $    @  @   @  @   @@  @  @   @@ @ @   @     $      $+ @  $$$  +.$+.$$$+.o$$++oo,o.+..oo++.o***oo,**,***o*&&&&1&&1&*&&;&&&&&&;&&;&&:&;&:;:::&::::;::::::::;2::2;-OO=O=O======>===OOOOOO-%############%%%%%%%%%%%%%%%###############%%%%%%%%%%%%%%%###############%%%",
"###############%%%%%%%%%%%%%%%###############%%%%%%%%%%%%%%%#######%;OOOOOO=O=$@+     @     @   @  @  @  @@     @   @  @@     @      $$ @   $$ @  $$   ++$++$$$+..$++.o,*o.$+.oo.+.o*,*oo*,***,*o*&&&&&&&&*,&&&&&&&&;&&&;&;&:&;&&:::&&::::;:::::::::;&&;<OOO==O========>==OOOOOO:%###########%%%%%%%%%%%%%%%###############%%%%%%%%%%%%%%%###############%%%",
"###############%%%%%%%%%%%%%%%###############%%%%%%%%%%%%%%%#######%=OOOOOO=O-@ +  @ @   @  @@ @    @ @ @ @ @@  @ @  @  @            $$   @$+$ @  $$$ $++++++$+...+.+.o,1o.$ +.oo...,&,*oo**,*&*oo&1&&&&1&&&&1&&;&&&&;&:&;&&;:;&:&&:&&:::;:::::::::&:;:;;=OOOO=============OOOOOO+%##########%%%%%%%%%%%%%%%###############%%%%%%%%%%%%%%%###############%%%",
"###@###@###@###%%%%%%%%%%%%%%%##@###@###@####%%%%%%%%%%%%%%%######%XOOOOOOOO=;  $    @      @  @  @@@  @  @    @      @@   @  @     $      $+$   $$$$ $$+++++++..o++..oo,*o$ $.ooo.+o*,*o*oo**,*o*&&1&&;&&1**&&&&;&&&;&;;&&:;&&;&:::&&::::2::::::;:2::&;;>OO=O=O=======>=>==OOOOO=#%#########%%%%%%%%%%%%%%%##@###@###@####%%%%%%%%%%%%%%%##@###@###@####%%%",
"###############%%%%%%%%%%%%%%%###############%%%%%%%%%%%%%%%######%>OOOOOOO==;@@$    @  @   @       @ @  @  @   @   @ @              $ @    $ @ $ $$+$ $+++..$+..o.+.ooo,,o$ $+oooo+.o*&*o,o*,****&1&&1&&&&**&&&1&&&&&;&&;&&:&&:;:&::&:::&::::::::::*2;;;-OO======O====>=>===OOOOO>#%####@###%%%%%%%%%%%%%%%###############%%%%%%%%%%%%%%%###############%%%",
"###############%%%%%%%%%%%%%%%###############%%%%%%%%%%%%%%%#####%+OOOOOO==O=;@$$ $  @  @   @ @ @ @@@  @   @   @ @    @  @     @    $      $    $$$$+$$$+++..++.oo..oooo,&o  $+.ooo.+o*,*,**,*o**,&&1&&&&1&&**&;&;&&&&&;&;;&&;&&:&:::&:::::::X::::::::;2;-OOO=O=========>=>===OOOOO>%%#######%%%%%%%%%%%%%%%###############%%%%%%%%%%%%%%%###############%%%",
"###############%%%%%%%%%%%%%%%###############%%%%%%%%%%%%%%%#####%-OOOOOOO===;@+     @  @   @    @ @@   @         @  @   @   @     $ $         $$$$$++$$$++.o+.o.ooooooo,,.  $+.oo*.+.*,***o******&&;1&*&&1*&&&&&;&&&&2;&&&;&;&;&::&:&:::::::::X::::::2;;;OOO===========>=>>>==OOOOO;%%######%%%%%%%%%%%%%%%###############%%%%%%%%%%%%%%%###############%%%",
"######@########%%%%%%%%%%%%%%%######@####@###%%%%%%%%%%%%%%%####%$OOOOOOO==O=;#  $$ @ $@     @  @ @   @@  @@   @               @    $$  $      +++$$$++$$$$.......o,o.o,,*.$ $+.o*,o..o*1*,**,**1*,&;&1&&*&&*&&;1;&&&&&&;:&&2&&::&&:&:::::&:::XX::::X:&&;;>OO====O====>==>=>=>==OOOOO-%######%%%%%%%%%%%%%%%#######@####@##%%%%%%%%%%%%%%%#######@####@##%%%",
"##@#########@##%%%%%%%%%%%%%%%##@############%%%%%%%%%%%%%%%####%-OOOOOO====O;#$ +$@     @  @   @ @   @ @ @   @          @         $$          +++ $+++$$ $.oo....o,o.oooo.+$++.ooooo.o**,*,*&*o***1;1;&&&&*&*&&;;&&&&&:;&;&;&;&:&:&:&:::::::::::::::::;;;-OO===========>=>>>>>==OOOOO&%#####%%%%%%%%%%%%%%%####@##########%%%%%%%%%%%%%%%####@##########%%%",
"###############%%%%%%%%%%%%%%%###############%%%%%%%%%%%%%%%###%@OOOOOOO=====& $$+$@     @     @@     @@  @              @     @   $$   $ $   $+++ $$+.+$ $.oo.++.o,,ooooo..+++.oo*ooooo,&&**,*o*o*&1;;&&*&&**&&;;&;&;&;:;:&&;:::&&:&:::X:*:::&:X:X:::&2;;;=O=>======>=>=>=>>>>>==OOOOO&%####%%%%%%%%%%%%%%%###############%%%%%%%%%%%%%%%###############%%%",
"########@######%%%%%%%%%%%%%%%###############%%%%%%%%%%%%%%%###%;OOOOOOO==O=>X $$+          @   @    @@   @   @                   $ $      $ $++.+ $+..+$$$..oo++..,,ooooo.o....oo,o*ooo*,&**&**oo*&&1;&&&&&&*&&;&;&&&&&:&&;&&;&:&&&&:::::*:::&::::::::;;;;>O=>====>===>=>>>>>>>>==OOOOO&%###%%%%%%%%%%%%%%%###############%%%%%%%%%%%%%%%###############%%%",
"###############%%%%%%%%%%%%%%%######@###@####%%%%%%%%%%%%%%%##%#=OOOOOO==O==-. + $          @  @        @    @               @     $     $ $$$++++$$+..+$ $..oo..+.,,ooooooooo...o*o,*o.o*&*,&1&oo**1&&1&**&&*&&1;&&&&&&:&:;&&&:&&;&:::::X:&:::*::X:::&:;;;-OO=>====>=>=>=>=>>>>>>=OOOOOO*%##%%%%%%%%%%%%%%%#########@#####%%%%%%%%%%%%%%%#########@#####%%%",
"###############%%%%%%%%%%%%%%%###############%%%%%%%%%%%%%%%##%&OOOOOO======-$++   @           @   @  @ @                        $$      $ $$+++++$$$...$ $.oo,o.+.,,oo.oo.ooo..oo,oooo.o*,o**1&*oo*&1&&&&**&&1&&&;&;&;&:&;&;&;&:&;&&::*::*&:X::&:X::&::;;;<OO=>==>==>=>=>>>>>>>>>>=OOOOOO+%#%%%%%%%%%%%%%%%###############%%%%%%%%%%%%%%%###############%%%",
"%%%%%%%%%%%%%%%###############%%%%%%%%%%%%%%%###############%%%=OOOOO=======& $+    $@         @    @   @               @         $$    $$$$++++$++$++..+ +..oo,o+.o,oooo.o.oooooo*oo*ooo**oo,&1**o**&&&&,&&&&&1&;&&;&&&&&:&&:;:&;&&&::::::::::X::X:::&:;;;;=O==>==>=>=>>>=>>>>>=>>>=OOOOOO#%###############%%%%%%%%%%%%%%%###############%%%%%%%%%%%%%%%###",
"%%%%%%%%%%%%%%%###############%%%%%%%%%%%%%%%###############%%XOOOOO======O=;X $  @+$@    @   @   @  @ @          $   @           $$$  $$$ $++.+$$++++..+$+.ooooo.+oo,oooo..oooooo*oooooo*oooo&1&*oo**&&1&&&1&&&1&&;&&&&:;&;&;&&:&&&&:*&::*:*:X:X::X:&:&;-2->OO>====>=>>=>>>>>>>>>>>>>OOOOO=#%##############%%%%%%%%%%%%%%%###############%%%%%%%%%%%%%%%###",
"%%%%%%%%%%%%%%%###############%%%%%%%%%%%%%%%###############%%=OOOO==>===O=>-+ $   $ @           @    @       $              @   $$$    $$$$+..+$$$++.o.$$+.ooo*oo.o,oooo.o.ooo*ooo,***oooo*o*1;&&*o***&&1&&&&&1&&&&&&&&&&:&&&;:&&:&::&&::X:*::XX:*X:&;&;;;;-=O===>=>=>=>>>=>>>>>>>>>>=OOOOO=%%#############%%%%%%%%%%%%%%%###############%%%%%%%%%%%%%%%###",
"%%%%%%%%%%%%%%%###############%%%%%%%%%%%%%%%###############%XOOOO==>>==O===-$$$           @  @   @   @         $           @    $$$   $$$ +++o.$$++++.++$+.oo.ooooo,ooo..oooo,,*oo*o*,*..o**o*&&1**oo*&1&&&1&&;;&&&&&*&&&;&:;&;:&;&:&&&:::X:::X::::X&&;&;;;-=O=>====>=>>>>>>>>>>->>>>>=OOOOO-%%############%%%%%%%%%%%%%%%###############%%%%%%%%%%%%%%%###",
"%%%%%%%%%%%%%%%###############%%%%%%%%%%%%%%%###############%-OOOO=>>>=====O<@  $      @            @         $$  $              $$$    +$$+$+o.$$$$+...+$+ooo.ooo.o,ooo..ooooo&*ooo*,&*..o*,*o&1&1*.X**&1&1&&&1&&&&;&&&&:&&&&;&&&&&:&&&:X::*:X::*:*::&;;&;;;=O==>>=>=>>>>>>>>>>>->>>>>==OOOOO-%############%%%%%%%%%%%%%%%###############%%%%%%%%%%%%%%%###",
"%%%%%%%%%%%%%%%####@###@###@##%%%%%%%%%%%%%%%#####@###@####%+OOOOO>>>>======<   +$@  @   $ @  @         $       $     $ $       $$$   $$+$++$+.+$$$$+..++++o,,o,ooooo,oo..ooooo,*oooo*,*o..***o*&1&&ooo*&&;&&&&&;&1&&&&&&&&:;:;&:&:&&:&&&*::X::X::::**:;;&;;;>O=>>>==>=>>>>>>>>>>->->>>>>=OOOOO&%#######@###%%%%%%%%%%%%%%%####@###@###@##%%%%%%%%%%%%%%%###",
"%%%%%%%%%%%%%%%###############%%%%%%%%%%%%%%%##@############-OOOO=>>>>======-+  +  $     $@  @    @ @  @       $       $        $$$   $++$$$++..$$$$+..++..oo*oooo.ooo,o++ooooo,ooo.o**oo.o*,*o*&1&&*oo*&;&&*&&&&&&&&&&&&&:&&&&&&:&&::&&&:*:*::XX:X*:*:&;;;-;-O=>>>=>=>>>>>>>>>>>>->->>>>==OOOOOX%##########%%%%%%%%%%%%%%%###############%%%%%%%%%%%%%%%###",
"%%%%%%%%%%%%%%%###############%%%%%%%%%%%%%%%#############%XOOOO=>>->>===O==; $$. $ @ $  $@   @   @  $                  $       $$   $$+$$$$$...+$$++..++.o,oo.oooooo*,o$$ooo.oo*ooooo*ooo.o**oo,&1&**Xo*&1&&&&*1&;&&&&&&&&&&&:&:&&;&:&&*:::X:::X:X*&&:&;;2-;<=O>>=>=>>>>>>>>>->->->-->>>>>=OOOOOX%#########%%%%%%%%%%%%%%%###############%%%%%%%%%%%%%%%###",
"%%%%%%%%%%%%%%%###############%%%%%%%%%%%%%%%##############-OOO=>-->>>=====>*$$++ +                @    @      $       $       $$$$   $+++++....+$$+..o++.,,oo.o,ooooo,o $.ooo.oooooooo**o.o*oo,*&&&**oX*&&&1&&*&&&&&&&;;&&&&;&&:&:&&:&&X&&:X:*:X:X*:&&&&;;;;<>O>>>=>>>>>>>>>>>>>->-->-->>>==OOOOO#%########%%%%%%%%%%%%%%%###############%%%%%%%%%%%%%%%###",
"%%%%%%%%%%%%%%%####@####@#####%%%%%%%%%%%%%%%############%X=OOO=----->>====-&+ +$$X   $ @    @@      $        $        $ $       $$  $+$+$+.....++$+.o..$.,,oo.o*o,ooo*o$$.ooo.ooo,ooooo,o.oooo*,&&1**Xo*&1&&1&1&&&&*&&&&&:&&:&&&:&&&:&*:*&:X::::X:X*:&&&;;;;;-==>>=>=>>>>->>>>->->->->->>>>==OOOO=#%#######%%%%%%%%%%%%%%%#@###@####@####%%%%%%%%%%%%%%%###",
"%%%%%%%%%%%%%%%###############%%%%%%%%%%%%%%%######@#####%-OOOO>----->>===>-*$ $ ++@@$$    $               $  $$  $    $      $$$$  $$$++$$+..+...+++...$.o,oo.o,o,ooo,o.$.o.oo.oooooooX*ooXoo*,*,&&**o**&&&1&&&&&&&*&&&;&&&&&&:&&&&:*&&**&:X:*:XX:X*:&:;;;;;-;==>>>=>>>>>>>->->>->->-->->>>>===OOO;%#######%%%%%%%%%%%%%%%###############%%%%%%%%%%%%%%%###",
"%%%%%%%%%%%%%%%############@##%%%%%%%%%%%%%%%###########%+=OOO>---;-->>>==>-.+$  +$@ $$  $        @            $   $  $$$   $ $$$$$$$$$++$$+..+..++++...+.o,ooooo,*,oo*o.+.o.oo.o,o*oooo**o.Xoo***&******1&1&;&1&&,&*&&&&&&&&&&&:*:&:*&&**&&:::X::*XX:&&&;;;;-<->=>>>>>>>>>->>>>->->->>--->>>>==OOOO;%######%%%%%%%%%%%%%%%###############%%%%%%%%%%%%%%%###",
"%%%%%%%%%%%%%%%###############%%%%%%%%%%%%%%%###@########-OOOO><;<<<-->>==>-++$@ +$  $$   $                 $$$ $  $  $$     $$$$$$$$$++$$$....++++$+.....oo*oooo,,*oooo......oooo*ooo.oo*o.ooo*&*,**&**&*&&1&1&&&&&&&*&&&&:&&&&&&&*:*&&**:&:*X::*X**:&:&;;;;--<->>>>>>>>>>>>->->-->--->--->>>>===OOOX%#####%%%%%%%%%%%%%%%###############%%%%%%%%%%%%%%%###",
"%%%%%%%%%%%%%%%##@####@#######%%%%%%%%%%%%%%%##########%+=OOO><;<;<;-->>==-;$+$@$X$@ $ @   @               $  $$ $$   $   $$ $$++$ $$$+++$$+...$$+.++++..+oo,oo.o,1,ooooo..oo.ooo,*oooo.o*oooXo,&&***&**&&1&;1&&&&1*&&*&*&&&&&:&&:*:*&:&&**&:::X::X***:&&;;;;;<-->>>>>>>>>>>->->---->->->-->->>>===OOO#%####%%%%%%%%%%%%%%%########@###@##%%%%%%%%%%%%%%%###",
"%%%%%%%%%%%%%%%###############%%%%%%%%%%%%%%%##########%;OOO=-<;<;<<--->==<.$X @+X$@$                $$  @ $  $$ $$$  $  $$$ $$+$$$$+$..+$++...$$..$+......oooo.o,,*oo..oooooooooooo*oX.o*o*ooo*&,****&*&*&&1&&1&&&&&&&*&*&*&&&&:&&**::&&XX::&**:X:*&*&&&;;;;;-<-->>>>>>>>>->->->>>---->-->--->>>==OOO>%%###%%%%%%%%%%%%%%%###############%%%%%%%%%%%%%%%###",
"###############%%%%%%%%%%%%%%%###############%%%%%%%%%% =OOO><<1<;1<-->>=>*@X+  X.  $ @  $@ $ @   $   $   $ $ $$ $$  $$  $$  $$+$$$+$$..+$+++..$ .+$+..o..ooooo.o,,,oo.+.o,,ooooooooo.oooo*ooXoo*&***,&*&,&&&1&&&&*&&*&*&&&&&&:&&&*:***:**X**&*X:X:*&:&:&&;&;;;-<->>=>>>>>>>>->>->-->->-->-->->>>==OOOO;%%%%###############%%%%%%%%%%%%%%%###############%%%",
"###############%%%%%%%%%%%%%%%###############%%%%%%%%%%<OOO=-11&;1;<-->>=-. *+@$X$     $$ @          $    $$$ $$$$$$  $$$$   $$$+$++$ +.++$$$.+  +.$+..ooooo,ooooo,,oo..+o,,*o.oo.o*,oXooo**o*o**,****&**&&1&&&1&*&&*&&&*&*&&&&&:&:*X&*:****:::*X*:*:&&&2&;;;;--<->>>>>>>>->->->->->---->-->->-->>===OOO+%%%###############%%%%%%%%%%%%%%%###############%%%",
"###############%%%%%%%%%%%%%%%###############%%%%%%%%% =OOO-<1&1<1<<->>>=1$$*+@$.  $$ $$+ @ $    $$          $  $$ $    $$  $ $$$$+$$$++++$$$.+$$+..+.oo..o,*,,oo,&,o..+..,,o..oooo*,*o*oXo*,*oo**&,**&***&&&1&*&&&*&**&&**&&&&:**&**:*X*&****:XX*X*&:&:&&;;;;;-<-->>>>>>>>>>>->->->-->--->---->->>>=OOOO#%%###############%%%%%%%%%%%%%%%###############%%%",
"###############%%%%%%%%%%%%%%%###############%%%%%%%%%;OOO><1;11;<<<->>>>+$$X$ ++  $$@$+$ @ $   $         $    $$$$   $$$  $$$ $$+++$$+++$$ $..$$++.......oo,11oooo,oo..+.,,*...oooo&**oo.o**,*o******&*&*1&1&&1&&*&**&&&&*&*&&&*:*:*&*X*&*XX*:*:X*:&*&&&&;;;;;-<--->>>>>->->->->->->---->-->---->>>==OOO>%%###############%%%%%%%%%%%%%%%###############%%%",
"###############%%%%%%%%%%%%%%%###############%%%%%%%% =OO=>1111&11<->->=1 $+.$$X$$+$  $+$   $$  $ $  $   $  $$  $ $ $   $  $$$+$$$++$$$+++$ +..$ ++..oo...o,o,,o..oo,o..++o,oo.....,&*oooXoo,&,**o***,&**&*&&1&*&&*&&*&&&&&*:***&*:X*:*XX&*&X*XX&X**:*:&&&;;;<;;------>>>>>->>>>->>-->---->--->--->>>==OOO&%###############%%%%%%%%%%%%%%%###############%%%",
"###@###@###@###%%%%%%%%%%%%%%%##@###@###@####%%%%%%%%;OOO=<1&&111<--->>>,+$$+$$+$$$$ $++ @  $   $         $ $$  $  $ $$$  $$$$$$$$++$$$+..+$+o.$$+....o...o,*ooo..ooo,o.$$ooo,o....o,*oX...o*,**,*****&**&&1&&&&*&&&&**&;&**&*:*&:*:*&*XX****:XX:X:*:*&&&:;;;;<;<------>->->>>->->->-------->------>>===OOO$%####@###@#####%%%%%%%%%%%%%%%##@###@###@####%%%",
"###############%%%%%%%%%%%%%%%###############%%%%%%% =O==-1111&1<<<->->-,o $$+++ $$  ++$    $  $ $    $  $$$$   $ $   $  $$ $$$$$$+++ $++++$.o.++++.o..++.oo*..o++.o*,,.  +oo*o..++o,**o.++o*,,**o*o*,&**&&*&1&**&*&&**&&&&*&&**&***:*:**:*:**XX**:*X:&:&&&;;;;;<------->->>->>->->->->---->------->>>==OOOO#%#############%%%%%%%%%%%%%%%###############%%%",
"###############%%%%%%%%%%%%%%%###############%%%%%%%;OOO>1;11,11<<--->>-<.$.$+$$ $  $++$       $$$       $$$ $   $   $   $$ $$$$$++.+ $$+.++...+$+......+..oo..o..o.o,,.  +.oo,o.++o,*o*X+..o,&,**o*o**&*&1&*&&*&&&&&**&&&&**:*:*:*:**X****X***XX:*X**:&&;&;;;;<--<---->->>->>->->--->--------->-->->>>=OOOO>%##########@##%%%%%%%%%%%%%%%###############%%%",
"###############%%%%%%%%%%%%%%%###############%%%%%%@=OO=<11&1&11<<->->>><@++$+$$$$ @+.$          $       $   $   $   $  $ $ $$$$$$+.$$$$$+.+...++$+....+....o.ooooo.o,,.$++.oo*o.++o*o*oo..oo*,****Xo**&**&&&*&*&&&*&&****&&***&*****:*X**XX*&*XX*:X*&&**;&;;;;;;--->;>->-->->->-->->->--<----------->>==OOOO&%############%%%%%%%%%%%%%%%###############%%%",
"######@########%%%%%%%%%%%%%%%######@####@###%%%%%%;OO=-1&,1111<<---->>>,#$$++$$ $  ++  @$      $       $$  $$  $        $$ $$$$$$++$+$$$+..+..++$++...+..o..oooooo.o,o.+.++.o*o.$$o*oo,*..o*,&,*ooXXo*1&&1&1*&*&&*&*&&***&&****X:*:**:X**XX*:**X:**X&&:*&&;;;;<<<--;--->-->>--->--->-------<--->->-->->=OOOOO$%###########%%%%%%%%%%%%%%%#######@####@##%%%",
"##@#########@##%%%%%%%%%%%%%%%##@############%%%%%#=O==<11&1,11<<--->->=.@+$+++$ $ $$$         $    $  $    $$  $   $    $$$$$$$$ $+++$$ $...+.+$+++.o.+..o...oooo.+o,o...+++oooo+$.ooo*ooooo*,,**XXoo*&,&*&&&***&****&***&*****XX***:*X**XX**:*X*X:*:&*&&&;&;;;;<>.%*>>----->>->->-->->---<----------->==OOOO>%####@######%%%%%%%%%%%%%%%####@##########%%%",
"###############%%%%%%%%%%%%%%%###############%%%%%&OOO>11*1,111<----->>>.@$$+$+$ $$$$$$              $   $  $$     $     $$ $$$$$$$+++$$ $+..+.++$+$.o.+.ooo.oo.oo.+ooo...+$$.ooo.+ooo,,ooXo*o,**oXoXo**&*1&,&**&**&**&&*X**&**X*X:*&*XX*:XXXXX*XX****:*:&&&;;;<<<>+%%;>----->--->-->--------<--------->>>>OOOOX%##########%%%%%%%%%%%%%%%###############%%%",
"########@######%%%%%%%%%%%%%%%###############%%%%%=OO><,,*11111<--->->>>. $$+$+  +$ $$$$ $    $     $  $         $      $$ $$$$$ $+++.++$$+.....+$+$+o..+oo....oooo.oo.o.o.$ .oooo.ooo**oooooo*,*oXXXoo***&&&*&*&***&**&********XX*&***XX*XX*XX:*:X*:*:***;&;;;;;<-X%%%&>--->-->-->-->->-------<-------->>>=OOO=%##########%%%%%%%%%%%%%%%###############%%%",
"###############%%%%%%%%%%%%%%%######@########%%%%&OO=-,1,,1111<<---->->>+ $++$+  .$@ $$    $       $$   $    $$    $   $$$$ $$$$$$$$+..+$$+.....+$$$+....oo...ooooo.oo..ooo+$.oo*...ooo,ooo*o*,**oX**oo***1**,*&**o*********X**XX*X*:*XX*XXX*XX*X*XX*&**:*;&&;;;<<-;%%%%;>->-->->-->--------<-<<-------->>>=OOOO*%######@##%%%%%%%%%%%%%%%#########@#####%%%",
"###############%%%%%%%%%%%%%%%###############%%%%=O=><111,1111<<--->->>-.  ++ + @+  $$    $$       $  $      $$     $  $$$  $$$$$$+$+..+$ +.+oo.+$$$$.+..oo...ooo.ooo..o.o,+$.oooo.o.o***ooooooo,*o****,**&&******X**&**X***X**XX*XX**XX*X.X*XXXX:XX*&:*&*&&&;;;<;--%%%%%;>------->-->->--------<-------->>=OOOO=%#########%%%%%%%%%%%%%%%###############%%%",
"%%%%%%%%%%%%%%%###############%%%%%%%%%%%%%%%##%&OO=-1*,,1111<<<-->>>->>,$$++$+$ $  $$    $$                  $    $  $$$$$ $$$$$+$++...+ $+.oo..$$$+......oo.ooooo..o.oooo.++.ooo..ooo,ooXo*oo****o*oo*****************X***X*XXX**X*:XX**XX&*XXX**X**&**&&&&;&;<<--####% ----->--->----->----<<<-------->>>=OOOO&%%%%%%%%%###############%%%%%%%%%%%%%%%###",
"%%%%%%%%%%%%%%%###############%%%%%%%%%%%%%%%#%@=O==<1,,1,111<<<--->->>>,$++$$.$@ $$$$  $ $                  $ $    $$ $$$  $$$$+$+$+...+$$+.ooo.++$+...o.o.o..oooooo...o,o.+++ooo.Xoo*o*oooo*o*,*o***o*o*,*******o**&***X***XX**XXX**XX:*XX*XXXXX*X**:&:&&&&;;;<;<- %###% ;-->------>->----------<------->>=OOOO=%%%%%%%%%###############%%%%%%%%%%%%%%%###",
"%%%%%%%%%%%%%%%###############%%%%%%%%%%%%%%%#%*OO=><,*,1,11<<<<--->>>>>,$++  .$   $++  $ $$   $    $ $       $    $$ $$ $$$$$$+$+$+++.++$$$.o.oo++$+.+.o..ooooooooo.o...ooo.++.ooo.ooooo*oo*,*o*o**o**o***********o****o**XXX****XX*XXX**XX*XXX*XX:*:**&&&&&;;;<;<-+%####% ;->->--------------<----------->>=OOOOX%%%%%%%%###############%%%%%%%%%%%%%%%###",
"%%%%%%%%%%%%%%%###############%%%%%%%%%%%%%%%%@-OO=<1,,,11111<<------>>>o +$ $+ @  $.+@ + $$  $ $     $     $$    $  $  $ $$+$+$++++++++$$$$+o.o.+$+++.ooo..ooo,ooooo.o.ooo...+.ooX...ooooooo*o*o*o***o**o*,&o&****X*****XoX*XXX**XX**XX*&XX*XXX*XX***&*&&&&&;;;;;<-X%#####% -->------>----------<--<<----->>==OOO=%%%%%%%%###############%%%%%%%%%%%%%%%###",
"%%%%%%%%%%%%%%%###############%%%%%%%%%%%%%%%%X=O=>11*,,111<<<<--->->>>>. +$ $+   $$.$@$+  $  $      $  @  $       $$ $ $$$$$++$+$++++++$$$$.....+$++++ooo..ooo*oooo.o.oooooo.+.ooo..oooo*o***ooo***o*Xo**o***,****oX*****XoXX****XX*XXXX:XX**XX*XX:X:*&:&&&;&;;<;<-;%######%$--->---->-->-------<---<---<--->=OOOO %%%%%%%###############%%%%%%%%%%%%%%%###",
"%%%%%%%%%%%%%%%####@###@###@##%%%%%%%%%%%%%%%@;=O=<1,,,11111<<<--->>->>-+ ++$$+  $ $+$@$+  $$ $  $   $  @   $$    $$ $ $ $$+$+$$$++.+$++$$ $...o.$$+++$o,o..oooo,*oooooo.ooo....XoXo..oooo*o*o**oo*,***oo*****&****X*oX*X*XoX*XX**XX*XXXX*XX**XX**XX***&&&&&;&;;;<;--@#######%$;---------------<--<--<----<-->>=OOO-%%%%%%%####@###@###@##%%%%%%%%%%%%%%%###",
"%%%%%%%%%%%%%%%###############%%%%%%%%%%%%%%%X>O=>1&,,,,1111<<<-->->>>><  ++ $$  + $+  $$  $$    $$ $$     $       $  $ $$$+++$$$+..+$+$+$$$++..+$$$+++o,o++..o,ooo.o.ooooo.o...o.o..ooooo*o*,oooo**o*oXo*,*o***o**o*oXX***XoXXX**XX***XXX*X*:XXX*X****:&&&&;&;&<<;<-@%#######%$;-->-------------<<--<--<<<<-->==OOO$%%%%%%###############%%%%%%%%%%%%%%%###",
"%%%%%%%%%%%%%%%###############%%%%%%%%%%%%%%%-OO=<1,,o,1111<<<---->->-><@ .+$$$$$$ $+$ $$  $$    $$ $$    $$$     $   $$$$$$++$$$$.++$+$+$$$.....$$$+++.o..$+.o,ooo..ooooo..o...o.ooXoXoooo**o*ooo*,**oXo***X*&*o****Xo*X***X*XXX*XX*X*XXX:***XX**X*X:**&&&&;&;;;<;<- %#######%% ;--->----->------<<-<--<----->>>=OO-%%%%%%###############%%%%%%%%%%%%%%%###",
"%%%%%%%%%%%%%%%###############%%%%%%%%%%%%%%$>O=>11&oo,1111<<<---->--->1#$..  $$$$ $$+$ $  $$  @$+  $     $$     $$$ $$$$$$+.+$$$+++$++++$$+..+..+$+++$..o.+$.ooooo..oooo...oo.oo.ooooo.Xoo*,*o*.o***ooo**,*oX&*o***XoXX***ooX*Xo*XXXX*XXX**X*XXX*X*&**X*&&&;&;;;<;<>.%#######%%%@;--------------<--<--<----<->>>>OOOX%%%%%###############%%%%%%%%%%%%%%%###",
"%%%%%%%%%%%%%%%####@####@#####%%%%%%%%%%%%%%;=O=-11,o,,1111<<<----->-->1@+.$  $$   $$$$$$@ $    $+  $    $$  @    $   $$$$$$.+$ $+$+$+++$$$+.+...++$++++...+$.ooooo..oo.oo..o.oooooo*oooooooo*oo.oo*o**o****oX**o****XXoX***oXXXX*XXXX***XX*X*X.**X*&***&&*&&&;<;<;<-&%#######%%%%#;-->---->---------<---<-<--->>==OOO%%%%%###@#####@#####%%%%%%%%%%%%%%%###",
"%%%%%%%%%%%%%%%###############%%%%%%%%%%%%%@-=O=<1,,o,,111<<<<--->>--->1@++$  $$ $$ $+ $$     @ $$  $ $   $      $     $  $$..+$$$$+++.$+$$+++.oo++$+.+++..+$.oo*ooo.ooo.o..o.ooXoo*oooXo.o***o*.oo*o*oo*,*,*o****o*XoXXX***.X*XoXXXXXX**XXXX*XX**X***&**&**&&;;;<;<-<%#######%%%%%#&--->----------<-<-<-------->-=OOO&%%%%###############%%%%%%%%%%%%%%%###",
"%%%%%%%%%%%%%%%############@##%%%%%%%%%%%%%X<OO-11&,,,11111<<<-->-->---o$.+$$ $$ +$ $+ $$@     $$$  $  $ $        $     $   +..$$$$$+..$$$$+++.o.+$++..+......oooo*o.ooo.oo..o.oooooo*ooooXoo,o*oXoo***o******&*ooX**XoXo***XoXXXXXX*XX*XXXXXX*X***:X*&**&&&&&;;;;<;<-########%%%%%%#&------->-----<----<-<<-<-->->OOOO%%%%############@##%%%%%%%%%%%%%%%###",
"%%%%%%%%%%%%%%%###############%%%%%%%%%%%%%;>O=<1&,,,,,1111<<<---->---<o++++ $$  $  $$ $ @     $$   $$   $$ $    $    $ $ $$+..+$  $+..$$$$+++.o.+$++.+++.o...oooo*o.ooooo...o.ooooo**ooooXX**,*ooX*o,***,*,***,**X**XXXX****XXXoXXXXXX*XXXXXXXX:XX*X*&&*&*&;&;;;<<;<- %######%%%%%%%#&---------------<<<---<--->->=OOO@%%%######@########%%%%%%%%%%%%%%%###",
"%%%%%%%%%%%%%%%##@####@#######%%%%%%%%%%%%+-=O><1,,o,,1111<<<--->----;;,$$.+ $$ $$   $ $     $     $$     $ $   $$$    $   $++++ $ $+.+$$$$$++.o.++$+..+......oooooo..oo.oo..o.ooo*oo*o*o*ooo*,o*ooo***,*o****&***o&**.XoXo****XXXXX*XX**XXXXXX*&XX******&&&;&&;;;;<;-X%######%%%%%%%%#;-->------------<-<-<-<--->>=OOO&%%%###############%%%%%%%%%%%%%%%###",
"%%%%%%%%%%%%%%%###############%%%%%%%%%%%%;>O=-1,&,o,,1111<<-<-------#%o.$.+ +  $$$$ $  $@ @$$      $    $ $$$@ $$$ $ $  $ $+++$$ $$++++$$$$++.o.+$$+..+.....o..oooo.Xoo.oo..o.ooooooo*ooo*o***,***oo****o*o*&1*o*****X.X*X***o*XXXXXXX**XXX*XXX&*X****&*&&&&&&;1;<;<-&%######%%%%%%%%%#&-------------<--<<---<---->OOOO#%%###############%%%%%%%%%%%%%%%###",
"###############%%%%%%%%%%%%%%%##########% -=O=-1,,,,,1111<<<<----<--;%%,o$.$ $  $$+$ $ $   @$$     $     $ $$    $$$   $ $ $+++$$  $++++$$$+$+.o.+$$+..++++.....o*o..ooo..oo...ooooo*oooooo*oo,**,**o*o&*,***,&**X*****X.*oX**o**X.XXXX**XXX*XXX&*XX*:*&*&&;&&&;;;;<;-;%%%%%%%#########%@;----------<--<-<-<<<----<-OOOO;%#%%%%%%%%%%%%%%%###############%%%",
"###############%%%%%%%%%%%%%%%##########%&>=O><1,*,,,,1,1<<---------$%#1o$+$ $ $$+. @     @ $$    $$    $  $$   $ $$$    $$$$$+$$ $$$+$++$$$$$....$$+..+$+.+..ooooo..ooo..oo.+.oooo*,ooooo*ooXo*o*,o**o***o***,&*******oXoXo***XoXXX*.X*&*XX**XX&******&&&&&&&*1;<<;<-;%%%%%%%##########% ;-------------<-<---<---<;>OOO=#%%%%%%%%%%%%%%%%###############%%%",
"###############%%%%%%%%%%%%%%%##########%>=OO><1,,,,,1,11<<-<---<--*##%1,$+$ $ $$++  $ $    $      $       $$ @$ $$+$    $ $$$$$$ $$$$+.++$$$ +...+$+.o.$++...ooooo..oooo.oo.+.oooooo*oo.Xo*ooooo*,***o**o**,**,&*X*X***o*XX**o**XXXX.X***XX**XX**X***&&*&&&&&&&;;;;;<;#%%%%%%############+-----------<----<<<-<---;-=OOO.%%%%%%%%%%%%%%%%###############%%%",
"###############%%%%%%%%%%%%%%%#########%+===O><,o,,o,1111<<<---<--< %##,o$$$  $+$$+  $$$  @ $$  @       $ $     $$$+$    $$$$$$$$$$$$$++++$$$ +...+$$+oo++++..ooooo..oooooooo+..o.ooooooo.oXooo*oo*,*oXo*oo***,&**o*X*****oX***o*XX**XX****XX*X***XX**&*&&&*&&&1;<;<;<- %%%%%%############%*->-<---------<-<-<<----;<>OOO>%%%%%%%%%%%%%%%%###############%%%",
"###############%%%%%%%%%%%%%%%#########%-==O=-1,,,o,,111<<<-------*%###,.+ $$$$+ $+  $$     $          $   $    $$$$      $$$$$$$$$  $+.++$$$$$+...$++oo.+....ooooo..ooooooXo++....oo,o.ooo**oooooo*oo*oo*o*,**o*o**X*****XX**Xo*XXX*XXXX**XXX**X:X****:*&&*&&&&<;;<;;-X%%%%%%##############;>--------------<-<<---<;-=OOO+%%%%%%%%%%%%%%%###############%%%",
"###@###@###@###%%%%%%%%%%%%%%%########%@===O=<,*,o,,,,11<<<-<-<--;@####1+$  $$$+ $+   $     $       $   $ $$     $$$$@   $ $$$$$$$$$ $$++$$ $$$++.+++.oo.++.oooooo.ooooooooo.++..o..ooooooXoooXooo*,oo**XoX***o**o******X**X*&*oXXX**X.XX**XXXX*XX*X*X&**&&&&&&&;<;;<;-&%%%%%%###@#########%@->-----------<--<-<---;;<>OOO-%%%%%%%%%%%%%%%##@###@###@####%%%",
"###############%%%%%%%%%%%%%%%###@####%X=>OO><,,,,,,,,111<<----<-+%###@,$  $$$$$ $+ $ $  $  $   $   $      $    $$$$      $$ $ $$+$  $$+++$$  $++..++.oo.++.oooooo..ooo.o.o..++.....o*ooo...ooo.ooooooo*X.o**oooo*o*X**Xo**X****oXX*XXXXXX*X*XX*XX*X*****:*&&1&&;;;<;;-;%%%%%%##############%.>--<-----------<-<<<-<&;<>=OO#%%%%%%%%%%%%%%###############%%%",
"###############%%%%%%%%%%%%%%%########%;==O=><1,,*,,,111<<--<-<-;######*$ +$  $$@$$   +$ $  $       $  $ $$      $$$$    $$$ $$$$+$ @ $$+++$ $$...+++.oo.+...oooo..ooooooo.o.++..o..ooooo..ooXooXoooo***X.ooo*oX*o*X*o*oX***&**XXX**XXXX.XX**XX**X*X*X*&***&&&&&1;<;<;;;%%%%%%#######@#######%;>------<--<-<-<-<---<;1<>==O>%%%%%%%%%%%%%%###############%%%",
"###############%%%%%%%%%%%%%%%########%-==O=-<,,,,,,,111<<--<--<$%#####o$ +$ $$  $$ $ +$ $  $   $   $  $   $     $$$      $$ $ $$+$ @ $$++$$$$$+.++++.o..++.ooo....o,ooo...oo.+..o..oooooo.Xo.o.oXooooo*Xoo*oo*oo*o*o*X*o******o*oX*XXXXXXXX**XX**X**o*&***&&&&&&;;;;;-;%%%%%%###############%@---------------<-<<<-<&<->>OO$%%%%%%%%%%%%%###############%%%",
"######@########%%%%%%%%%%%%%%%#########>>=O=-1,o,o,,111<<<--<--&#######+$$+$ $$  $$   +$   $    $ @ $ $    $     $$ $    $$$$$$$$+$    +++$$$$++..+.......+..oo...ooooo.o..oo.+.ooX..ooo...oo.oo.ooooo**Xoooo**o.XXX**oX***oX*X**X**X.X*X*XX**XXX***XX*&&**&&&&;&&;;<;;;@%%%%%###############%%*---<---------<<-<<--<1<->==O>%%%%%%%%%%%%%#######@####@##%%%",
"##@#########@##%%%%%%%%%%%%%%%#######% =>=O><,,o,,,,1111<<---<<+%######++$+  $$ $$$  $$$   $    $   $ $$$  $     $ $     $$ $ $$$$$   $$+++$+$$+.+++......++.ooo..oooooo...oo.++ooo..ooo...ooooooX*ooooX*oo*oo**XXoXX*oo***XXX*XoXX*X.XXX*XXX***XXX**X*&*&&&*&&&&&1;;;;- %%%%%####@##########%%#<----------<---<-<<<-;<>>>>OO@%%%%%%%%%%%%####@##########%%%",
"###############%%%%%%%%%%%%%%%#######%X===O>1,*,,o,1,11<<<-<-<&########.++$  $$ $$$ $ $$  $$$   $   $ $    $   $  $$ $  $ $$ $$$$+$   $$++$++$$$+.+....+...++.o...oooooo.+.oo.+$.o*X+.oo..oooooo*X*o.o**Xoo*oX**oX.X.**.***Xo*XX*X*XXX.X**XXXX*XXX*XXX&**&&&*&&&;&;<;;;-+%%%%%########@######%%%+----<-------<-<<<-<-<<>>>==O-%%%%%%%%%%%%###############%%%",
"########@######%%%%%%%%%%%%%%%#######%;====<1,,,,,,,111<<<-<<;$%#######o++   $$@$$  $  $ @$$   $$   $  $$$   $ $    $    $ $$$$$$++$  $+$+$++$ ++++...++.o.++o.....oo.ooo++oo.+$+o*.+.oo..oXo..o*.oo.o**Xoo*oX***XoX.*XXo**XXXXX*XXXXXXXX*XX*XXXXX*X*X****&&*&*1;&;;;;;;X%%%%%###############%%%%&-<-<------<-<--<-<-<;->>==OO%%%%%%%%%%%%###############%%%",
"###############%%%%%%%%%%%%%%%#######%-==O><1,ooo,,111<<<-<-<*#########o$$   $$@$$  $  $ @ $    $  $$  $$  $  $    $  $$   $$$$$$..$  $$+$++.+$$+.++++++o.+++o.....o.oooo+$....$+oo.$+oo...oo..,o...oooooooooXo**ooXo*XX***oX.Xo*X*.XXXXX*XXXXXXX**X*******&&&&&;&;;1;;-X%%%%%###########@###%%%%@<--<---------<<<-<-<;->>===O;%%%%%%%%%%%#########@#####%%%",
"###############%%%%%%%%%%%%%%%########>===><1,oo,,11111<<<<<<@%#######@o$$   $$@$$$ $ $$ @      $   $  $$$    $   $ $$ $  $$$$$$$++$  $$$$+..+$++++..+++o.+++...o+.....oo.$.o.. +ooo+$ooo..o*+ooo..ooXoXXoo*oXXX*oXoXXoX****XX.X**XXXo*XXXXXXXX*XX****X***&&&&&1;&&;;;;;:%%%%%###############%%%%%*--<----<-<-<--<-<<-;;->===O=%%%%%%%%%%%###############%%%",
"%%%%%%%%%%%%%%%###############%%%%%%% ====>;*o,,,,,111<<<<--*%%%%%%%%%%o$$$  +$@$$$    $  $    $  $$$  $$    $     $$ $   $$+$$$$++$$  $$$+..+$+++..+++.o+.+.o....+....oo.++.o.$+o,o.+.oo..oo..oo..oX.Xooo*o**XXoXo*X*XXo**XoXXX**XXX*XXX**XXXX*XX****XX**&*&&&;;&;<;<;;;#####%%%%%%%%%%%%%%%####% ;--<----------<<<<-1&<>===OO*%#########%%%%%%%%%%%%%%%###",
"%%%%%%%%%%%%%%%###############%%%%%%%X====-&*o,,o,111<1<<<<<$%%%%%%%%%%o $$ $.$@$$$    $$        $$$   $    $      $  $   $$$$$$$++$$   $$+...$$+.+..++.o+++.o....+..o.oo.++..+$+ooo.+.o.+.oX..ooo..oX.Xoo*oooXXoXo*oXX.XXoXXoX.*XX.X**XXXX**XXXX*****XX*&*&&&&1;&1;;;;;;#####%%%%%%%%%%%%%%%#####%X---<<----<-<-<-<<<<*1>>->OO=%#########%%%%%%%%%%%%%%%###",
"%%%%%%%%%%%%%%%###############%%%%%%%&===><,o,o,,,1111<<<<-;#%%%%%%%%%#. $$ $.$@ $$    $          $$  $  $   $      $ $    $$$  $$$+$    $+..++$+..++++..++...+.......ooo..++.++..o.o++....oXo..oooooX.XX.oo*oXoXoXooXoXXoXoXX.X**XX**XXXXXX*XXXX****&*X*&*&&&&&&&;;<;;;; ####%%%%%%%%%%%%%%%#######;--<---------<<<<-<1&->>>=OO$%########%%%%%%%%%%%%%%%###",
"%%%%%%%%%%%%%%%###############%%%%%%%;>==><,,oo,,,11&1<<<<-*%%%%%%%%%%#. +$ $.$@ $$  $            $ $  $     $   @ $      $$$$ $$$+$$   $$+..++$+..+$++..+.........+...o...++++....oo.+...oooX..ooo.oX.XXoo**oo*ooXo*o*XXX.XoXXX*XXXX*XXoXX**XXXXX*****X*&**&&&&&&&;;;;;;@####%%%%%%%%%%%%%%%######%X<---<-----<-<--<<<;,<-->=OO-%########%%%%%%%%%%%%%%%###",
"%%%%%%%%%%%%%%%###############%%%%%%%>>==><,*,,,,11111<<<<-+%%%%%%%%%%@. .$  +$@ $   $      $      $$   $     $  @    $   $$$$  $$$+$    $+...+++o.$$+...+++.+....++..oo...++++....oX.++..ooo...oo.ooXXX.oo,*o**oXoXo***Xo.XXXoXoXX.X*XXoXXX*XXXXX*X*******&&&*&&&;1;;;;2+%###%%%%%%%%%%%%%%%########&-<---<-----<-<<<-<,1<->>=O=#%#######%%%%%%%%%%%%%%%###",
"%%%%%%%%%%%%%%%####@###@###@##%%%%%%#>>==>1,o,o,,,111<<<<<;#%%%%%%%%%%#+$+$ ++$@ +$@ $$            $$ $     $       $ $  $$$+   $$$$$   $++...+++o. $++..++.++.+..++.o..o...+$+....o.+++...ooX++.oooo.Xoooo*ooo**XXXo**X*XX..XoXXXXXX*XXXXX**XXXXX*XX****&**&&&&&1;&;;;;;+%###%%%%%%%%%%%%%%%#######% ;<-<-----<--<-<<<<&,<>>>=OOX%#######%%%%%%%%%%%%%%%###",
"%%%%%%%%%%%%%%%###############%%%%%%+====-1,o,,,,&111<<<<<*%%%%%%%%%%%#+++$$++$  +$@ $  $      @ $  $    $ $  $      $ $ $$ $$  $$$$$ $ $+....$++.+ $++..++.+..+..++....oo...$+........+..ooX.++..o.o..oooooo.o*oXoX.oX**oX..X*XX..XX*XXXXXX**XXX**XX*******&;&&&&&;;;&;;X%###%%%%%%%%%%%%%%%#########*--<----<--<-<<<-<;,1->>==O>%#######%%%%%%%%%%%%%%%###",
"%%%%%%%%%%%%%%%###############%%%%%%;====-1,,,o,,,111<<<<-$%%%%%%%%%%%@+$$+$$$$  +$@ $            $ $      $   $   $  $$$$$$$$ $ $+$$$$$$++..+$++$$ $+++.++.++.+..$.o...o.o..$$...+........ooX$+...o..XXooo**o*oXoXX.oX**X.X.XXoXX.XX*XXXXX**XXXXX**********&&&&&1&1;;&;;:####%%%%%%%%%%%%%%%########%@;-<-<-------<-<<<<&,<->==OO#%######%%%%%%%%%%%%%%%###",
"%%%%%%%%%%%%%%%###############%%%%%%-===><1,*,,,&,11<<<<-<##%%%%%%%%%%@.$ +$$$+$ $$@   $  $       $     $     $  $  $$$$ $$$$$$$ $$$$$$$$++..+$+$$+ $+.+.++.++.+..$...+..o... $+..++...+..oooX+$..+....o*ooooXoXoXoX.X.***XoX.X*X.X.XXX*XX.X*X*XXX*X**X**&**&&&&;&&&&&&;&:####%%%%%%%%%%%%%%%#########%+;<-------<-<-<<<<1,1<->=OO;%######%%%%%%%%%%%%%%%###",
"%%%%%%%%%%%%%%%####@####@#####%%%%%%>===><1,,,,,1,11<<<<-*%#%%%%%%%%%% o$$+$  +$ $ @  $   $    @  $          $ $$  $ $$$$$$$$$+  $$$+$$$$++$+++$$$+$$+++.++.++++.++.....o....$$+...++..+...oo.++..+...Xo*o**ooo..oXXX..X*XooX.X*XXXX.XXXXXXXX*X*XXX***X**&&*&1&&&&&&;&;&;2####%%%%%%%%%%%%%%%###@#######:<--<-----<-<-<-<1,1<->==O=#%#####%%%%%%%%%%%%%%%###",
"%%%%%%%%%%%%%%%###############%%%%% >===><1,*,,o111<<<<<<X%#%%%%%%%%%%@o@$$   +$ $        $      $        $   $$  $ $$$$$$$$$$$$ $$$+$$$$+$$+$$+$$+$$+++.++++++...+.++....o..$++..++...+..ooo..++...o..o*oo**oX.XXoXo.XXX***oXoXoXX.XX.XXXXoXXo**XX***X***&*&&&*&&1&&&;&;:####%%%%%%%%%%%%%%%##########% ;<-<--<---<-<<<-<*,1->>=OO&%#####%%%%%%%%%%%%%%%###",
"%%%%%%%%%%%%%%%###############%%%%%X=>==>1&,o,,,1111<<<<< ##%%%%%%%%%% o@$ $ $$$ $$ @ $                    $   $ $  $$ $ $$+$$$$$$$$++$  +$$++$++$$+$++++.++..+.++..++.o..o..$$+...+++.+...o...++......oo*o*oXo..oXXX...X****oXX*oXXXX.XXXXXXXXX**XX**X****&&&&&&&&&;&;&&:####%%%%%%%%%%%%%%%###########%X;<<<------<--<<<1,1<->=OO>%#####%%%%%%%%%%%%%%%###",
"%%%%%%%%%%%%%%%###########@###%%%%%;O===<1*,o,o,,1<<<<<<&###%%%%%%%%%% o@  $$ $   $$       $   @ $         $  $$ $ $   $ $$+$ $$$$$$++$ $$$$++$$+$$+++++++++.+..++..++.o....+$$++..+.+..........+..o..Xoooo*oXo..XoXoX.XX*****X.X*XoXX.XXXXXXXX*X*XX******X&&&&&1&&&&&&&;:####%%%%%%%%%%%%%%%#############&<;------<-<<<<<1,,1<-==OO %####%%%%%%%%%%%%%%%###",
"%%%%%%%%%%%%%%%##@####@#######%%%%%-===><&,oo,,,111<<<<<*%##%%%%%%%%%% o@  $$ $   $  @ $               $   $     $  $ $$$$$$$  $$ $$+$$  $+$+.$$$$$+++$+$+.+.+.+++..++...+...+++.....+.........X..o...o.oo*oXX*...X*XoX.XoXoXo*XXX*XXXXX+.XXXXXX**XXX*****X*&&&&&&1&&&;&&:@###%%%%%%%%%%%%%%%######@#####%@;<<<<------<-<<;1,1<->=OO;%####%%%%%%%%%%%%%%%###",
"%%%%%%%%%%%%%%%###############%%%%%>===-1*,,,,*111<<<<<<$%##%%%%%%%%%%$.@$ $$ $   $$ @   $      $         $ $      $$$ $ $$$$ $$$ $++$$$ $$+++$$$$++$+++$+.+....$+.++....+...++++....$+.....X......o.XoX.o*oXXoo..XXXoXoXXoX*X*X.XoXoX.X+XXXXXX**X*XXX*X****&&&&;&&&&&&&:; ###%%%%%%%%%%%%%%%##############+;<-----<-<-<<<<1,,1<>==O=%####%%%%%%%%%%%%%%%###",
"###############%%%%%%%%%%%%%%%###% ===><;*o,o,,,11<<<<<;#%%%##########$.@$ $$ $        $                   $$$       $  $$$+$  $   $+$$$ $$+++$$$$+++$++$+...+.+$+..++...++..$++.+.o+$+.........o...oXo.oo*ooXo*o..XXXoXXoXXXX*XXXoXXXXXXXXXX.XX*XX*XXX******&&&&*&&&&&&&2 %%%###############%%%%%%%%%%%%%%%&;-<<-----<-<<<1,&,<<>=OO#%%%%###############%%%",
"###############%%%%%%%%%%%%%%%###%X===><;*o,,o,111<<<1<&%%%%#########%+. $ $$ $$   $ @  $      $            $ $    $$$$$$$$+$ $$   $++$$$$$+++$$+++++$++$+.+...+$$+.++.+..+..+++....+$+.........oX.oooXoooooXXo*o..XXX.XXX.XoX*X.X.XX.XX.XXXXXX**XXoX**X*X**&&*&&&&&&&;&:;$%%%###############%%%%%%%%%%%%%%% ;<--------<<<<<,1,1<>=OO*%%%%###############%%%",
"###############%%%%%%%%%%%%%%%###%;==>-<;*o,,,,&11<<<<<+%%%%##########+.@$ $$ $$   $ @    @                $  $     $ $  $$+$ $    $+$+$ $$$++$$++++$$++ +..+..+$++.++.+..++.+++....+$+.......o.Xo.oXooXooooooXooX..XXX.XXX.XoXX.X.XX.XXX.XXXX.X*XXXX**X*X**&&&&&*&&&&:&*2 %%%###############%%%%%%%%%%%%%%%#:<<<---<---<-<<1,,1<-==O=%%%%###############%%%",
"###############%%%%%%%%%%%%%%%###%-==>-<1,o,o,,11<<<1<;@%%%%#########%Xo $ $$ $$   $    $ @ @ $        $     $$ @  $$$ $  $$$ $    $+$+$  $$++$$+++$+$++$$.+..++$$++++....++.+++....++++...o....ooXooXoXo.oooXooXoXXX..XXoX.X.X.XXX.XX.XXXXXoXXX**XXXXX***X*&&&&&&&&&&&&:& %%%###############%%%%%%%%%%%%%%%%@;<--------<<-<1,,11<>=OO$%%%###############%%%",
"###############%%%%%%%%%%%%%%%####>==-<;1,,o,,*111<<<<&%%%%%##########oo $ $$ $$@  $      @                   $ @   $     $$$     $$+$+$$ $$$$$+$.++$+++$++++.+$$$.+++.+..++..+$+..++++....o...o.oo.XoX.XoooooXooX.X.X..XXXX.XXX.oXoXXXXX.X**X.X****XXXX**o*&&*&&&&&&&&&&2 %%%###############%%%%%%%%%%%%%%%#%*<<<----<---<<1,,,1;-=OO-%%%###############%%%",
"###@###@###@###%%%%%%%%%%%%%%%##%$=O=-;;1,*,,,,1<<<<1;o%%%%%#########%.o $ $    @  $$                        $$ @  $$     $$  $    +++++$ $$$$$+++++++$$$++.+.+$$++++++++.+$..+++..+.++......o..o...X.X.X.ooXoXoXoXX.X..XoX..XXXXXX.XX.XX.X**XXXoX*XXX**XXX**&&&*&&&&&:&&: %%%###@###@###@###%%%%%%%%%%%%%%%##@;-<------<<<-<1,1&1<>=OO%%%###@###@###@###%%%",
"###############%%%%%%%%%%%%%%%##%XOO><<<&,,,o,&111<<<; %%%%%###@######.. $$$  $    $      @                     @     $  $ $$$    $$$$+$   $$$$+++++++++$+.+.+++$+.++.++..+$+..+++.++++.......o...oX.XXo...ooXXXoo.XXX...XXX..XX.*X.XXXXXXXXoXXoXXX*XXX*XX***&*&*&&&&&&&:& %%%###############%%%%%%%%%%%%%%%##%X--<-------<<<1,11&->=OOX%%###############%%%",
"###############%%%%%%%%%%%%%%%##%&O=>-<1&oo,,*11<<<1<*%%%%%%##########$.$ $$  $$              $               $     $ $   $ $ $ $ $$+$+$$  $$$$++++.++$$++++++++++.$+.+...$++..+$++++.+.....+.o.....XXoo..oX.X.o*X.Xo...X.X.X.X.XXoXX..XXXo*XXX*XXXX*X***X*****&*&&&&&:&:&+%%%###############%%%%%%%%%%%%%%%###@;-<----<--<-<1,,*1<>=OO>%%###############%%%",
"###############%%%%%%%%%%%%%%%##%-O=>-;1&o,o*,11<<1<;.%%%%%%#########%$.   $  $$   $                   $              $  $ $$  $ $$$$+$$$  $$$$$++++.+$$++.++++++..$+.+..+$++..+$++.+++...o...o..o.XoX*X..ooooX.oo...X.X..X+XX.XXXXoXX+.XXXX*XX*XXXXXXX***X**&*&*&&&&&&**:+%%%###############%%%%%%%%%%%%%%%####&-<<-------<<<1,,&1-=OOO%%###############%%%",
"######@########%%%%%%%%%%%%%%%###>O=><;&*oo,,,11<<;<& %%%%%%##########$.   +  $+      @                       $       $ $ $  $ $$ $$+$$$$  $$$$++++++$$++++++++++o.$+++.+$+++..+$$++++++..o.+.o....oXXX...XoXoX..X.XX.X...+XX..XXoX.XXXXX.XXoXXX*XX**XX***X**&**&*&&*&:*:&X%%%########@######%%%%%%%%%%%%%%%###%$<--<----<-<-<1,,,1<>=OO+%########@######%%%",
"##@#########@##%%%%%%%%%%%%%%%#%$==>-<;*,ooo*1&1<<1<*%%%%%%%##########$.  $$  $$  $                                    $$ $$$ $ $$$$$+$$$  $$$$$$++++$$++++.+++++X.$+.+++$$++..+$$++++++.o..+.oooo.X*XXX.o.ooXoX+...oX....+XXX.X*XXXoXXXXXXXXXX*XXX*XXX*&*X***&*&*&&&&&&:&:#%%#####@#####@###%%%%%%%%%%%%%%%#####&--<-----<-<<<1,*1;-=OO>%#####@#########%%%",
"###############%%%%%%%%%%%%%%%#%XO=>--<&*oo,,,11<<1<o%%%%%%%####@#####$o$ $+  $$      @             $  $             $ $$ $$$$ $$$ $+$$$$   $$+$+$+++$$++++.++.+...+$++.+$$+..+++$+.++++.o.++.oo...o*XX...oX..oX+...XX.X.++XX.+.X*X.X..XXX.X..X*XXXX*XX&*XX*&*&&&:&*&&&:*&:#%%###############%%%%%%%%%%%%%%%####%X-<<------<-<<11,11<>=OO#%###########@##%%%",
"########@######%%%%%%%%%%%%%%%#%;O=>-<<&,oo,*11<<<<& %%%%%%%#########%Xo$ ++  $$  $          $  $              $       $$$$$$$$$$$$$+$$$$$ $$+$++++++$$.+...++++..+$+++.+$+++..++$++++....+++..o....XX...o.o..oX+..XoX.o.++.XX..XXXX.XX.XXXXXXX*X.X*XX**:**&***&&&*&&&&&:*:#%%###############%%%%%%%%%%%%%%%#####@;<<<--<--<-<<1&1&1;-=OO*%##############%%%",
"###############%%%%%%%%%%%%%%%#%-O==><;,*,o,11;<<<1&#%%%%%%%##########+o+$++   $  $      $     $ $          $  $       $$$$$+$$$ $$$$$$$$  $$$$+$++++$$+++.+$$++..+$$$+.+$+.+.+++$$+++.+..++..........X..oXo..XX....*XoX.++XXX.X*X.X.X.XXX.X.+XXXXXXXX*&*XX***&&&&**&&&&&*:@%%###############%%%%%%%%%%%%%%%#####%*-<-------<-<111&11->=O-%##############%%%",
"###############%%%%%%%%%%%%%%%#%>===><;*o,o,111<<<1X%%%%%%%%##########+o$$+$  $$$            $                  $      $++$$+$$ $$ $$$$$$$ $$$$$$+++++$++..$$$++..$$+$..+$+.++.+++++++..+.+++...o...X....ooX..oX....oo.XX.+.XX.XX.XX.+.XX.XXX+XXXXXXXXX*******&*&&&*&&&&&::@%%###############%%%%%%%%%%%%%%%######$<-<------<-<<&1,1&->=OO#%#############%%%",
"%%%%%%%%%%%%%%%###############%@=O==>;1ooo,o11<<1<&$########%%%%%%%%%% o$$$$   + $$ $ @  $    $                        $+$$+$$$   $$$$$+$$ $$+$+++++++$++++$$++++.$+++...$+++++.++++$$+..+++...........X..oo........X*X..++XXX.XX.XX.X+XXXXX.+XXXXXXXXX*:*X*X**&&*&&&&&:&::$##%%%%%%%%%%%%%%%###############%%%%%%%;-<-------<-<1,&1&1-=OO+%%%%%%%%%%%%%%###",
"%%%%%%%%%%%%%%%###############%+=O=>-1*o,o,,111;<<&#########%%%%%%%%%% X $+$   +$           $                   $  $   $$$+$+$   $ $$$+$$$$ $$$$$$$$++$++.+$$++++.+$++..+$$.++++++$+++++...+..+......X.o.Xo.+X...X..oooXX.+.XX.XXX.XX.X.XoXXXX.XXXXXXXXX*X:*X***&&*&&&&&:*2+##%%%%%%%%%%%%%%%###############%%%%%%%X<<<----<---<111,&1->OO-%%%%%%%%%%%%%%###",
"%%%%%%%%%%%%%%%###############%*=O=>-&*oo,o,1;<<<1*#########%%%%%%%%%% X  $$$  $$$$           $      $                $ $+$+$$$   $$$$++$$ $$$$+$$$$+$$++++++++++.+$+..++$$+.++++$+++.+..+.++............ooX...+Xo..XoXX...XXX.XoXX.X.+X.XX.XX+XX.XXXXX*XX**X**&&&&&&&&:&::+##%%%%%%%%%%%%%%%###############%%%%%%%@;<-<-----<-<<1,&,&<>=O=%%%%%%%%%%%%%%###",
"%%%%%%%%%%%%%%%###############%;O==>-&o,o*,*11<1<;.#########%%%%%%%%%% *$ $$   $ $$ $      $                   $  $ $  $$$$+$$    $$$$++$$  $$$+$$$$++$$++++$+$++.+$+.++++$$.++.+$++++..+++.+......+..X...Xo.....X.X..XXX.+..XXXXX.XoXX+.XXXXX+XXXXXXXX*XX**X***&&&&&&&&:*2$##%%%%%%%%%%%%%%%###############%%%%%%%%&<-<<------<<111,&<>>=O%%%%%%%%%%%%%%###",
"%%%%%%%%%%%%%%%###############%-O=>-;&ooo,,,1<<<<1 #########%%%%%%%%%% *+ $$   $    $$   $                          $   $$$$+      $$$+++$ $$ $+$$$$++$$+++$++$+++.+$+++$++$+.+++$++++..+++++.+.o......X..Xo...+..o..XoXX..X+XXoX.X.XXX.XXX.XXXXXXX*XXX*XX***X*&**&&&:&&*::X##%%%%%%%%%%%%%%%###############%%%%%%%% ;-<-----<--<1&1*11->=O&%%%%%%%%%%%%%###",
"%%%%%%%%%%%%%%%#####@###@#####%>O=>-1&oo,o,*11<<<*##########%%%%%%%%%% X$@$$   $ $  $                              $ $  $$$$$$    $$$$++$$$  $$+$$$$$+$$+++$$$+++++$++++$++$+++.+$++++..++$++++....+..o....X.+....X.X.XX..+..X.XXXX..*X.XXXXXX+.XXXXXXX*XXX**X*&**&&&*&&:*:X##%%%%%%%%%%%%%%%###@###@###@###%%%%%%%%%;<-<------<-11111;<>=O>%%%%%%%%%%%%%###",
"%%%%%%%%%%%%%%%##@###########%#>=>>-1*o,,,,11;<11*##########%%%%%%%%%%$X$ $$      $                                 $   $$$$$   $  $$$+.+$$ $ $++$$$++++++$++$++++++$++$+++$$+..+$+.+...+++++$+......oXo..Xo.+....X.X.XoX+.X+XXX.X.+.XX.X.XXXXX.XXXXXXXX*XXX****&:*&&:&&&*::##%%%%%%%%%%%%%%%###############%%%%%%%%%$;-<-----<--;1;1;<->=OO%%%%%%%%%%%%%###",
"%%%%%%%%%%%%%%%##############%$===><1o,*,*,&11;<1.######@###%%%%%%%%%%.X$@ $     $  $   $                          $ $  $$$$$$  $  $$$+++$$$  $++$$$++$+++$++$++++++$+$++++$$+..++++.+...+$++++..+...ooX...XX++..X.....X.X+.+..XXXX..*XXX.XXXoXXX*XXXXXX*XXXX*****&:&*&&:*::##%%%%%%%%%%%%%%%###############%%%%%%%%%%:--<-------<11<<<1-=OO@%%%%%%%%%%%%###",
"%%%%%%%%%%%%%%%##############%X===-<&o,o,,,111<<;$##########%%%%%%%%%%.X$@ $      $  $                         @ $  $ $  $$$$ $ $$$$$++++$$ $ $++$$$++$+$+$$++++$$+.+$$++++$$++++++++..++++++.+.++..ooo........X..+...XXX..X.+XXX.X.XXoXXXXXXXXo*XXXX*X*XX*******:*&&:&&&*::##%%%%%%%%%%%%%%%###############%%%%%%%%%%$--<-----<-<1;11;1<>OOX%%%%%%%%%%%%###",
"%%%%%%%%%%%%%%%##############%&==>>;*,*,*,&1;<1<& ##########%%%%%%%%%%+X$  $      $  $                        @  $ $ $  $ $$$    $  $$+++$$$$$$$+$$$++$++$+$$$+$+++++$$+++++$+.+++$++..+.++++....+.ooo.X.++...+.X+X+....X...X.XXXoX..XXoX.X.XXX**XXXX*XXX*X*X*:****::&&&:*::@#%%%%%%%%%%%%%%%#########@#####%%%%%%%%%%%;--<------<;1<<<;<>=O&%%%%%%%%%%%%###",
"%%%%%%%%%%%%%%%#####@###@####%;===-;*o,,,1111<<<&@##########%%%%%%%%%%X*+  $$    $$  $                         @     $   $$$$ $$ $$$$++.+$$$$$$+$$$$++$+$+$$+$+++++.+$$++++$++++++$++.+.+++++...+..ooo....+..+...+..+.XXX.+X+.X.XXoX.XX*XXXXXXX***XXX**XX**X*****:***&&&&*::@#%%%%%%%%%%%%%%%##@###@########%%%%%%%%%%%.--<----<--;1<<1&<>=O>%%%%%%%%%%%%###",
"%%%%%%%%%%%%%%%##############%-===-;*o,o,,,&<<11*###########%%%%%%%%%%$*$ @$$  $  $  $     @                       $      $$$ $ $$$$$++++$$$$+$+$$ $+$$+$$+$$++++++.$$$++++$$$++++$$+..++.+++..+..o.oo.++.++++++.+++.+..X.+...X.X.XX.XoXX.X..Xo***XXX*XXX***X******:*:&&:*:: #%%%%%%%%%%%%%%%############@##%%%%%%%%%%%#---<------<;<<1;;>=OO#%%%%%%%%%%%###",
"%%%%%%%%%%%%%%%###############>===-1*o,o,*11<<<;X###########%%%%%%%%%% X$  $$$@                   @      $    @ @ $  $  $ $$$ $  $$$$+.++$$$$$+$$$$$+$+$+$$+$+++$+++$++$+++$+$+++++$++.++.+++.....o.o..+$++++++X+++X+..X..XX.X..X...XX.XoX+XXX*o*X*XXXXXX*******X****:&&&:X: #%%%%%%%%%%%%%%%###############%%%%%%%%%%%%*---<------;<;<;&-=OO*%%%%%%%%%%%###",
"%%%%%%%%%%%%%%%##@############>===-1*,o,,1,&1<1<.#######@###%%%%%%%%%% X$ @ +              @                     $    $   $$$ $  $$$$$+++$$ $$+$$$$+++$+$+$$$+++$$++++$$+++$$+$++++$$+..+.+++........oX$$+++++++++++.+..X..X.+X..X.X.X.XXX...X**X*XXX*XXXX**XX*:*X**:*&:&&:: #%%%%%%%%%%%%%%%###############%%%%%%%%%%%%#--;-------<<<;<&<=OO&%%%%%%%%%%%###",
"%%%%%%%%%%%%%%%#############% ====<1,*,*,&11<<11$%##########%%%%%%%%%%@X$   $ @     @                                $$  $ $   $ $$$ $++$$$ $$$$$$$$.+$$+$$$$+++$+++$++$+$+$$++++++$$++.+.++.+...o..o..$$+++++++X++..++.X...ooX.X.X.X..X.X.XXX**o**XX*XXX*X*XX*&**:**:**&:::+#%%%%%%%%%%%%%%%###############%%%%%%%%%%%%%&----------;<;1;;>OO>%%%%%%%%%%%###",
"###############%%%%%%%%%%%%%%.O==><1*,*,,1;1;<1&@%%%%%%%%%%%##########@*+$  $                                    $    $    $$ $ $$$$ $$+$$$  $$$$$$$.++$$+$$$++++$+$++++$++$$++$+++$$+++..++.....o.....$$$+++++++++..+..X+..XoX..X+XX.+.XXX++XX*X*XXXXXXXXX******XX****:&&X:+%###############%%%%%%%%%%%%%%%############% --<<--------;;1;>OO=###########%%%",
"###############%%%%%%%%%%%%%%*O==><&,*1,*111<<1&#%%%%%%%%%%%##########@*+$  $     $       @                          $    $ $  $ $+$  $+$$$  $$$+$$$+++$$+$$$$+++$$+$+$$$++$$++++++$$++++.++..........+$$$++++$+.++.X.+....XooX.X..XX.+.X.XX.XX*XX*XX*X*XXX*:X**X*:X*:**&:::+%###############%%%%%%%%%%%%%%%##############;--<---->---<<;<>=OO$%#########%%%",
"###############%%%%%%%%%%%%%%;OO=>1&&,,&1*11<<1*%%%%%%%%%%%%###########X++  $                                        $$    $$ $  ++$ $$+$$$   $$$+$$++$$$+$$$+$++$$+$+$+$+$$$$+++++$$$+++.++.......+.+++$$++++++.++.o.X.X...XXXXXX..X..+X.XX+XXXXXXX*XXX*XX**:**X*X***:*:*X:+%###############%%%%%%%%%%%%%%%#############%+---<->-->--;-<<-=OOX%#########%%%",
"###############%%%%%%%%%%%%%%-O==><&,&,,1,11<11X%%%%%%%%%%%%###########*+$  $  $@               @    @           $ $ $$  $$ $  $ ++$  $+$$$   $$+$$ +++$+$$$$++$+$$$+$$$$$+$$++$++++$+$+++++....o..+.++$$$$+.+.+.+..oX.X.+.X.o.+X.X.XX.X+.X..XXXX*XXXXXX*XXXX****XX**:**:*::+%###############%%%%%%%%%%%%%%%##############%;-<-<-->------->=OO*%#########%%%",
"###############%%%%%%%%%%%%%%-OO=-;&&,&,1&1;<11X%%%%%%%%%%%%###########*$$  $       @                        $     $ $$$   $$$ $$+$  $$+$$$$ $$$+$+$+++$+$$$$$+++$$$$+$$+++$$++$++++$++++++++..o....+.+$$$+++.X.+++.oXXX.+X..X.+XX...X..X.X.+.XXXXXXXXXXXXXXX**:XX*:**:*:XX:+%###############%%%%%%%%%%%%%%%##############%$--<<->->>>>---=OOO;%#########%%%",
"###@###@###@###%%%%%%%%%%%%%%>OO>-;&1,11&111;11$%%%%%%%%%%%%####@######X+$  $$ $                                   $$$$  $$ $ $$$$$   $$$$$$$$$$$++++$+$$$$$$+$++$$$$$+$+$$$$$$++++$$$++++$+.....o..+.++$$++....++...XXX....X..X+X+.XoXX.+XX.XXX.XX.XXXXXXXXX*:*XXX*X:**XXX:X%####@###@###@##%%%%%%%%%%%%%%%##@###@########%;><--->>>>>>;-=OOO=%#########%%%",
"###############%%%%%%%%%%%%%%=O==-;,11;111<11<&@%%%%%%%%%%%%###########X+$$  $      @                                $$$   $$  $$$$   $$$$$$$$$$+$++$$+++$$$$$+++$ $+$+$$$++$$$$+.++$$++++$+....ooX.+.+++$++.X.+++...X.X.X+..X.+X+X.XXX.X+XX.XXX.+.XXXXXXXXXXX***XX***&*X:XXX%###############%%%%%%%%%%%%%%%##########@####%.>-<<->>>->>--=OOO=%####@####%%%",
"###############%%%%%%%%%%%%%#=OO>-1&1*11&1<1<1&#%%%%%%%%%%%%###########X+   $                   @              $   $$$$$   $ $$$$    $$$$$$$$$$$$++$$$$++$$$$$+++$ $$+++$++++$$+++++$$+++$+.X..o.oo.+.++$$$+....++.XoXXX...XX+.X.X...X.X.+XX.XXX.+.XXXXXX*XXX**XX*X:X*:*XXX:X%###############%%%%%%%%%%%%%%%###############%%<-<-->>>>>>>->O=OO%#########%%%",
"###############%%%%%%%%%%%%% OO=><1&11111;<11;*%%%%%%%%%%%%%##########%X+ $         @   @             @            $$ $$$  $$ $$$ $    $$$$$$++$$++  $++++$$$$+$+$ $$$+$$$$++$$$+++$+$$+++$.o..o.oX++++$+$$++.+..X..oXXXX.XXX..+X+X..X.XX+.XX.XXX+.+XXXXX**XXXXXXXXX***:XXX:X%###############%%%%%%%%%%%%%%%###############%%X>-;->>>=>>>>=OOOO %########%%%",
"######@########%%%%%%%%%%%%%+OO=><&,1&1;11<1;<*%%%%%%%%%%%%%###########++$$  $                             @     $ $ $$ $  $ $$  $$$   $$$$$$$+$$++  $$+$$$$$$+$+$$$$$++$+$++$$+$+++$+$+++$..+.....+$+++$$+++.+.+....X.X...XX+++X++.X..X.+XXX.XX.++XXXX.X*XXXXXX:XXX***:XXX:X%#########@#####%%%%%%%%%%%%%%%###############%%%>--->=>>=>====OOO;%########%%%",
"##@#########@##%%%%%%%%%%%%%XOO=><1&11;11;<11<X%%%%%%%%%%%%%#####@#####+$$$  $$     @    @            @          $ $$$ $$ $ $$ $ $ $    $$+$$+++$+$  $$$$$$$$$$$$$$$$$$++$+$+$$$++++$+$+++$.....o..++$++$$++.+.++.....X..X.XX.+++X+.X.XX..XXXXX.X.+.XXX.X**XXXXXX*XXX&**XXX:X%######@########%%%%%%%%%%%%%%%#####@###@#####%%%X>--->====>==OOOO-%########%%%",
"###############%%%%%%%%%%%%%*OO=-<11&111;1;1;; %%%%%%%%%%%%%###########+$$   $                             @     $ $ $ $    $$   $$   $$ $$$$$++++$  $$+$$ $$$$$$$$$$++$$++$$$$$$$++$+$++++..+....+++++$$$$+.+.+++X+..++X+..X.++.++.XoXX.+XX.X.X+X+XXXXXXXXXXXXXXXXX:**:XXX:X%###############%%%%%%%%%%%%%%%###############%%%%---->=>=>===OOOO>%########%%%",
"########@######%%%%%%%%%%%%%;O==-;1&1&1&<11<1&#%%%%%%%%%%%%%###########++$   $  $    @                        $   $ $ $  $ $ $$  $ $  $ $$$$$+$+$$$$ $$$$$$ $+$$$$$$$$+$$$+$+$$$$+$+$$$+++++...o.+++++$+$$$+.+++++.+...+..+X+X+++X.X.X..X.XXXXX+X.XXXXXX*XX*X*XXXXXX***:XXX:X%############@##%%%%%%%%%%%%%%%##@#########@##%%%%X>-->=======OOOO-%########%%%",
"###############%%%%%%%%%%%%%-O=>-;111&11;1;1<*%%%%%%%%%%%%%%###########$+   $$     $    @                        $ $ $ $  $ $ $  $$   $$ $+$$$$+$$$  $$$$$$ $$$$$$$$$$+$$$$$$$$$+$$++$+$++$+..+..++++++$$$$+.++++++++++X+....+.+.X+X....X.XXXXXX+X+XoXXo*XXXXXXXXXXX:*:*XX::X%###############%%%%%%%%%%%%%%%###############%%%%%-->>=>=====OOOO:%#####@##%%%",
"###############%%%%%%%%%%%%%>O=>-;1&1&1;<11;1X%%%%%%%%%%%%%%########### +    $  $    @                            $ $ $  $   $     $   $$$$+$$$+$$ $ $$$$ $  $$$$$$$$$+$$$$+$$$$$$$$+$++$+$+....+++++++$$+$+.+++++++X+++++.+X+X..X+..+.XXXXoX.XX+X.X.X.X*XXXX*XXXXXX*:**XX*:+%###############%%%%%%%%%%%%%%%###############%%%%%*>>>======OOOOO@%########%%%",
"%%%%%%%%%%%%%%%############%=O=><;1&1&1;<1;1;X##############%%%%%%%%%%%@+ $                                     $      $   $$ $  $$$ $ $$++$$$$$$$$  $$+$ $ $$$$$$$$$$$$$$+$$$$$+$$+$$$+++$+...+.++$+$+++$++.++++++++++X+++X+.X...++X.X.XXXXXXX++.XXX+XX*XX*XXXXX+XX&&*XXX::+%%%%%%%%%%%%%%%%###############%%%%%%%%%%%%%%%####%@>>====O==OOOOO#%%%%%%%%%###",
"%%%%%%%%%%%%%%%############%=O=><111&1&1<;;1;+##############%%%%%%%%%%%@X   $     @  @         @                   $ $  $ $   $   $ $ $$$$+$$$$$$$ $ $$+$ $$$+$+$$$$$$+$+$$$$$$$$$$$++$+++$+....+++$$++++$$++++++++++++++++++++X.X+.+...XXXX.XXX+.XX.X.X*XX:XXXX++X*&&*XXX*:+#%%%%%%%%%%%%%%%###############%%%%%%%%%%%%%%%######>======OOOOOOO%%%%%%%%%%###",
"%%%%%%%%%%%%%%%############%OO=><1;1&11;;11;; ##############%%%%%%%%%%%@+                                       $   $  $  $ $$ $  $ $ $$$$+$+$$$$$$  $$$$$ $$$$+$$$$+$$$$$+$$$$+$+$$$+$$++++++..+++$$$++$$$++++$+++++$+++++++++..X+.X+X++XX..XX.+.XXX.XX*XXX*XXX+.X*&&:*XXX:X#%%%%%%%%%%%%%%%###############%%%%%%%%%%%%%%%#####%;O===OOOOOOOO=%%%%%%%%%%###",
"%%%%%%%%%%%%%%%###########%@OO=-<;1;&1;1<1;1&###############%%%%%%%%%%%#X            @    @                        $  $ $     $$   $$$ $$$+$$$$$$$ $ $+$$$ $$+$+$$$+$$$$$+$$$$$$$$$$$++$++++++.+++$+$$+$$$$$+++$++++++++++$+++++.X+++++..XXX+XX.++XXXXXXXXX*XXXX+XX*&&**XXX:X#%%%%%%%%%%%%%%%###############%%%%%%%%%%%%%%%#####%#OO=O=OOOOOOO>%%%%%%%%%%###",
"%%%%%%%%%%%%%%%############ OO=>-1;11&1<;11;*###############%%%%%%%%%%%#+         @            @              $   $ $    $ $$$$   $ $ $$$$+$$$$$$$$$ $$$$$ $+$+$$$$$+$$$$+$$$$$+$$+$$++$+++++$.++++$$$+$$$$$$+$$++X$+$++++++$++++X+.++++XXX.X..+++X*X.XXX.X*XXX++X**:*XX:XXXX%%%%%%%%%%%%%%%%###############%%%%%%%%%%%%%%%######%;O==OOOOOOOO>%%%%%%%%%%###",
"%%%%%%%%%%%%%%%#####@#####%+OO=>-&1&1;;<;11;X########@###@##%%%%%%%%%%%%+      @                                   $$  $    $ $$ $  $$ $$$+$$$$$$$$$$$$$$$$$$+$+++$$$+$$$$+$$$+$$$$$$++$++++++++++++$$+++$$$+$+$$++++$++++$++X+++..+.++++XX++XXX++XXX..X.XXXXXX+XX**X::XXXXXX#%%%%%%%%%%%%%%%####@###@###@##%%%%%%%%%%%%%%%######%#=OOOOOOOOOO;%%%%%%%%%%###",
"%%%%%%%%%%%%%%%###########%XOO=><&&1;1;<;1;;$%##############%%%%%%%%%%%% $    @  @         @           $   $   $    $$      $ $$  $ $ $$$$$$$+$$$$+$ $$$$$$$+$++$$$$$+$$$$$$$$$+$+$++++$++.+++++++++$$+$$$$$$$+$+++.+++.+++++++++X+.++++XX.+..++++XXXXXX..XXXX++XXX:X*XX:XX:$#%%%%%%%%%%%%%%%###############%%%%%%%%%%%%%%%#######%+OOOOOOOOOOX%%%%%%%%%%###",
"%%%%%%%%%%%%%%%###########%XOO=><&&1;;1<;1<;################%%%%%%%%%%%%#$  @     @            @                   $$    $ $ $ $$  $ $$$$$$$$$$$$$+$$$+$$$$+$+$++++$+$++$$$$$$$$$$+$$$+++++++$$++++$$$+$$$$+$$$$$+++.++.+.+$++++++.+++++.X.+.X+X++.XXXoXX.XXXXX+XX*XXXXXXXXX+#%%%%%%%%%%%%%%%###############%%%%%%%%%%%%%%%########%;OOOOOOOOO$%%%%%%%%%%###",
"%%%%%%%%%%%%%%%##@#########*O==><;&1;<;1;1<&%#####@#########%%%%%%%%%%%%%$   @    @              @              $  $$$    $ $$$$   $ $$$$$$$$+$$+$+$$$$$+$+$+$++$+$+$$$+$$$$$$$$$$$$++$+++.++$+++++$$++$$$$+$$$+$+++.+++++.+$+++.X++..++XXX+X+++.X+XXXX.oXXXX+XXX***XX++X:+:+#%%%%%%%%%%%%%%%###############%%%%%%%%%%%%%%%########%%>OOOOOOOO@%%%%%%%%%%###",
"%%%%%%%%%%%%%%%###########%&OO=><11&;1;<1&<*%###############%%%%%%%%%%%%%$        @  @       @  @    @              $     $ $$$$$  $ $$$$$$$+$$$$$+$$$$$$+$++$$+++$+$$$+$$$+$$$$$$$$++$+++.++$$++$$$+$+$$$$$+$$+++$+.+++++.+$++++.+++.+..+X++.++.+XXXXXXoXXX+.XXX*:XX+X+XXXXX#%%%%%%%%%%%%%%%###@####@######%%%%%%%%%%%%%%%##@######%%>OOOOOO=%%%%%%%%%%%###",
"%%%%%%%%%%%%%%%######@#####&OO=><1;;1;<;1;<+%#########@#####%%%%%%%%%%%%%    @    @              @                 $$ $ $ $ $$$    $ $$$$$$$$+$+$$++$$$+$$+$+$+$+$$+$$$+$$$$$$$ $$$+$+$++++++$$++$$$+++$$$$+$$$+++$+..++++X.++++++.+..+..X++X+.XX+X+XXXXooXX+X+XX**X+XX+XX+:+#%%%%%%%%%%%%%%%############@##%%%%%%%%%%%%%%%##########%#=OOOOO*%%%%%%%%%%%###",
"%%%%%%%%%%%%%%%###########%&OO=><;&;<;;<1;<@%###############%%%%%%%%%%%%%#$  @    @        @ @  @              $  $ $$    $$$$$$ $ $ $$$$$$$+$$++++$$$$$+$$$+++$++$$+$$$$$$$$$$  $$$++++++++++$$$+$+$++$$$$$++++++++++.++...++.+++.+X.++..++.++..X+X.XXXXXX.X++X*:XXXXX+XXXXX#%%%%%%%%%%%%%%%###############%%%%%%%%%%%%%%%#####@#####%#>OOO&%%%%%%%%%%%%###",
"%%%%%%%%%%%%%%%###########%XOO==-;&;<;<;1;;#%############@##%%%%%%%%%%%%%#$   @   @  @  @         @           $  $ $$ $ $$  $$$ $ $ $$$$$$$$+$$+$$+++$$$+$+$+$++$+$$$$$$$+$$$$$$ $$+$++$+.+++++$+$+$+$$$+$+++$$++++++.++++.+....+++..+.+.+++X++.X.X++XX.XXXX++.X***XXXXXXX$XX#%%%%%%%%%%%%%%%###############%%%%%%%%%%%%%%%############%%+X@%%%%%%%%%%%%%###",
"%%%%%%%%%%%%%%%###########%.OO==-1;;;<;;1;&%%######@########%%%%%%%%%%%%%%$   @    @        @   @                    $    $ $ $$ $ $ $$$$$$$+$$$++++++$$$+$+$+++$++$$$$$$$$$$$$$$$$$+$++++++.+++$$++++$+$$$+++$+++++.+++$+.+...++++++..+++++X++++X+X+XXXXXXXXXXXX*:X+XX+XX$XX#%%%%%%%%%%%%%%%####@###@######%%%%%%%%%%%%%%%##############%%%%%%%%%%%%%%%%###",
"%%%%%%%%%%%%%%%############ OOO=-&;<<;<;&;X%%###############%%%%%%%%%%%%%% $ @    @@       @  @             $   $ $ $ $ $$$ $ $ $ $$$$$$$$$$+$+$+$+$$+$+$+++$++$+$++$$$$$$$$$$$$$$$$$$+$++++.+++$$+++$$$$$+$$$+$$++..++$$++++.+.+$++..+++X+X+++.X.XX+++X.XXXX+XXXX:XXXXXXX$XX#%%%%%%%%%%%%%%%###############%%%%%%%%%%%%%%%###############%%%%%%%%%%%%%%%###",
"###############%%%%%%%%%%%%%OO==>;<;<<<;1<.%#%%%%%%%%%%%%%%%############## $@ @ @  @    @       @ @          $     $  $   $$   $$ $$$$ $$+$$+$+$++$$$$$$$++$$+++$++$$$$$+$$$+$$$$$$$$$+$+++..+++$+++++$$$$$$+++$++++.++++++++++.++$+.XX++++.X++.+X+X+++XXXX.XXXXXX*XXXX+XX$XX%###############%%%%%%%%%%%%%%%###############%%%%%%%%%%%%%%%###############%%%",
"###############%%%%%%%%%%%%%OO==>;;--<;1;;$%#%%%%%%%%%%%%%%%##############@$      @@  @  @ @                      $  $$  $$  $ $$$$ $$$$$$++++++$$$$$$+$+$++$+++$$+$$ $$$$$$$$$$$$$$+++$+++..+++++++$+$$$+$$$+++++++.+++$++++....+$+..X++++X+.+.+++X.+.XXXXXXXX+XX:XXX++XX+XX%###############%%%%%%%%%%%%%%%###############%%%%%%%%%%%%%%%###############%%%",
"###############%%%%%%%%%%%%%OO==-;;--<;;1&###%%%%%%%%%%%%%%%###############$   @   @     @                     $      $  $    $ $$$$$ $$$$+++$++$$$$ $$+$$++$+++$$$$$$$$+$$$$$$$$$$$$$+$+$+.+++..++++$$$$++$$$++$++++++$+.++++...+$+..X.++++X+++.++.X+++XXX+XXX+XXX+XXX+XX+XX################%%%%%%%%%%%%%%%###############%%%%%%%%%%%%%%%###############%%%",
"###############%%%%%%%%%%%%%>O==><---;;<<;###%%%%%%%%%%%%%%%###############$ @    @    @   @  @                     $ $  $  $ $$$$$$$$$$$ $+++++$$$ $$$+$+$+++$+$$$$+$$$+$$$$$$$$$$$$++++++++++.++$+$+$+$$$+$++++++++.++++++++..++++.X.+++++++X++.XXX.X+XXXXX+XXXXX+XX+XXX+X:################%%%%%%%%%%%%%%%###############%%%%%%%%%%%%%%%###############%%%",
"###############%%%%%%%%%%%%%-O=O>----<;;<*%##%%%%%%%%%%%%%%%############### $   @  @ @  @ @     @              $ $    $ $ $ $  $ $$$ $$$$$$++$++$$   $$++$$$$++$$$$$$$$$+$$$$$$$$$$+$$++++++++++++$++++$$+$$++$+++$++..++++++.X.+++...+++++X+++.+++XX.++XXXXXXX+XXX+XX++XX+XX################%%%%%%%%%%%%%%%###############%%%%%%%%%%%%%%%###############%%%",
"###@###@###@###%%%%%%%%%%%%%;O==>-->-<<;< %##%%%%%%%%%%%%%%%##@###@#########$ @    @   @   @ @               $  $     $$      $ $$$$  $$$ $$+$$+$  $$$$$+$+$++$$$$$$$$$$+$+$$$$$$$$$+$++++++++$++++$+.++$$$++++++$+$+++++++++.+.++.X+.+++++++X++++.X.+++XXXXX+XXXXX+XX+XXX+XX######@###@#####%%%%%%%%%%%%%%%##@###@###@####%%%%%%%%%%%%%%%###@###@###@###%%%",
"###############%%%%%%%%%%%%%XOO==>->--<<-####%%%%%%%%%%%%%%%###############%$   @  @ @  @     @  @            $       $ $ $    $ $$$$ $$$$$$+$$$$ $ $$+$++$$$$+$$$$$$$$$$+$$$ $$$$$$+$++++++++$++++++++$$$$+++$++$+$++.+++++++.++++.+X++++X+++X++++.XX+X++X+XXXXXXX+.++++X+X+%############@##%%%%%%%%%%%%%%%###############%%%%%%%%%%%%%%%###############%%%",
"###############%%%%%%%%%%%%%$OOO=>>---;--####%%%%%%%%%%%%%%%#########@#####%  @  @    @    @   @   @            $     $$ $    $ $ $$$$$$$$$++++$$ $$ $$+++$$+$$$$$+$$$$+$$$+$$$$+$$$$+++++++$+$$+++++++$+$$$+$++$$$$++...++....+++..+++++X+.+++.+++XX+++XXXXXX+XXXXXX++XXXX$$%###############%%%%%%%%%%%%%%%###############%%%%%%%%%%%%%%%###############%%%",
"###############%%%%%%%%%%%%%#OO===>>--;>-%###%%%%%%%%%%%%%%%###############%#$@    @ @  @    @ @            $ $       $$  $ $   $ $ $$$ $$$$$$$$$  $$$$+$++$$$$$$$+$$$$$$$$$$$$$$$$$$++++++$+++$+++++++$$$$$+$+++$$$+++++.++..+++..X.++++X.X++++++.XXXX+++XXXXXXXX+XXX+XXX+X+%###############%%%%%%%%%%%%%%%###############%%%%%%%%%%%%%%%###############%%%",
"######@########%%%%%%%%%%%%%%=O=====-<;=;%###%%%%%%%%%%%%%%%###############%%   @ @   @  @ @                     $    $ $$    $ $ $$$$$ $$$$+$$$$$ $$$$+++$$$$$$$$$$$$$+$$$$$$$+$+$$$$+++$++++$$++++++$$$ $$$+++$$+$++++++..+.++++...++.+..+++.+++X+XX.+XXXXXXX*XX+XXX++XXXX+%###############%%%%%%%%%%%%%%%#####@####@####%%%%%%%%%%%%%%%#####@#########%%%",
"##@#########@##%%%%%%%%%%%%%%-O===>=><-=X%###%%%%%%%%%%%%%%%##@###@########%%@$ @   @ @ @    @  @  @             $  $  $$  $   $ $ $$$ $$$$+$$$$$ $ $$$$+++$$ $$$$$$$$$$$$$$$$$$$$+$$$++++++++$$+++$++$$$$$$$$+++$++++++++.+++++.++X.+++++X.X.X.++.X+XX+++XXXX*XXXX+XXX++XXX+%#####@###@#####%%%%%%%%%%%%%%%###############%%%%%%%%%%%%%%%###########@###%%%",
"###############%%%%%%%%%%%%%%XOOOO==>--=@%###%%%%%%%%%%%%%%%###########@###%%#$@  @  @ @ @ @                       $  $ $$    $ $   $+$ $$$$$$$+$$  $$+$+$$$ $$$$$$$$$$$+$+$$$+$$+$$$+++++$++$$$+$+$++$$$$$$++$+$+++++$++.+++++$++$+.+++.......+.+.+X.X+++XXXXXXXXXX+X+X++XX$%###############%%%%%%%%%%%%%%%##@############%%%%%%%%%%%%%%%##@############%%%",
"########@######%%%%%%%%%%%%%%#OOO=O=>-=>%####%%%%%%%%%%%%%%%###############%%%$   @    @  @   @     @            $     $$   $$   $ $$$$$$$$$$$$$$$$$$$$$$$$$$$$$+$$+$$$++$$$+$+$$$$$$$++++$$+++$++++++$$+$$$$$+++$+++++$+++++$++++$++++++X+X+..X++++.X.XX+XXXXXXXXXX+XXX$XX:$%###############%%%%%%%%%%%%%%%###############%%%%%%%%%%%%%%%########@######%%%",
"###############%%%%%%%%%%%%%%%=OO==O=>O&%####%%%%%%%%%%%%%%%###############%%%@  @@ @    @       @       @         $ $   $ $  $ $$ $$$$$$$$$$$$+$$$$$$++$$$$$$$$$$$$+$$$$$$$$$$+$$$$$+$++++.++$++++.++$$+$$++$$+$+++$++++++++++$+++$++++++.++.+.++.+XXXX.+XXXXXXXXXXXXX$XXXX %###########@###%%%%%%%%%%%%%%%#######@####@##%%%%%%%%%%%%%%%###############%%%",
"###############%%%%%%%%%%%%%%%;O=OOO==O@%####%%%%%%%%%%%%%%%###############%%%#   @  @ @  @ @  @    @      @     $    $ $      $$$$ $$$$$$$ $$$$$$$$$$$++$$ $$$$+$$$$$$$$$$$$$+$$$$$$$++++++++$$+++..+$$$$$$+$$$+$+$+++$++++++++++++++.++X......X+X+++X.X+XXXXXXXXXX+X++$X+X#%###############%%%%%%%%%%%%%%%###############%%%%%%%%%%%%%%%###############%%%",
"%%%%%%%%%%%%%%%##############%#OOOO=OO>%%%%%%###############%%%%%%%%%%%%%%%####$ @ @    @ @  @    @                      $   $ $$$ $$$$$$$$$ $+$$$ $ $++$$ $$$$+$$$$$$$$$$$+$$$+$$$$$$+++$$+++$+$++.++$$$$$+$$+$$+$+$+$+$++++++++++++++++.+X+X..X+++XXX.++X.XXXXXXX$+X+X$X++##%%%%%%%%%%%%%%%###############%%%%%%%%%%%%%%%###############%%%%%%%%%%%%%%%###",
"%%%%%%%%%%%%%%%###############%-OOOOOO+%%%%%%###############%%%%%%%%%%%%%%%####    @ @ @  @ @  @                   $        $$  $$  $$$$+$ $$$$$$ $$$$$$+$ $$$$$+$$$$+$$$$$+$+$$$ $$$$$+++$+$+$+++++++$$ $$++$$$+$$$+$$+$++++++++++$++++..+.+.+X.+++.XXXX+XX+X+XXXXX$X+$X$XX@#%%%%%%%%%%%%%%%###############%%%%%%%%%%%%%%%###############%%%%%%%%%%%%%%%###",
"%%%%%%%%%%%%%%%###############%@OOOOO=%%%%%%%###############%%%%%%%%%%%%%%%####@ @ @ @   @  @    @  @      @              $ $$$  $$$$$$$$$$$ $$+$ $$$++$$$$$$$$++$$$$$$$ $$+$$$$$$$$$$+$$$+$$++$+$++.+$$$$++++$$$+$$$$$+$$+$+++++++++++...++..+..++.+XX+X+X+XXXXXX+$++$+$XXX##%%%%%%%%%%%%%%%###############%%%%%%%%%%%%%%%###############%%%%%%%%%%%%%%%###",
"%%%%%%%%%%%%%%%###############%%;OOOO$%%%%%%%###############%%%%%%%%%%%%%%%####@ @   @    @   @          @         $  $      $   $$ $ $$$$$$$ $$$$ $$$$$$$$$$+$$+$$$$$$$$$$+$$$$$$ $$$+$+$$$+++$$+++++++$$$$+$$$$+$$$$+$$+$$+++++++++$+.+.+++.X+X.+..XX+X+XXXXXXXXXX$X+$+++X##%%%%%%%%%%%%%%%###############%%%%%%%%%%%%%%%###############%%%%%%%%%%%%%%%###",
"%%%%%%%%%%%%%%%###############%%%;OO&%%%%%%%%###############%%%%%%%%%%%%%%%#####   @   @ @  @     @  @             $     $  $$ $ $$$ $$$$$$ $ $$$$$$$++$$$+$$$$+$$$$$$ $$$+$+$$$$$$$$$$+$+$$+++$$$+++$$$+$$+$$$$++++++$+++$$++$$++++++++.++++.+...+.XXX+++XXXXXXXX$$X$$$++XX##%%%%%%%%%%%%%%%###############%%%%%%%%%%%%%%%###############%%%%%%%%%%%%%%%###",
"%%%%%%%%%%%%%%%##@###@###@####%%%%++%%%%%%%%%####@###@###@##%%%%%%%%%%%%%%%#####@   @ @      @  @   @                        $$   $$$$ $$$$$  $$+$$$$$+$$+$$++$+$$$$$$$$$$$$$$$$$$$$$$$++$+$+$++$$++$$+$$$$$++$$++$$+$+$++$$$+++$+++$++++.++++XX+.+X+XX+X+.XXXXXXX+X$X$$+$++##%%%%%%%%%%%%%%%####@###@###@##%%%%%%%%%%%%%%%####@###@###@##%%%%%%%%%%%%%%%###",
"%%%%%%%%%%%%%%%###############%%%%%%%%%%%%%%%###############%%%%%%%%%%%%%%%#####@   @  @   @      @  @            $ $  $   $$ $  $$ $$ $ $$$  $++$$ $++$$$$$+$+$$+$$$ $$$$+$$$$$$$$$$$$++++++++++++++$+$$$$$$+++++$+++$+++$$+++$++++++++.+++X.X+....XX+X++XXXXXXX+X$$$$X$$X$##%%%%%%%%%%%%%%%###############%%%%%%%%%%%%%%%###############%%%%%%%%%%%%%%%###",
"%%%%%%%%%%%%%%%###############%%%%%%%%%%%%%%%###############%%%%%%%%%%%%%%%###### @ @ @      @  @  @ @                       $$$  $$ $   $ $$ $$+$$$$$$$ $$$++$$$+$$$$$ $+$$$$$$$$$$$$$$$+$++$++++$++$++$+$$$$+$$+++++$++++$++++$+++$++++++.+.++.....X+++++.XXXXX$X$X$$$$$X ##%%%%%%%%%%%%%%%###############%%%%%%%%%%%%%%%###############%%%%%%%%%%%%%%%###",
"%%%%%%%%%%%%%%%###############%%%%%%%%%%%%%%%###############%%%%%%%%%%%%%%%######@   @ @ @ @     @                 $   $    $    $$$   $ $ $$$$$+$$ $$+$$$$$++$$$+$$$$$$$$+$$+$$$$$$$$$$+++++++++$+++++$$+$$$$++$++++++++$+++++++++++++++X++++++X+X.X.+++XX.XXXXX+++$$$$$$X ##%%%%%%%%%%%%%%%###############%%%%%%%%%%%%%%%###############%%%%%%%%%%%%%%%###",
"%%%%%%%%%%%%%%%#####@######@##%%%%%%%%%%%%%%%###@#####@#####%%%%%%%%%%%%%%%######@ @@ @ @ @ @ @ @   @                        $$   $ $ $ $ $ $$$$$$$$$$$+$$$$$+$$$$$$$$$$$$$$$$$$$$$$$$$$++.++++$$$$++$++$++$$+++$$+.++$+$+$$$++++++++$++++++++.++X..X.++++++.+++X+XX+$$+$++###%%%%%%%%%%%%%%%###@####@######%%%%%%%%%%%%%%%##@####@#######%%%%%%%%%%%%%%%###",
"%%%%%%%%%%%%%%%#########@#####%%%%%%%%%%%%%%%###############%%%%%%%%%%%%%%%######@  @ @           @                  $        $$  $    $$ $$$ $$$$$$$$+$$$$$+$$$$$$$  $$$$+$$+$$+$$$$$$$+++.+++$++$++++$$+$$$+++$++.++$$++$++++++++++++.+++X+X++X+..X+X+X+XX+X+++++X+$$+$X$###%%%%%%%%%%%%%%%############@##%%%%%%%%%%%%%%%##########@####%%%%%%%%%%%%%%%###",
"%%%%%%%%%%%%%%%###############%%%%%%%%%%%%%%%############@##%%%%%%%%%%%%%%%#######  @ @@ @ @ @@ @ @        @             $   $ $    $$$ $  $$$$$$$$$$$+$ $$$$$$$ $$$$ $$$$$+$$+$$$$$$$$$$+.++$+$+$$$++++$$++++$+$++++$+$$+$++$$$$$++++$.++++++++++++.X.++++X.+X+X+$$+$$+$+$###%%%%%%%%%%%%%%%###############%%%%%%%%%%%%%%%###############%%%%%%%%%%%%%%%###",
"%%%%%%%%%%%%%%%##@############%%%%%%%%%%%%%%%######@########%%%%%%%%%%%%%%%####### @ @  @ @ @ @ @   @               $   $    $  $  $   $$$ $$$$ $+$$$$$$$$$$$$$$ $$$$$$ $$$$$$$+$$$$$$$$$+++++$+++$$++$+$$$+++$+$++++++$++$$$$$$$++++++++++++++++X++X+X+X+X++++++$$+$$$++X ###%%%%%%%%%%%%%%%###############%%%%%%%%%%%%%%%###############%%%%%%%%%%%%%%%###",
"%%%%%%%%%%%%%%%###############%%%%%%%%%%%%%%%###############%%%%%%%%%%%%%%%#######@  @ @ @  @  @  @                      $  $  $     $ $$$ $$$ $$$$$ $$$$$$$$$$$$$$ $$$$$$$+$$+$$$$$$$$$$+++++$++++$+$++$$$++++$+++++++$+++++$$$+$++.+++++++++X+++X+++X+X+.XX$X+X$+++$$+$X@###%%%%%%%%%%%%%%%####@###@######%%%%%%%%%%%%%%%#####@#########%%%%%%%%%%%%%%%###",
"%%%%%%%%%%%%%%%###############%%%%%%%%%%%%%%%###############%%%%%%%%%%%%%%%######## @  @  @   @   @ @                        $    $ $  $$  $$$ $$$$$$ $$$ $$$$$$ $$$$$$$$$$+$++$$$$$$$$$+$+++++$$+++$$++$++$++$$$$++++$+++++$$+++$++.+++++++++++++++X+X+++X++$++$+$++$++$X####%%%%%%%%%%%%%%%###############%%%%%%%%%%%%%%%###############%%%%%%%%%%%%%%%###",
"###############%%%%%%%%%%%%%%%###############%%%%%%%%%%%%%%%###############%%%%%%%%   @  @  @   @  @                    $   $  $   $  $ $$ $$$ $$$$$$$ $$ $+$$$ $$$$ $$$$$$$$$+$$$$$$$$$$$+++$++++++$+++$$+++$+$+$$++++++$+++$$$$$$+.+++++++$$++++X+++++X+X++++X+$+$+++$++%%%%###############%%%%%%%%%%%%%%%###############%%%%%%%%%%%%%%%###############%%%",
"###############%%%%%%%%%%%%%%%###############%%%%%%%%%%%%%%%###############%%%%%%%%#$@ @  @  @    @  @                        $  $   $ $$$$$$$ $$$ $$  $$$$$$$$$$ $$$$$$$$$$$+$$$++$$ $$$$++$$+$++++++++$$++$$$$+$$+$+$+$+++$+$$$+++++$$+++$$$$$++++X+X+++X+++X+$+$+$$+$X %%%%###############%%%%%%%%%%%%%%%###############%%%%%%%%%%%%%%%###############%%%",
"###############%%%%%%%%%%%%%%%###############%%%%%%%%%%%%%%%###############%%%%%%%%% @  @  @  @ @    @          @         $ $  $   $    $ $$$$ $$$$$$$ $$$$$$$$$$$$$$$$$$+$$$+$+$$$$$$ $$$$+$+$$+++$++.+++++++$$+$$$+++$$$+++++$$+$++$$$$$+$$$$$$+++++++X+X.++++X++$$$+$X#%%%%###############%%%%%%%%%%%%%%%###############%%%%%%%%%%%%%%%###############%%%",
"###############%%%%%%%%%%%%%%%###############%%%%%%%%%%%%%%%###############%%%%%%%%%#  @ @   @  @   @                 $       $  $  $ $ $$$$$$ $$$$$$$ $$$$$$$$$$ $$$ $+$+$$$++$$++$$ $$$$$+$$+$++$$++.++++$+$$+++$++++++++$+++$$$+$$$$$$$+$$$$$$$+.X+++X+X+X+X+X$+X$$$+X%%%%%###############%%%%%%%%%%%%%%%###############%%%%%%%%%%%%%%%###############%%%",
"###############%%%%%%%%%%%%%%%###############%%%%%%%%%%%%%%%###############%%%%%%%%%%   @  @  @   @           @            $       $   $$ $$$$ $ $$$$$$$$$$$$$$ $ $$$$$$+$$$+$+$$$$+$$$$$$$$+++$$$+++++++++$++++++$+++++$+$++++$$+$$$$$ $++$$$$$$$+++++$X+++++$X+$$$X$++$%%%%%###############%%%%%%%%%%%%%%%###############%%%%%%%%%%%%%%%###############%%%",
"###@###@###@###%%%%%%%%%%%%%%%##@###@###@####%%%%%%%%%%%%%%%##@###@###@####%%%%%%%%%%# @ @  @  @     @      @       $   $   $  $    $ $  $ $$$$$ $$$$$$$$$$ $$$$ $$$$$$$$+$+$$$$+$$$$$$$$$+$++++++$+++++++$$$++++++++$$$$++++++$$+$$$$$$$$$$$$$$+$$+++$+++X+X++++X$$$X$X@%%%%%###@###@###@###%%%%%%%%%%%%%%%##@###@###@####%%%%%%%%%%%%%%%##@###@###@####%%%",
"###############%%%%%%%%%%%%%%%###############%%%%%%%%%%%%%%%###############%%%%%%%%%%%$@  @  @    @                         $     $  $   $  $$ $$$$$$ $$$$$ $$$$$$$$$$$$$+$+$$+$+$$$$ $$$+$+$++++++++++$+++$+++++++$++++$++++++$$$+$$$ $$$+$$$$+$+$$X+$++++X.+X$X$$+$$$X#%%%%%###############%%%%%%%%%%%%%%%###############%%%%%%%%%%%%%%%###############%%%",
"###############%%%%%%%%%%%%%%%###############%%%%%%%%%%%%%%%###############%%%%%%%%%%%@  @  @  @     @              $              $   $$$$$$$$$ $$$ $$$$+$ $$$$$$ $$$$$$$++$+$$$$$$$$$$$$+++$+++.+++++$$$+++$+++$+$+++$$+++.++$+$$$$$ $$$$$$ $$+$$++++++++X+++X$X+X$$++%%%%%%###############%%%%%%%%%%%%%%%###############%%%%%%%%%%%%%%%###############%%%",
"###############%%%%%%%%%%%%%%%###############%%%%%%%%%%%%%%%###############%%%%%%%%%%%#$@  @   @   @               $     $  $  $  $   $ $$$ $$$$ $$$ $$$$$$$$ $ $$$$$$$$$$$+$$$$$$$$$$$$$$+$+$++..+++++$$$+++++++++++++++$+.++$++++$$$$ $$+$$$$+$+$$+++$+$+$X+X+$X$$$ X+%%%%%%###############%%%%%%%%%%%%%%%###############%%%%%%%%%%%%%%%###############%%%",
"######@########%%%%%%%%%%%%%%%#####@####@####%%%%%%%%%%%%%%%######@####@###%%%%%%%%%%%%$  @  @       @              $    $     $    $  $  $$$$$ $$$$$ $$$$$ $$$$$$$$$$$$$$$++$+$$$$$$$$$$$$+$+++.+.+++++++$+++++++.++++++++.+++$+$++$  $$$$$$$$++$$++X$X$X$X$X$X+$X$X$+X%%%%%%######@########%%%%%%%%%%%%%%%#####@####@####%%%%%%%%%%%%%%%#####@#####@###%%%",
"##@#########@##%%%%%%%%%%%%%%%###############%%%%%%%%%%%%%%%##@############%%%%%%%%%%%%#+@@   @ @ @       @         $ $   $  $     $ $  $ $ $$ $ $$$$$$$ $$$ $$ $ $$$$$$$$$$++$$$$ $ $$$$+$+$$++.+++++++++$++++++++++$$++++++$++$++$$$  $$$$$$$+$+$+$+$+$$X$+$X$X+$X$$XX%%%%%%##@#########@##%%%%%%%%%%%%%%%###############%%%%%%%%%%%%%%%###############%%%",
"###############%%%%%%%%%%%%%%%##@############%%%%%%%%%%%%%%%###############%%%%%%%%%%%%% $@ @  @     @               $$  $$ $  $  $ $  $  $$$ $ $$ $  $$$ $$ $ $ $$$$$$$$$$+$+$$$$  $$$$+$+$+$++.+++++.+++$++++++++++$+$+$$+++$$$$+$$$ $$ $$$$$++$$++++X$X$+X$+$X$X$$+: %%%%%%###############%%%%%%%%%%%%%%%##@############%%%%%%%%%%%%%%%##@############%%%",
"########@######%%%%%%%%%%%%%%%###############%%%%%%%%%%%%%%%###############%%%%%%%%%%%%%%@    @    @       @         $$   $$       $      $ $$$$$$  $ $$$ $$$$$$$$$$$$$$$$$+$$$$$ $$$$$+$++++$+++++++.+$+++++++++++++$++$+$++$+$$++$$$  $$$$$$+$+$$$$++$X$$X$XX$$X$$++X#%%%%%%########@######%%%%%%%%%%%%%%%###############%%%%%%%%%%%%%%%########@######%%%",
"###############%%%%%%%%%%%%%%%#######@####@##%%%%%%%%%%%%%%%######@###@####%%%%%%%%%%%%%%%       @                 $ $ $ $ $            $ $$$$$$$ $$ $ $$ $$$$ $$$$$$$$$$$$+$+$$$$$$$$+$++$$$+++++$++++++++++.+++.+++++++$++++$+++$+$ $ $$$$$$+$+$$$++X$+$X $X X$X$X$XX%%%%%%%###############%%%%%%%%%%%%%%%#######@####@##%%%%%%%%%%%%%%%###############%%%",
"###############%%%%%%%%%%%%%%%###############%%%%%%%%%%%%%%%###############%%%%%%%%%%%%%%%@  @ @     @         $  $ $      $   $           $ $$$$$$  $ $$$ $$ $ $$$$$$$ $$$$$$$$$  $$$$$+$++$$+.++$+.+++$++.+..+++++...+++++++$+++$$$$  $$$$$$$$+$$$+$+$X$$X$X$X$X$$$X$%%%%%%%###############%%%%%%%%%%%%%%%###############%%%%%%%%%%%%%%%###############%%%",
"%%%%%%%%%%%%%%%###############%%%%%%%%%%%%%%%###############%%%%%%%%%%%%%%%###############%       @  @           $ $$$$   $  $   $      $ $ $$$$$$  $  $   $$$$$$$$$$$$$$$$$+$+$$ $$$$+$++$+$++++$+++++$++++...++++.+++++++++++$+$+$$$$ $$$$$++++$$++X$X$$X$$$X$X$$$$X+#######%%%%%%%%%%%%%%%###############%%%%%%%%%%%%%%%###############%%%%%%%%%%%%%%%###",
"%%%%%%%%%%%%%%%###############%%%%%%%%%%%%%%%###############%%%%%%%%%%%%%%%###############%#    @                $ $$ $$         $         $$ $$ $$  $ $  $ $$ $$$$$$$$$$$$$+$$$$$$$$$$$$$++$+++$+++++$$+++.+...+.+++++++++++$+$$+$$$$$ $$$$$++++$++$$X$$X$XX$X$$$X+$X$#######%%%%%%%%%%%%%%%###############%%%%%%%%%%%%%%%###############%%%%%%%%%%%%%%%###",
"%%%%%%%%%%%%%%%###############%%%%%%%%%%%%%%%###############%%%%%%%%%%%%%%%###############%%  @   @         $      $ $$  $ $ $ $ $      $ $ $$$ $$$   $$ $ $$$$$$$$$$$$$$$$$$$$$$ $$$$$$$++++++.+++.++$+.++++.++.++++++++.$.$++$$$$$+$$ $ $$++++++$+++$X+X$X$X$X$X$$+X@#######%%%%%%%%%%%%%%%###############%%%%%%%%%%%%%%%###############%%%%%%%%%%%%%%%###",
"%%%%%%%%%%%%%%%###############%%%%%%%%%%%%%%%###############%%%%%%%%%%%%%%%###############%%#      @ @        $   $ $ $$$  $  $$ $$$  $   $ $ $$ $$   $$$  $ $$$$$$$$$$ $$$$++$$$$$$$$+$$+++++++.+++++++..+++++++.+++.++++++++++$+$$$$$ $$$$+$++++++$++$X$X++ X$$X$X$X@#######%%%%%%%%%%%%%%%###############%%%%%%%%%%%%%%%###############%%%%%%%%%%%%%%%###",
"%%%%%%%%%%%%%%%###############%%%%%%%%%%%%%%%###############%%%%%%%%%%%%%%%###############%%%@ @    @      $ $       $$$$ $$$ $$$ $$   $ $  $ $$ $$$  $   $ $$$$$$$$$$$ $$$$+$$$$$$$$$$$++++$++...+++$++...++.+$...+++..++$++++$$$$$$$$$ $$$$++++++$+++++X$X$X$X$+$+X+########%%%%%%%%%%%%%%%###############%%%%%%%%%%%%%%%###############%%%%%%%%%%%%%%%###",
"%%%%%%%%%%%%%%%####@###@###@##%%%%%%%%%%%%%%%####@###@###@##%%%%%%%%%%%%%%%###@###@###@###%%%# @            $ $     $ $$$$  $  $ $$   $ $  $ $ $$ $    $$$ $ $$$ $$$$$$ $$$+$$$$$$$$$$$$$+++$++++++++++...+++.++...+++++.++.++++$$$$$$$  $$$$$+++++$+$X$X$X+X$X$X$X$X$########%%%%%%%%%%%%%%%####@###@###@##%%%%%%%%%%%%%%%####@###@###@##%%%%%%%%%%%%%%%###",
"%%%%%%%%%%%%%%%###############%%%%%%%%%%%%%%%###############%%%%%%%%%%%%%%%###############%%%%@    @       $ $ $ $ $  $$$  $$$ $ $$$ $ $$ $ $$ $$ $   $ $ $ $$$$$$$$ $ $$$$$+$$$$$$$$$$$++$+$++++++++.+...++......+...+++++.++++$$$$+$$  $$$+$++++++++$X$XX+X+++$X$$X ########%%%%%%%%%%%%%%%###############%%%%%%%%%%%%%%%###############%%%%%%%%%%%%%%%###",
"%%%%%%%%%%%%%%%###############%%%%%%%%%%%%%%%###############%%%%%%%%%%%%%%%###############%%%%%  @   @      $   $   $$$$$$ $$$ $$$$$$ $ $ $ $ $ $$  $  $$$$$ $$  $$  $$$$$$$$$$$$$$$$$ $$++$++.+++++.+...+.++..........++.+..++++$$$$$$$ $$+$$+++++$++$X++X+.X+X$$X+X@########%%%%%%%%%%%%%%%###############%%%%%%%%%%%%%%%###############%%%%%%%%%%%%%%%###",
"%%%%%%%%%%%%%%%###############%%%%%%%%%%%%%%%###############%%%%%%%%%%%%%%%###############%%%%%@$@         $   $ $$$  $$$$$$$$$$$$ $  $$$ $ $ $ $ $   $ $ $ $ $ $ $$ $ $$$$$$$$ $$$+$$$$$+$+++++++++..+.+.++.o.+......+.....++$+$$$$$$$$$$$+$+++.+++X$X$X+X+X+X$X$$X$#########%%%%%%%%%%%%%%%###############%%%%%%%%%%%%%%%###############%%%%%%%%%%%%%%%###",
"%%%%%%%%%%%%%%%###@####@######%%%%%%%%%%%%%%%####@####@#####%%%%%%%%%%%%%%%#########@#####%%%%%%  @ @      $ $    $$$$$$$$$$$+$$$$$ $        $$ $      $$$$$$ $  $$$ $ $$$$$$$ $$$$$$ $$$$+$+++++++.+...+.++.o.++++.........++$++$$+$$$$ $$+$$+++++++++++++X.+$X$X$X #########%%%%%%%%%%%%%%%###@####@######%%%%%%%%%%%%%%%##@####@#######%%%%%%%%%%%%%%%###",
"%%%%%%%%%%%%%%%############@##%%%%%%%%%%%%%%%###############%%%%%%%%%%%%%%%##@###@########%%%%%%#$ @         $   $$$  $$$$$$+++$+$$$ $ $     $   $    $ $ $$$ $ $ $  $ $$$$$$ $$$$$$$$$$$+$+++++++++...+++++.o.+.++.........++++$$$$$$$+$ $$+$$++++X+X++X+X+X+++X$+X@######@##%%%%%%%%%%%%%%%############@##%%%%%%%%%%%%%%%##########@####%%%%%%%%%%%%%%%###",
"%%%%%%%%%%%%%%%###############%%%%%%%%%%%%%%%############@##%%%%%%%%%%%%%%%############@##%%%%%%%@   @     $ $ $ $$$$$$$$$$$+++$$$$$$ $    $  $$  $     $$ $   $ $$   $$$$$$$$ $$$$+$$$$$$$+++++++..++.+++++.o......++......++++++$+$+$+$$$$+$+..+++++$X+$X$X+$X$X+$##########%%%%%%%%%%%%%%%###############%%%%%%%%%%%%%%%###############%%%%%%%%%%%%%%%###",
"%%%%%%%%%%%%%%%###############%%%%%%%%%%%%%%%###############%%%%%%%%%%%%%%%###############%%%%%%%#           $   $$$$$$$$$$$++++$+$$$$$      $   $    $ $ $ $ $ $ $  $ $$$$ $ $$$$$$$$$$$++$++++...++..+++++.......++++......+.++$$$+$$+$$$++++..+++++X$X++X++++X$X ##########%%%%%%%%%%%%%%%###############%%%%%%%%%%%%%%%###############%%%%%%%%%%%%%%%###",
"%%%%%%%%%%%%%%%####@###@######%%%%%%%%%%%%%%%##@####@#######%%%%%%%%%%%%%%%###############%%%%%%%%#        $  $ $$$$+$$+$$+++.++++$$$$$$       $         $ $   $ $ $ $ $ $$$ $$$$$$$$$$$$+$+$+++++..+.++$+++.......++++...oo..+++++$++$++$+++++..++X++$X+.X+X+X$X$+@##########%%%%%%%%%%%%%%%####@###@######%%%%%%%%%%%%%%%#####@#########%%%%%%%%%%%%%%%###",
"%%%%%%%%%%%%%%%###############%%%%%%%%%%%%%%%###############%%%%%%%%%%%%%%%###############%%%%%%%%%  @       $ $ $$$$$+$++++...+.+$$+$$            $    $    $ $ $ $  $$$$$$$$ $$$$+$$+$$++$$++++...++++$++.........+.+.ooo...+++++++$$+++++.++..+++++X++++X$X$$X$X###########%%%%%%%%%%%%%%%###############%%%%%%%%%%%%%%%###############%%%%%%%%%%%%%%%###",
"###############%%%%%%%%%%%%%%%###############%%%%%%%%%%%%%%%###############%%%%%%%%%%%%%%%#########@          $ $$$$+$$+.+.....+.++$+$$$   $ $ $              $    $  $$$ $$$$$$$$$$$$$+$$$$$+$+++.++$+$+++++......+.......o..++.+.+++++++.+...++.+++++X+X+X$X$X$X$%%%%%%%%%%%###############%%%%%%%%%%%%%%%###############%%%%%%%%%%%%%%%###############%%%",
"###############%%%%%%%%%%%%%%%###############%%%%%%%%%%%%%%%###############%%%%%%%%%%%%%%%########## $  @       $$$+$$$+..........+++$$$$     $         $    $ $$$$   $$$$$$$ $$$$$$+$$$+$+$+++$+++++$+$++$+..+..........oo...+.+.+.+++++$+...+.++++X+X+++X+X+$X$X %%%%%%%%%%%###############%%%%%%%%%%%%%%%###############%%%%%%%%%%%%%%%###############%%%",
"###############%%%%%%%%%%%%%%%###############%%%%%%%%%%%%%%%###############%%%%%%%%%%%%%%%###########        $   $$$++$+.....ooo...+++$$$$   $          $ $  $$ $ $$ $ $$ $$$$$$+$$$$$$$+$$$$+++++++$++$$+++...+++......oo.o....++...+.++$+..++.+.++++$X+X++X+$X$X@%%%%%%%%%%%###############%%%%%%%%%%%%%%%###############%%%%%%%%%%%%%%%###############%%%",
"###############%%%%%%%%%%%%%%%###############%%%%%%%%%%%%%%%###############%%%%%%%%%%%%%%%###########@$@       $$$ $+$+++..ooooooo...+$$$$  $ $$  $  $     $ $ $$$  $$$$$$$$ $$$$$$+$+$+$$+$+$+$++++$++$++++....+.+....o.o..........++.++$+.++++.+++X+X+X+X++X+X$X%%%%%%%%%%%%###############%%%%%%%%%%%%%%%###############%%%%%%%%%%%%%%%###############%%%",
"###############%%%%%%%%%%%%%%%###############%%%%%%%%%%%%%%%###############%%%%%%%%%%%%%%%############@$@@     $$$$$$++..oo.o,ooooo...+$$   $ $ $         $$ $   $  $ $$$$$$$$$$$+$$$+$$+$$$$+$+++++$+++$$++....+....oo.oo......+...+.+.+$+.++++.++++++++X++X$X$+$%%%%%%%%%%%%###############%%%%%%%%%%%%%%%###############%%%%%%%%%%%%%%%###############%%%",
"###@###@###@###%%%%%%%%%%%%%%%##@###@###@####%%%%%%%%%%%%%%%##@###@###@####%%%%%%%%%%%%%%%###@#########@ $    $$$$$++$+.o.oo,o,o,o,o...++$  $$$ $       $$ $$ $$$$ $ $$$$$$$$$$$$$$+$$+$+$$+$++++++$$+$++$+....++....oo.o.o..........+..+$$$++++++X+++X+X+XX+X$+X$%%%%%%%%%%%%##@###@###@####%%%%%%%%%%%%%%%##@###@###@####%%%%%%%%%%%%%%%##@###@###@####%%%",
"###############%%%%%%%%%%%%%%%###############%%%%%%%%%%%%%%%###############%%%%%%%%%%%%%%%##############  @ @  $$+$$+.+.oo..,o,o,o,ooo..+$  $ $ $         $ $$ $ $$$ $$$$$$$$$$$$$$$+$$$+$$$+$+++++$$++++++....+.....oooo.o......o....+.+++$$+.+++++++X+X+X+X+X$X$%%%%%%%%%%%%###############%%%%%%%%%%%%%%%###############%%%%%%%%%%%%%%%###############%%%",
"###############%%%%%%%%%%%%%%%###############%%%%%%%%%%%%%%%###############%%%%%%%%%%%%%%%##############@       $+++....oo,o,o,o,o,o,.o...$ $ $$$$$ $  $ $ $ $$$$$$  $$$$ $$ $$$$$+$$+$+$$$+$+$++$+$++++++.+...+...ooooooooo....o....+..++++$++++..+.X+X+X+X++$+X %%%%%%%%%%%%###############%%%%%%%%%%%%%%%###############%%%%%%%%%%%%%%%###############%%%",
"###############%%%%%%%%%%%%%%%###############%%%%%%%%%%%%%%%###############%%%%%%%%%%%%%%%#######@#######       $++$.oo.ooooo,,,,o,o,ooo..$$$ $$$ $$  $ $ $ $$$$$$$$ $$$$$$$$$$$$$$$+$$$$+$$$$+++$+$++++++..+.+..o.o.ooooooooo........++++$$$$++$++++++X+XX+X++$X#%%%%%%%%%%%%###############%%%%%%%%%%%%%%%###############%%%%%%%%%%%%%%%###############%%%",
"######@########%%%%%%%%%%%%%%%#####@####@####%%%%%%%%%%%%%%%######@####@###%%%%%%%%%%%%%%%###############@       $++.ooo.o,,o,,,,oo,,o,o.o++$$$$$$$$  $$ $$$$$$$$$$$ $$$$$$$$$$+$+$$$+$$+$$+$++++++$++.+++.+.....ooooooooooo.......+.++..+$$$$+$$++++XX+X+X++++XX%%%%%%%%%%%%%#######@###@###%%%%%%%%%%%%%%%#####@####@####%%%%%%%%%%%%%%%#####@#####@###%%%",
"##@#########@##%%%%%%%%%%%%%%%###############%%%%%%%%%%%%%%%##@############%%%%%%%%%%%%%%%###@###########%      $$++..ooo,oo,o,,,,,o,,o,oo.+++$++$++$ $$$ $ $$$$+$$$ $$$$$$$$$$$$$$$+$$$$+$$$+$++++++++.+.+......ooooooo,ooooo......+++.++$$$$$$$+++++X++XXX+++X$%%%%%%%%%%%%%####@##########%%%%%%%%%%%%%%%###############%%%%%%%%%%%%%%%###############%%%",
"###############%%%%%%%%%%%%%%%##@############%%%%%%%%%%%%%%%###############%%%%%%%%%%%%%%%###############%#      $+...,,oo,,o,,,,o,,,,,o,oo.+++++$$+$$$$$$$$$$$$$$$$ $$+$$$$$$+$+$+$+++$+$$++$$++$+$++++.+.....ooo,oo,o,oo,ooo.o.o.+.+++.$ $$ $$$++$+.X+X++X+X+X@%%%%%%%%%%%%%###############%%%%%%%%%%%%%%%##@############%%%%%%%%%%%%%%%##@############%%%",
"########@######%%%%%%%%%%%%%%%###############%%%%%%%%%%%%%%%###############%%%%%%%%%%%%%%%##########@####%% @ @   +++.ooo,o,o,o,,,o,,,,,,,oo..+.++$+$$+$+$$+$$$$+$$$$$$$+$$$$+$$$+$+$$$+$+$$$++++++++$+++......oooo,o,o,o,ooo.o.o...+.+++$$ $  $$$+$+++.+.X+XX+X%%%%%%%%%%%%%%###############%%%%%%%%%%%%%%%###############%%%%%%%%%%%%%%%########@######%%%",
"###############%%%%%%%%%%%%%%%#######@####@##%%%%%%%%%%%%%%%######@###@####%%%%%%%%%%%%%%%######@########%%@     $$.+.o,oo,,o,,,,,,,,,,,,,ooo....+++++++++++$$$$$$+$$$$$$$$$$$$+$$+$+$+$+$+$+++$++++++++.+...ooo,o,o,ooo,oo.oo.o.o....+.$$$$  $$$$+$+.X++XXXX+XX%%%%%%%%%%%%%%###############%%%%%%%%%%%%%%%#######@####@##%%%%%%%%%%%%%%%###############%%%",
"###############%%%%%%%%%%%%%%%###############%%%%%%%%%%%%%%%###############%%%%%%%%%%%%%%%###############%%%$@    $+..ooo,o,,o,o,o,o,,,,,,,,o,......+++.+++++$$$$$+$$$$$$+$+$+$$$$+$+$$+$+$+$+$+++++++++.....oooo,,,,,,o,ooo.ooo.....+.+$$      $$++$+.+$+++XXX+%%%%%%%%%%%%%%###############%%%%%%%%%%%%%%%###############%%%%%%%%%%%%%%%###############%%%",
"%%%%%%%%%%%%%%%###############%%%%%%%%%%%%%%%###############%%%%%%%%%%%%%%%###############%%%%%%%%%%%%%%%###      $+..,oooo,oo,o,,o,,,,,,,,o,ooo.......+.++$+++$+$+$$$$$$$+$+$+$+$$+$+$+$+$+$++++++.+.+.+.oooo,,,,,,,oo,o,oo.o..o.....+++    @   $+++++$++.XX+:@##############%%%%%%%%%%%%%%%###############%%%%%%%%%%%%%%%###############%%%%%%%%%%%%%%%###",
"%%%%%%%%%%%%%%%###############%%%%%%%%%%%%%%%###############%%%%%%%%%%%%%%%###############%%%%%%%%%%%%%%%###@$  @  $..o,o.ooo.o,ooo,o,o,,,,,,,,o,o,oo.....++++++$+$+$$$$+$+$$+$+$+$+$$++$+$+++++++++.+...o.oo,o,,,,,,,o,o,,oooo........+$   @   $$$+++++$+XXXXX###############%%%%%%%%%%%%%%%###############%%%%%%%%%%%%%%%###############%%%%%%%%%%%%%%%###",
"%%%%%%%%%%%%%%%###############%%%%%%%%%%%%%%%###############%%%%%%%%%%%%%%%###############%%%%%%%%%%%%%%%####      $+.oo..ooo.,oo,oo,,o,,,,,,,,o,ooo.ooo...+++.++++++$$++$$+$+$++$++$+$++$+++++++.+.+....ooo,o,,,,1,,,,oo,,oo...oo.....+$  @    $$+++X.$$+.XXX ###############%%%%%%%%%%%%%%%###############%%%%%%%%%%%%%%%###############%%%%%%%%%%%%%%%###",
"%%%%%%%%%%%%%%%###############%%%%%%%%%%%%%%%###############%%%%%%%%%%%%%%%###############%%%%%%%%%%%%%%%#### $    $$.o,...o.oooooo,o,,,1,,,,,,,,,,,o,.ooo........$++++++++++++$++$+++$+$+++++.+..+......oo,o,,,,*,,,,,o,,,,oooo.......+  @  @ $$$$+.+++$XXXX: ###############%%%%%%%%%%%%%%%###############%%%%%%%%%%%%%%%###############%%%%%%%%%%%%%%%###",
"%%%%%%%%%%%%%%%###############%%%%%%%%%%%%%%%###############%%%%%%%%%%%%%%%###############%%%%%%%%%%%%%%%####@$   $ $+oo.+...oooo,o,,,,,1,,,,,,,,,,,,.,,,oo...o..+++.+.+++++$++++++++++++++++.++.+.....,.ooo,,,,,,1,,,,*,&,*ooooo.o..+.$ @  @   $$$.++++$XXX::################%%%%%%%%%%%%%%%###############%%%%%%%%%%%%%%%###############%%%%%%%%%%%%%%%###",
"%%%%%%%%%%%%%%%####@###@###@##%%%%%%%%%%%%%%%####@###@###@##%%%%%%%%%%%%%%%####@###@###@##%%%%%%%%%%%%%%%#####+    $$+...+.++...oo,oo,,11111,,,,,,,,,,,o,,,o..oo..........+++++++++++++++++.+.+.......ooooo,o,&,*,*1,*1111,,,oo.oo.....$ @   @   $$..++X+XXX:X%########@###@##%%%%%%%%%%%%%%%####@###@###@##%%%%%%%%%%%%%%%####@###@###@##%%%%%%%%%%%%%%%###",
"%%%%%%%%%%%%%%%###############%%%%%%%%%%%%%%%###############%%%%%%%%%%%%%%%###############%%%%%%%%%%%%%%%#####+$@ $  $...+.$$++.ooo,,,,1111,1,1,,,,,,,,,,,,oooooo..o.......+.+++.+.+++.+.+.+.+......ooooo,oo,,,,,1,,*11&1*,&,oooo..o...$ @ @  @ $$$+X++XXX*X:X%###############%%%%%%%%%%%%%%%###############%%%%%%%%%%%%%%%###############%%%%%%%%%%%%%%%###",
"%%%%%%%%%%%%%%%###############%%%%%%%%%%%%%%%###############%%%%%%%%%%%%%%%###############%%%%%%%%%%%%%%%#####@X   $ $...+.+$++.o.o,,1,,11111,11,,,,,,,,,,,,,,o,o,ooo.o......+..+.....+...+........o..ooo.,o,*,*,*,&,11111,1,,oo.ooo...$@@  @ @$+$$+.++XX:*::X%#####@#########%%%%%%%%%%%%%%%###############%%%%%%%%%%%%%%%###############%%%%%%%%%%%%%%%###",
"%%%%%%%%%%%%%%%###############%%%%%%%%%%%%%%%###############%%%%%%%%%%%%%%%###############%%%%%%%%%%%%%%%######$$ $$  $..++++$+...ooo,11111111,1,1,,,,,,,,,,,,,,,,o,.oo.o...+.......+.....+.+.....o.o.ooooo,*,&,*,,11&1;1&&1&,oooooooo+ @ @  @ $+$ +X.X+X&&::$%###############%%%%%%%%%%%%%%%###############%%%%%%%%%%%%%%%###############%%%%%%%%%%%%%%%###",
"%%%%%%%%%%%%%%%###@####@######%%%%%%%%%%%%%%%####@####@#####%%%%%%%%%%%%%%%####@####@#####%%%%%%%%%%%%%%%######@+ $  @ +.$+.+$+....o.o,111111111,1,,,,,,,,,,,,,,,,,,o,oo......................o....o.oooXoo*,,,*,,*1&11&11&1;1ooo,oooo. @  @  @$$ $+Xo.+X*&&2 %##########@####%%%%%%%%%%%%%%%###@####@######%%%%%%%%%%%%%%%##@####@#######%%%%%%%%%%%%%%%###",
"%%%%%%%%%%%%%%%############@##%%%%%%%%%%%%%%%###############%%%%%%%%%%%%%%%###############%%%%%%%%%%%%%%%#######$$    @$+$++.++o..oo.ooo11<111111,1,,,,,,,,,,,,,,,,ooooo..o.o...+...............o.oooooo.o*,*,*,&,&,1&;1&1;;<*o.ooooo.+ @ @  @    +++o$+XX*&2#%###############%%%%%%%%%%%%%%%############@##%%%%%%%%%%%%%%%##########@####%%%%%%%%%%%%%%%###",
"%%%%%%%%%%%%%%%###############%%%%%%%%%%%%%%%############@##%%%%%%%%%%%%%%%############@##%%%%%%%%%%%%%%%####### +     $+++$..+...oo.oo.,1<<1<<11111,,,,,,,,,,,,,,,,,,o,ooo.oo...............o.o.ooooooo.o*,*,**,&,&&&1&1;&;;*ooo*,oo+ @ @    @ @$. $* +X$.:2#%###############%%%%%%%%%%%%%%%###############%%%%%%%%%%%%%%%###############%%%%%%%%%%%%%%%###",
"%%%%%%%%%%%%%%%###############%%%%%%%%%%%%%%%###############%%%%%%%%%%%%%%%###############%%%%%%%%%%%%%%%########+    $$+++$+...o.o,.o,.o,<<1<11<111,,,,,,,,,,,,,,,,,o,ooooooo.o.......o...o....o.oX,X,Xoo*,**,*,**1&;&;&;;;1oooooo..$ @ @   @@@ ++@$o $*  :2%%####@##########%%%%%%%%%%%%%%%###############%%%%%%%%%%%%%%%###############%%%%%%%%%%%%%%%###",
"%%%%%%%%%%%%%%%####@###@######%%%%%%%%%%%%%%%##@####@#######%%%%%%%%%%%%%%%##@####@#######%%%%%%%%%%%%%%%########$$@ $$$++$$.o..o..ooo1o.,<<<<<1<<11,,,1,,,,,,,,1,,,,,,o,ooooooo...o.o.Xo.o.oXo.XooooXoo*o,*o*,**,*&&&;&;-<&*o,o,oo.+ @@@@   @ @$+   +$$*X.:2%%########@###@##%%%%%%%%%%%%%%%####@###@######%%%%%%%%%%%%%%%#####@#########%%%%%%%%%%%%%%%###",
"%%%%%%%%%%%%%%%###############%%%%%%%%%%%%%%%###############%%%%%%%%%%%%%%%###############%%%%%%%%%%%%%%%########@+@  $+++$$.o.o,.+.,,11.,<<<<<<1<111,,1,,,,1,1,,,1,,,o,,o,oooooo..o.o.o..oX.o.ooo*Xoooo,**o*****&*&&;1;<;<*o,1&ooo+$ @@@     @ ..@$  .$+XX:2%%###############%%%%%%%%%%%%%%%###############%%%%%%%%%%%%%%%###############%%%%%%%%%%%%%%%###",
"###############%%%%%%%%%%%%%%%###############%%%%%%%%%%%%%%%###############%%%%%%%%%%%%%%%###############%%%%%%%%%$$  $+++.+ .,11o+o111<,,<-<<-<1<<111,,1,,,1,,,,,,1,,,,o,oooooo.o.o.oXo.o.oo.oXoXoooX,X*o**o**,**&&&&&;&%&*o++&*o.$$ @ @    @  .+@o$@X.X*X:2##%%%%%%%%%%%%%%%###############%%%%%%%%%%%%%%%###############%%%%%%%%%%%%%%%###############%%%",
"###############%%%%%%%%%%%%%%%###############%%%%%%%%%%%%%%%###############%%%%%%%%%%%%%%%###############%%%%%%%%%@+ $++$+o.@,<<<1$,11<-<,1--<--<<<111,11,,,1,,,,1,,,,,,,o,ooooooooXo.oXo.XoXoXooXoXX,Xo***o****&&&*&;;;@#<1o%$;*o+   @@   @   $.@ o.@X*X&:::%#%%%%%%%%%%%%%%%###############%%%%%%%%%%%%%%%###############%%%%%%%%%%%%%%%###############%%%",
"###############%%%%%%%%%%%%%%%###############%%%%%%%%%%%%%%%###############%%%%%%%%%%%%%%%###############%%%%%%%%%%$ $+$+$+o.,<<<<+,<<<<-11<-<<><<<11111,,1,,1,,,,1,1,,*,o,ooooooXoo.o..XooXooXoXoXoXX*X*o******&&;&&;-&% -<+%;;.o+   @@ $  @  +o  **$.*X*:::##%%%%%%%%%%%%%%%###############%%%%%%%%%%%%%%%###############%%%%%%%%%%%%%%%###############%%%",
"###############%%%%%%%%%%%%%%%###############%%%%%%%%%%%%%%%###############%%%%%%%%%%%%%%%###############%%%%%%%%%%@$$++$$.1,,1<<<,,<<<<<-<<--<>-<<111,111,11,1,1,,,,1,1,*ooooooo,XoXoXooXoo*XoX**X*Xo*******&*&;;&;;X;&%@+ ##-;&1.    @$+$   @+oo$X1oX&**:2:##%%%%%%%%%%%%%%%###############%%%%%%%%%%%%%%%###############%%%%%%%%%%%%%%%###############%%%",
"###############%%%%%%%%%%%%%%%###############%%%%%%%%%%%%%%%###############%%%%%%%%%%%%%%%###############%%%%%%%%%%#X.+.$$,1,1<<<<,,<<<<<-<<->--->-11111111,11,1,1,1,,1,,,,,,X,ooXoooXooXo*XoXo*X*o**********&&&;X%*-%+X%###%$-+;<o $$   +$ @   ,<+ 1&X*&X:2$%#%%%%%%%%%%%%%%%###############%%%%%%%%%%%%%%%###############%%%%%%%%%%%%%%%###############%%%",
"###@###@###@###%%%%%%%%%%%%%%%##@###@###@####%%%%%%%%%%%%%%%##@###@###@####%%%%%%%%%%%%%%%##@###@###@####%%%%%%%%%%% *X*X$o,,1<11<,1<1<<---<->--><-<1<1111111,11111,11*1*,*oo*oXooX*ooXoX*XX******X***X**&*&&&&-&%%X;%$$####%XX%$-,$$$$$$+$@   @,-o 1;X.&*:2@##%%%%%%%%%%%%%%%##@###@###@####%%%%%%%%%%%%%%%##@###@###@####%%%%%%%%%%%%%%%##@###@###@####%%%",
"###############%%%%%%%%%%%%%%%###############%%%%%%%%%%%%%%%###############%%%%%%%%%%%%%%%###############%%%%%%%%%%%%%%@X..o,1111,,,<1<<---<>>>>- #-<<111111111,1,1111,1,,*,oo,o*o*oXoXoXo**Xo********:**&:&*;;; %#+X%@@#####X@% -1+ $..+.+ @  #1-1+1<&.*&;:###%%%%%%%%%%%%%%%###############%%%%%%%%%%%%%%%###############%%%%%%%%%%%%%%%###############%%%",
"###############%%%%%%%%%%%%%%%###############%%%%%%%%%%%%%%%###############%%%%%%%%%%%%%%%###############%%%%%%%%%%%%%%% *o+o111,,,,<111---<->>>>,%+><<1111111111111,&1*1&1*,**o*o**oo****X**********:****&&&; %%%###########$#%@><.$o,o+.++  @#<-<*<<;*X&&%###%%%%%%%%%%%%%%%###############%%%%%%%%%%%%%%%###############%%%%%%%%%%%%%%%###############%%%",
"###############%%%%%%%%%%%%%%%###############%%%%%%%%%%%%%%%###############%%%%%%%%%%%%%%%###############%%%%%%%%%%%%%%%#;,+.,,,,.,111,1<<<<<>>>>-%%&-<<11<111111,111111&,1**,****o**X*Xo**********:*&&***&&;X%%%%###########@###-<o+11,.+$oo #@--<;<<;&X;;####%%%%%%%%%%%%%%%###############%%%%%%%%%%%%%%%###############%%%%%%%%%%%%%%%###############%%%",
"######@########%%%%%%%%%%%%%%%#####@####@####%%%%%%%%%%%%%%%#######@####@##%%%%%%%%%%%%%%%######@####@###%%%%%%%%%%%%%%%#<,+o,,,o.o,11,111<<<->>>> %#*#1<11<11111111&1&11&&*,&*,**************&*:&:&&:&&*&&;-#%%%%###########@###-<..11,+ +11+#$--<<<<<&:;X####%%%%%%%%%%%%%%%######@####@###%%%%%%%%%%%%%%%#####@####@####%%%%%%%%%%%%%%%#####@#####@###%%%",
"##@#########@##%%%%%%%%%%%%%%%###############%%%%%%%%%%%%%%%####@##########%%%%%%%%%%%%%%%##@############%%%%%%%%%%%%%%%%&,..,o.oo,,,,,111<<<<->>>,%%%%$-;111<11111&11&1&1&1&&**&***********&**&*&&&&&*:*&;2X%%%%%###############<<$,1,.  .11,#.<--<<<-&;X%####%%%%%%%%%%%%%%%##@############%%%%%%%%%%%%%%%###############%%%%%%%%%%%%%%%###############%%%",
"###############%%%%%%%%%%%%%%%##@############%%%%%%%%%%%%%%%###############%%%%%%%%%%%%%%%###############%%%%%%%%%%%%%%%# ,+.,.+..,,,,,11,1<<<<>>>-%%%##-<;;111111&1&1&1&1&*&,&*&*********&**:&&:&&;;;&*&&;#%%%%%%###############<, ,,+$ @.1<1#o<<--<;<;;######%%%%%%%%%%%%%%%###############%%%%%%%%%%%%%%%##@############%%%%%%%%%%%%%%%##@############%%%",
"########@######%%%%%%%%%%%%%%%###############%%%%%%%%%%%%%%%###############%%%%%%%%%%%%%%%###############%%%%%%%%%%%%%%%##..oo+ $+.o.o,1,,11<<<<>>>#%%#%&=;.;1&1&11;1&1&1&&1&&&*********:**:&*&&&&2&:;&&&;$%%%%%%%###############1..,o.+$@.,1,#o,1<--;<- %#####%%%%%%%%%%%%%%%###############%%%%%%%%%%%%%%%###############%%%%%%%%%%%%%%%########@######%%%",
"###############%%%%%%%%%%%%%%%#######@####@##%%%%%%%%%%%%%%%#########@#####%%%%%%%%%%%%%%%#######@#######%%%%%%%%%%%%%%%##...+ @@ ...o,,,,,11<<<->>.%%##@*+%*<&11&&1;&&&&&&&&&&&**&*&*:**:&*&&&:&;-$%&;&;;#%%%%%%%####@##########,.o,..o+$o,1o .,11<-<<-#######%%%%%%%%%%%%%%%######@###@####%%%%%%%%%%%%%%%#######@####@##%%%%%%%%%%%%%%%###############%%%",
"###############%%%%%%%%%%%%%%%###############%%%%%%%%%%%%%%%###############%%%%%%%%%%%%%%%#############%#%%%%%%%%%%%%%%%##o.$ $.o..oo,,,,,,,11<<-->1%%###%#% <1&1&1&&;&1&&&&&&*&&*&***&*:&&:&:&&2X>$%$-&;&%%%%%%%%###############o.o.oo,.+o,,,.,,111----#######%%%%%%%%%%%%%%%###############%%%%%%%%%%%%%%%###############%%%%%%%%%%%%%%%###############%%%",
"%%%%%%%%%%%%%%%###############%%%%%%%%%%%%%%%###############%%%%%%%%%%%%%%%###############%%%%%%%%%%%%$+ +o,.@%%%#######%%o..,1<1,o,,,,,,,1,111<<>><%#%%%%%%%*<&1;&&;&&;&;&&&***&*&:*:*:&*&*&&&&&%X %#*--$%#######%%%%%%%%%%%%%%%..X.o..++o,,o.,,111<<--%%%%%%%###############%%%%%%%%%%%%%%%###############%%%%%%%%%%%%%%%###############%%%%%%%%%%%%%%%###",
"%%%%%%%%%%%%%%%###############%%%%%%%%%%%%%%%###############%%%%%%%%%%%%%%%###############%%%%%%%%%#*-=><11<<<1o$@#%####%#o.,<<1+ +.o,,,,1,1,111<->>#%%%%%%%%%&<&;&1&;&&&&*&**&*******:**&&;;;*&*%%##%#XX%########%%%%%%%%%%%%%%%.+$.o.$++.,,o.,,,11<<>-%%%%%%%###############%%%%%%%%%%%%%%%###############%%%%%%%%%%%%%%%###############%%%%%%%%%%%%%%%###",
"%%%%%%%%%%%%%%%###############%%%%%%%%%%%%%%%###############%%%%%%%%%%%%%%%###############%%%%%%%%#-O=OO<1<<<<<<<1,$%###%#,,<1o#%# $.,,,,11111111<-=.%%%%%%%%%%&;;;;*&&&&;&&*&;&&&*:*&**:&:X*;&&*%%####%##########%%%%%%%%%%%%%%%..+.o.$+$+.o,,,,1111<>-%%%%%%%###############%%%%%%%%%%%%%%%###############%%%%%%%%%%%%%%%###############%%%%%%%%%%%%%%%###",
"%%%%%%%%%%%%%%%###############%%%%%%%%%%%%%%%###############%%%%%%%%%%%%%%%###############%%%%%%%%1=====<<<<<<<<<<<<.%%#%@11,  ,,,,,,,,,11,,,,11111<-o$#%%%%%%%%X;*;-;;;;;;;-;XX&&&&;;;;-;%%%#*-+%%###############%%%%%%%%%%%%%%#o,..o.+$$++.,,,,,11<<>-%%%%%%%###############%%%%%%%%%%%%%%%###############%%%%%%%%%%%%%%%###############%%%%%%%%%%%%%%%###",
"%%%%%%%%%%%%%%%###############%%%%%%%%%%%%%%%###############%%%%%%%%%%%%%%%###############%%%%%%%.-==O=<-<<<<<<<<<<<<1o#%+,,,1<1<<111111<1<<<1111111<<,,, %%%%%%%%%@X&*X %#X*@%%#@@ #@+*&$%%%%%X#%%###############%%%%%%%%%%%%%%$,o...++$$++,,,,11111<>-%%%%%%%###############%%%%%%%%%%%%%%%###############%%%%%%%%%%%%%%%###############%%%%%%%%%%%%%%%###",
"%%%%%%%%%%%%%%%####@###@###@##%%%%%%%%%%%%%%%####@###@###@##%%%%%%%%%%%%%%%####@###@###@##%%%%%%%-=>=O>1<<<---<<<<<<<-<<,1,<>>><,1<<<11<<<<>>>>>>>><<<o+,<1%%%%%%%%%%#%%%##%%#######%%%%%%%%%%%%%%%###########@###%%%%%%%%%%%%%%+o.+o.++$+$.o,o,1111<<--%%%%%%%####@###@###@##%%%%%%%%%%%%%%%####@###@###@##%%%%%%%%%%%%%%%####@###@###@##%%%%%%%%%%%%%%%###",
"%%%%%%%%%%%%%%%###############%%%%%%%%%%%%%%%###############%%%%%%%%%%%%%%%###############%%%%%%%>=====<1<<--><<<-----<11+,>>>=><1<1<<<1,1,,111<<<>>><1o ,=&%%%%%%%%%###############%%%%%%%%%%%%%%%###############%%%%%%%%%%%%%%+.......+++.o.o,111<<<--%%%%%%%###############%%%%%%%%%%%%%%%###############%%%%%%%%%%%%%%%###############%%%%%%%%%%%%%%%###",
"%%%%%%%%%%%%%%%###############%%%%%%%%%%%%%%%###############%%%%%%%%%%%%%%%###############%%%%%%&O=====<11<1<---<<-<1X$., <>->=><<<<1,o,<-1,,+#.,,1<->>-.#<=#%%%%%%%%###############%%%%%%%%%%%%%%%###############%%%%%%%%%%%%%%++..,..$ $$.o..,,,1<<<->%%%%%%%###############%%%%%%%%%%%%%%%###############%%%%%%%%%%%%%%%###############%%%%%%%%%%%%%%%###",
"%%%%%%%%%%%%%%%###############%%%%%%%%%%%%%%%###############%%%%%%%%%%%%%%%###############%%%%%$OO===-XX1,,,11<<<<o+,. ,,$->>==-o<<1,$,<==-<11,,,,,,,,<=< o=>%%%%%%%%###############%%%%%%%%%%%%%%%###@###@#######%%%%%%%%%%%%%%+++...$  $+.oo,,,,,1<-->@%%%%%%###############%%%%%%%%%%%%%%%###############%%%%%%%%%%%%%%%###############%%%%%%%%%%%%%%%###",
"%%%%%%%%%%%%%%%###@####@######%%%%%%%%%%%%%%%####@####@#####%%%%%%%%%%%%%%%###@####@######%%%%%>O=>=;@%%*<111,1,11,1>1$,,$<>>>==*+<1..<===><<11,,,,1<1,1-11=O>%%%%%%%###############%%%%%%%%%%%%%%%###############%%%%%%%%%%%%%%+.o,.++$ +...o,,,,,1<->=$%%%%%%###@#####@#####%%%%%%%%%%%%%%%###@####@######%%%%%%%%%%%%%%%##@####@#######%%%%%%%%%%%%%%%###",
"%%%%%%%%%%%%%%%############@##%%%%%%%%%%%%%%%###############%%%%%%%%%%%%%%%############@##%%%%+O==O-%%%%%*;>>--<--->=<+..$<>>>>=>.&1.,>O===-<<1,,,<>==<111<-=O;%%%%%%####@##########%%%%%%%%%%%%%%%###########@###%%%%%%%%%%%%%%+.,o.++$$+...,o,,,,1<->=&%%%%%%###############%%%%%%%%%%%%%%%############@##%%%%%%%%%%%%%%%##########@####%%%%%%%%%%%%%%%###",
"%%%%%%%%%%%%%%%###############%%%%%%%%%%%%%%%############@##%%%%%%%%%%%%%%%###############%%%%>=OO-#%%%%%%#X;<<<;$##+<1$ X->>>===>,1,<=O=O==-<1,.<>>>>>11,$@.<>%%%%%%########@######%%%%%%%%%%%%%%%###############%%%%%%%%%%%%%%++...+ $$....o,,1,111<->-%%%%%%############@##%%%%%%%%%%%%%%%###############%%%%%%%%%%%%%%%###############%%%%%%%%%%%%%%%###",
"%%%%%%%%%%%%%%%###############%%%%%%%%%%%%%%%###############%%%%%%%%%%%%%%%###############%%%XOO=+%%%%%%%##%%%%%%%#%%@1. &--->>>==<1<>=OO=O=>-<,,<->>>>-11..<>>%%%%%%###############%%%%%%%%%%%%%%%#####@#########%%%%%%%%%%%%%%..++@#@+..,,,,,,,,11111->#%%%%%######@########%%%%%%%%%%%%%%%###############%%%%%%%%%%%%%%%###############%%%%%%%%%%%%%%%###",
"%%%%%%%%%%%%%%%####@###@######%%%%%%%%%%%%%%%##@####@#######%%%%%%%%%%%%%%%####@###@######%%%%;-#%%%%%%%%#############o,o;--->>>==--=OOOOO=O=><1<1->-<>=-<1,>OO&%%%%%###########@###%%%%%%%%%%%%%%%###############%%%%%%%%%%%#@ + @ ..,1,,<<1<<1<<<1<1<<>$%%%%%###############%%%%%%%%%%%%%%%####@###@######%%%%%%%%%%%%%%%#####@#########%%%%%%%%%%%%%%%###",
"%%%%%%%%%%%%%%%###############%%%%%%%%%%%%%%%###############%%%%%%%%%%%%%%%###############%%%%%%%%%%%%%%%##############X;&;-->=>=>>O>--=OOO==>>>><>><->==><-=OOO@%%%%###############%%%%%%%%%%%%%%%###############%%%%%%%%%#+o,,,$$,<<->-->>>>>===>>>--<-1%%%%%###############%%%%%%%%%%%%%%%###############%%%%%%%%%%%%%%%###############%%%%%%%%%%%%%%%###",
"###############%%%%%%%%%%%%%%%###############%%%%%%%%%%%%%%%###############%%%%%%%%%%%%%%%###############%%%%%%%%%%%%%%%X---->=O==O<%%%%;OOO=>>>>>=>>>===>->=OOO-%###%%%%%%%%%%%%%%%###############%%%%%%%%%%%%%%%######%#$,,1<1111<<<1&,+..,,11<-======>=*%###%%%%%%%%%%%%%%%###############%%%%%%%%%%%%%%%###############%%%%%%%%%%%%%%%###############%%%",
"###############%%%%%%%%%%%%%%%###############%%%%%%%%%%%%%%%###############%%%%%%%%%%%%%%%###############%%%%%%%%%%%%%%%%;>->===OO&%%##%%#=O=>>>->==>>>====>=OOOOX%##%%%%%%%%%%%%%%%###############%%%%%%%%%%%%%%%###%@+,,,,,->=>>1..o  $  .,,,11,***11<<>>&%##%%%%%%%%%%%%%%%###############%%%%%%%%%%%%%%%###############%%%%%%%%%%%%%%%###############%%%",
"###############%%%%%%%%%%%%%%%###############%%%%%%%%%%%%%%%###############%%%%%%%%%%%%%%%###############%%%%%%%%%%%%%%%%@>>====O*%####%%%%>O>->>->=>>>====OOO=OO.%##%%%%%%%%%%%%%%%###############%%%%%%%%%%%%%%%###@<,,1,o-=>>==<o.o..,,,,,,,11,,+@.+@+,1<$%#%%%%%%%%%%%%%%%###############%%%%%%%%%%%%%%%###############%%%%%%%%%%%%%%%###############%%%",
"###############%%%%%%%%%%%%%%%###############%%%%%%%%%%%%%%%###############%%%%%%%%%%%%%%%###############%%%%%%%%%%%%%%%#%*====O-%#####%%%%%>O=>=>&>=>===O=->O>=-####%%%%%%%%%%%%%%%###############%%%%%%%%%%%%%%%##%;-.,,+1>=>===><1,.+..,,oo,,11<<,1,+$..,1, %%%%%%%%%%%%%%%###############%%%%%%%%%%%%%%%###############%%%%%%%%%%%%%%%###############%%%",
"###############%%%%%%%%%%%%%%%###############%%%%%%%%%%%%%%%###############%%%%%%%%%%%%%%%###@###########%%%%%%%%%%%%%%%##%-OO=O;%#####%%%%%%;OO==>>=>-==O>%%;->.%###%%%%%%%%%%%%%%%###############%%%%%%%%%%%%%%%##%=<.,,1>>>=O==>-<1,+$...o.,1,11111<1,1o.,11@%%%%%%%%%%%%%%###############%%%%%%%%%%%%%%%###############%%%%%%%%%%%%%%%###############%%%",
"###@###@###@###%%%%%%%%%%%%%%%##@###@###@####%%%%%%%%%%%%%%%##@###@###@####%%%%%%%%%%%%%%%#######@###@###%%%%%%%%%%%%%%%##%.<-OOX%#####%%%%%%%#;>>>=O=o<OO>%%%@@%####%%%%%%%%%%%%%%%##@###@###@####%%%%%%%%%%%%%%%#%$O-$.<>-->O===>>><,.......,,,,,,1,,1->><..,,,,1,. #%%%%%%%###@###@###@###%%%%%%%%%%%%%%%##@###@###@####%%%%%%%%%%%%%%%##@###@###@####%%%",
"###############%%%%%%%%%%%%%%%###############%%%%%%%%%%%%%%%###############%%%%%%%%%%%%%%%###############%%%%%%%%%%%%%%%#####;O=%######%%%%%%%%%#$%%-O>-=O>%#########%%%%%%%%%%%%%%%###############%%%%%%%%%%%%%%%#%XO>.,>;;>=O===>>>>-1o,o$,11,,,,1,$+<===O- @.,,,,,11,$%%%%%###############%%%%%%%%%%%%%%%###############%%%%%%%%%%%%%%%###############%%%",
"###############%%%%%%%%%%%%%%%###############%%%%%%%%%%%%%%%###############%%%%%%%%%%%%%%%###############%%%%%%%%%%%%%%%####%;=$%######%%%%%%%%%%%%%%-==>O=##########%%%%%%%%%%%%%%%###############%%%%%%%%%%%%%%%#%X==*@;;>===OO=>>>>><11+o<>-1,,,,.$,1->==O1#..+.o,,111,@%%%###############%%%%%%%%%%%%%%%###############%%%%%%%%%%%%%%%###############%%%",
"###############%%%%%%%%%%%%%%%###############%%%%%%%%%%%%%%%###############%%%%%%%%%%%%%%%###############%%%%%%%%%%%%%%%#####%%%#######%%%%%%%%%%%%%%%X=OO;%#########%%%%%%%%%%%%%%%###############%%%%%%%%%%%%%%%#%@=O$%%<OOOO==O=-<-->>>1<---<,1,,$..,>>>==-##$ $.,,,,,11o#%%##############%%%%%%%%%%%%%%%###############%%%%%%%%%%%%%%%###############%%%",
"######@########%%%%%%%%%%%%%%%#####@####@####%%%%%%%%%%%%%%%######@####@###%%%%%%%%%%%%%%%##@###@########%%%%%%%%%%%%%%%###############%%%%%%%%%%%%%%%% &&#%#########%%%%%%%%%%%%%%%######@####@###%%%%%%%%%%%%%%%##%;=@%%X==-*#@;OO=>>=O==>>---1,,,..,>=>>==>1,o$+.,,,,,,1>=<.#%############%%%%%%%%%%%%%%%#####@####@####%%%%%%%%%%%%%%%#####@#####@###%%%",
"##@#########@##%%%%%%%%%%%%%%%###############%%%%%%%%%%%%%%%##@############%%%%%%%%%%%%%%%###########@###%%%%%%%%%%%%%%%###############%%%%%%%%%%%%%%%#%%%###########%%%%%%%%%%%%%%%##@############%%%%%%%%%%%%%%%#### ###% #%%%%%%X->=OOOOOO===>,.,$,>>>==>===>-,o,,,,,,,&=OOO> %###@###@###%%%%%%%%%%%%%%%###############%%%%%%%%%%%%%%%###############%%%",
"###############%%%%%%%%%%%%%%%##@############%%%%%%%%%%%%%%%###############%%%%%%%%%%%%%%%###############%%%%%%%%%%%%%%%###############%%%%%%%%%%%%%%%###############%%%%%%%%%%%%%%%###############%%%%%%%%%%%%%%%###############%%%%%%@X;>=OOOOO<.o.,=>>>=>==>;<<o,,,,,,+X->==O-@%##########%%%%%%%%%%%%%%%##@############%%%%%%%%%%%%%%%##@############%%%",
"########@######%%%%%%%%%%%%%%%###############%%%%%%%%%%%%%%%###############%%%%%%%%%%%%%%%###############%%%%%%%%%%%%%%%###########@###%%%%%%%%%%%%%%%###############%%%%%%%%%%%%%%%###############%%%%%%%%%%%%%%%###############%%%%%%%%%%%%#%% -<..+-=>>>>=>&;>-.,,,,,,.*->->==>@##########%%%%%%%%%%%%%%%###############%%%%%%%%%%%%%%%########@######%%%",
"###############%%%%%%%%%%%%%%%#######@####@##%%%%%%%%%%%%%%%######@###@####%%%%%%%%%%%%%%%#####@#########%%%%%%%%%%%%%%%###############%%%%%%%%%%%%%%%#########@#####%%%%%%%%%%%%%%%######@###@####%%%%%%%%%%%%%%%###############%%%%%%%%%%%%%%%%@;1o@&=>>>>O>&-- %@+.o.o+@&=>>>>;###########%%%%%%%%%%%%%%%#######@####@##%%%%%%%%%%%%%%%###############%%%",
"###############%%%%%%%%%%%%%%%###############%%%%%%%%%%%%%%%###############%%%%%%%%%%%%%%%###############%%%%%%%%%%%%%%%###############%%%%%%%%%%%%%%%###############%%%%%%%%%%%%%%%###############%%%%%%%%%%%%%%%###############%%%%%%%%%%%%%%%#%#++@@>=<->>*X+%%%%%%%%%%%%;-;+%%###########%%%%%%%%%%%%%%%###############%%%%%%%%%%%%%%%###############%%%",
"%%%%%%%%%%%%%%%###############%%%%%%%%%%%%%%%###############%%%%%%%%%%%%%%%###############%%%%%%%%%%%%%%%###############%%%%%%%%%%%%%%%###############%%%%%%%%%%%%%%%###############%%%%%%%%%%%%%%%###############%%%%%%%%%%%%%%%###############%%%%%%%@>=>-$%%%############%#%%%%%%%%%%%%%%%###############%%%%%%%%%%%%%%%###############%%%%%%%%%%%%%%%###",
"%%%%%%%%%%%%%%%###############%%%%%%%%%%%%%%%###############%%%%%%%%%%%%%%%###############%%%%%%%%%%%%%%%###############%%%%%%%%%%%%%%%###############%%%%%%%%%%%%%%%###############%%%%%%%%%%%%%%%###############%%%%%%%%%%%%%%%###############%%%%%%%%#;;$%%%###############%%%%%%%%%%%%%%%###############%%%%%%%%%%%%%%%###############%%%%%%%%%%%%%%%###",
"%%%%%%%%%%%%%%%###############%%%%%%%%%%%%%%%###############%%%%%%%%%%%%%%%###############%%%%%%%%%%%%%%%###############%%%%%%%%%%%%%%%###############%%%%%%%%%%%%%%%###############%%%%%%%%%%%%%%%###############%%%%%%%%%%%%%%%###############%%%%%%%%%%#%%%%###############%%%%%%%%%%%%%%%###############%%%%%%%%%%%%%%%###############%%%%%%%%%%%%%%%###",
"%%%%%%%%%%%%%%%###############%%%%%%%%%%%%%%%###############%%%%%%%%%%%%%%%###############%%%%%%%%%%%%%%%###############%%%%%%%%%%%%%%%###############%%%%%%%%%%%%%%%###############%%%%%%%%%%%%%%%###############%%%%%%%%%%%%%%%###############%%%%%%%%%%%%%%%###############%%%%%%%%%%%%%%%###############%%%%%%%%%%%%%%%###############%%%%%%%%%%%%%%%###",
"%%%%%%%%%%%%%%%###############%%%%%%%%%%%%%%%###############%%%%%%%%%%%%%%%###############%%%%%%%%%%%%%%%###############%%%%%%%%%%%%%%%###############%%%%%%%%%%%%%%%###############%%%%%%%%%%%%%%%###############%%%%%%%%%%%%%%%##########@####%%%%%%%%%%%%%%%###############%%%%%%%%%%%%%%%###############%%%%%%%%%%%%%%%###############%%%%%%%%%%%%%%%###",
"%%%%%%%%%%%%%%%####@###@###@##%%%%%%%%%%%%%%%####@###@###@##%%%%%%%%%%%%%%%####@###@###@##%%%%%%%%%%%%%%%####@###@###@##%%%%%%%%%%%%%%%####@###@###@##%%%%%%%%%%%%%%%####@###@###@##%%%%%%%%%%%%%%%###@###@###@###%%%%%%%%%%%%%%%###@###@#######%%%%%%%%%%%%%%%######@########%%%%%%%%%%%%%%%####@###@###@##%%%%%%%%%%%%%%%####@###@###@##%%%%%%%%%%%%%%%###",
"%%%%%%%%%%%%%%%###############%%%%%%%%%%%%%%%###############%%%%%%%%%%%%%%%###############%%%%%%%%%%%%%%%###############%%%%%%%%%%%%%%%###############%%%%%%%%%%%%%%%###############%%%%%%%%%%%%%%%###############%%%%%%%%%%%%%%%###############%%%%%%%%%%%%%%%###@######@####%%%%%%%%%%%%%%%###############%%%%%%%%%%%%%%%###############%%%%%%%%%%%%%%%###",
"%%%%%%%%%%%%%%%###############%%%%%%%%%%%%%%%###############%%%%%%%%%%%%%%%###############%%%%%%%%%%%%%%%###############%%%%%%%%%%%%%%%###############%%%%%%%%%%%%%%%###############%%%%%%%%%%%%%%%###############%%%%%%%%%%%%%%%###############%%%%%%%%%%%%%%%###############%%%%%%%%%%%%%%%###############%%%%%%%%%%%%%%%###############%%%%%%%%%%%%%%%###",
"%%%%%%%%%%%%%%%###############%%%%%%%%%%%%%%%###############%%%%%%%%%%%%%%%###############%%%%%%%%%%%%%%%###############%%%%%%%%%%%%%%%###############%%%%%%%%%%%%%%%###############%%%%%%%%%%%%%%%###############%%%%%%%%%%%%%%%############@##%%%%%%%%%%%%%%%###############%%%%%%%%%%%%%%%###############%%%%%%%%%%%%%%%###############%%%%%%%%%%%%%%%###",
"%%%%%%%%%%%%%%%###@####@######%%%%%%%%%%%%%%%####@####@#####%%%%%%%%%%%%%%%####@####@#####%%%%%%%%%%%%%%%###@####@######%%%%%%%%%%%%%%%###@####@######%%%%%%%%%%%%%%%####@####@#####%%%%%%%%%%%%%%%####@#####@####%%%%%%%%%%%%%%%###############%%%%%%%%%%%%%%%###############%%%%%%%%%%%%%%%###@####@######%%%%%%%%%%%%%%%##@####@#######%%%%%%%%%%%%%%%###",
"%%%%%%%%%%%%%%%############@##%%%%%%%%%%%%%%%###############%%%%%%%%%%%%%%%###############%%%%%%%%%%%%%%%############@##%%%%%%%%%%%%%%%############@##%%%%%%%%%%%%%%%###############%%%%%%%%%%%%%%%###############%%%%%%%%%%%%%%%##@###@########%%%%%%%%%%%%%%%#####@####@####%%%%%%%%%%%%%%%############@##%%%%%%%%%%%%%%%##########@####%%%%%%%%%%%%%%%###",
"%%%%%%%%%%%%%%%###############%%%%%%%%%%%%%%%############@##%%%%%%%%%%%%%%%############@##%%%%%%%%%%%%%%%###############%%%%%%%%%%%%%%%###############%%%%%%%%%%%%%%%############@##%%%%%%%%%%%%%%%###############%%%%%%%%%%%%%%%#########@#####%%%%%%%%%%%%%%%###############%%%%%%%%%%%%%%%###############%%%%%%%%%%%%%%%###############%%%%%%%%%%%%%%%###",
"%%%%%%%%%%%%%%%###############%%%%%%%%%%%%%%%###############%%%%%%%%%%%%%%%###############%%%%%%%%%%%%%%%###############%%%%%%%%%%%%%%%###############%%%%%%%%%%%%%%%###############%%%%%%%%%%%%%%%######@########%%%%%%%%%%%%%%%###############%%%%%%%%%%%%%%%##@############%%%%%%%%%%%%%%%###############%%%%%%%%%%%%%%%###############%%%%%%%%%%%%%%%###",
"%%%%%%%%%%%%%%%####@###@######%%%%%%%%%%%%%%%##@####@#######%%%%%%%%%%%%%%%##@####@#######%%%%%%%%%%%%%%%####@###@######%%%%%%%%%%%%%%%####@###@######%%%%%%%%%%%%%%%##@####@#######%%%%%%%%%%%%%%%##@#########@##%%%%%%%%%%%%%%%###############%%%%%%%%%%%%%%%###############%%%%%%%%%%%%%%%####@###@######%%%%%%%%%%%%%%%#####@#########%%%%%%%%%%%%%%%###",
"%%%%%%%%%%%%%%%###############%%%%%%%%%%%%%%%###############%%%%%%%%%%%%%%%###############%%%%%%%%%%%%%%%###############%%%%%%%%%%%%%%%###############%%%%%%%%%%%%%%%###############%%%%%%%%%%%%%%%###############%%%%%%%%%%%%%%%###############%%%%%%%%%%%%%%%###############%%%%%%%%%%%%%%%###############%%%%%%%%%%%%%%%###############%%%%%%%%%%%%%%%###",
"###############%%%%%%%%%%%%%%%###############%%%%%%%%%%%%%%%###############%%%%%%%%%%%%%%%###############%%%%%%%%%%%%%%%###############%%%%%%%%%%%%%%%###############%%%%%%%%%%%%%%%###############%%%%%%%%%%%%%%%###############%%%%%%%%%%%%%%%###############%%%%%%%%%%%%%%%###############%%%%%%%%%%%%%%%###############%%%%%%%%%%%%%%%###############%%%",
"###############%%%%%%%%%%%%%%%###############%%%%%%%%%%%%%%%###############%%%%%%%%%%%%%%%###############%%%%%%%%%%%%%%%###############%%%%%%%%%%%%%%%###############%%%%%%%%%%%%%%%###############%%%%%%%%%%%%%%%###############%%%%%%%%%%%%%%%###############%%%%%%%%%%%%%%%###############%%%%%%%%%%%%%%%###############%%%%%%%%%%%%%%%###############%%%",
"###############%%%%%%%%%%%%%%%###############%%%%%%%%%%%%%%%###############%%%%%%%%%%%%%%%###############%%%%%%%%%%%%%%%###############%%%%%%%%%%%%%%%###############%%%%%%%%%%%%%%%###############%%%%%%%%%%%%%%%###############%%%%%%%%%%%%%%%###############%%%%%%%%%%%%%%%###############%%%%%%%%%%%%%%%###############%%%%%%%%%%%%%%%###############%%%",
"###############%%%%%%%%%%%%%%%###############%%%%%%%%%%%%%%%###############%%%%%%%%%%%%%%%###############%%%%%%%%%%%%%%%###############%%%%%%%%%%%%%%%###############%%%%%%%%%%%%%%%###############%%%%%%%%%%%%%%%###############%%%%%%%%%%%%%%%###############%%%%%%%%%%%%%%%###############%%%%%%%%%%%%%%%###############%%%%%%%%%%%%%%%###############%%%",
"###############%%%%%%%%%%%%%%%###############%%%%%%%%%%%%%%%###############%%%%%%%%%%%%%%%###############%%%%%%%%%%%%%%%###############%%%%%%%%%%%%%%%###############%%%%%%%%%%%%%%%###############%%%%%%%%%%%%%%%###############%%%%%%%%%%%%%%%###############%%%%%%%%%%%%%%%###############%%%%%%%%%%%%%%%###############%%%%%%%%%%%%%%%###############%%%",
"###@###@###@###%%%%%%%%%%%%%%%##@###@###@####%%%%%%%%%%%%%%%##@###@###@####%%%%%%%%%%%%%%%##@###@###@####%%%%%%%%%%%%%%%##@###@###@####%%%%%%%%%%%%%%%##@###@###@####%%%%%%%%%%%%%%%##@###@###@####%%%%%%%%%%%%%%%##@###@###@####%%%%%%%%%%%%%%%##@###@###@####%%%%%%%%%%%%%%%##@###@###@####%%%%%%%%%%%%%%%##@###@###@####%%%%%%%%%%%%%%%##@###@###@####%%%",
"###############%%%%%%%%%%%%%%%###############%%%%%%%%%%%%%%%###############%%%%%%%%%%%%%%%###############%%%%%%%%%%%%%%%###############%%%%%%%%%%%%%%%###############%%%%%%%%%%%%%%%###############%%%%%%%%%%%%%%%###############%%%%%%%%%%%%%%%###############%%%%%%%%%%%%%%%###############%%%%%%%%%%%%%%%###############%%%%%%%%%%%%%%%###############%%%",
"###############%%%%%%%%%%%%%%%###############%%%%%%%%%%%%%%%###############%%%%%%%%%%%%%%%###############%%%%%%%%%%%%%%%###############%%%%%%%%%%%%%%%###############%%%%%%%%%%%%%%%###############%%%%%%%%%%%%%%%###############%%%%%%%%%%%%%%%###############%%%%%%%%%%%%%%%###############%%%%%%%%%%%%%%%###############%%%%%%%%%%%%%%%###############%%%"
};
